/JOB
//NAME GAUSSIANMOVING2
//POS
///NPOS 0,0,0,61,0,0
///TOOL 0
///POSTYPE ROBOT
///RECTAN
///RCONF 0,0,0,0,0,0,0,0,0,0,0,0,0,0,0,0,0,0,0,0,0,0,0,0
P00000=10.000,0.000,0.000,0.0000,0.0000,0.0000
///POSTYPE BASE
///TOOL1
P00001=0743.68276497,-0039.92536747,0908.48000000,0180.00000000,0000.00000000,0000.00000000
P00002=0743.63500768,-0039.89779479,0908.48000000,0180.00000000,0000.00000000,0000.00000000
P00003=0743.57183331,-0039.86132105,0908.48000000,0180.00000000,0000.00000000,0000.00000000
P00004=0743.48909572,-0039.81355248,0908.48000000,0180.00000000,0000.00000000,0000.00000000
P00005=0743.38181407,-0039.75161339,0908.48000000,0180.00000000,0000.00000000,0000.00000000
P00006=0743.24409035,-0039.67209856,0908.48000000,0180.00000000,0000.00000000,0000.00000000
P00007=0743.06904417,-0039.57103560,0908.48000000,0180.00000000,0000.00000000,0000.00000000
P00008=0742.84877320,-0039.44386210,0908.48000000,0180.00000000,0000.00000000,0000.00000000
P00009=0742.57434894,-0039.28542318,0908.48000000,0180.00000000,0000.00000000,0000.00000000
P00010=0742.23585693,-0039.08999472,0908.48000000,0180.00000000,0000.00000000,0000.00000000
P00011=0741.82249068,-0038.85133761,0908.48000000,0180.00000000,0000.00000000,0000.00000000
P00012=0741.32270677,-0038.56278724,0908.48000000,0180.00000000,0000.00000000,0000.00000000
P00013=0740.72444647,-0038.21738149,0908.48000000,0180.00000000,0000.00000000,0000.00000000
P00014=0740.01542601,-0037.80802833,0908.48000000,0180.00000000,0000.00000000,0000.00000000
P00015=0739.18349363,-0037.32771195,0908.48000000,0180.00000000,0000.00000000,0000.00000000
P00016=0738.21704683,-0036.76973363,0908.48000000,0180.00000000,0000.00000000,0000.00000000
P00017=0737.10549800,-0036.12798062,0908.48000000,0180.00000000,0000.00000000,0000.00000000
P00018=0735.83977169,-0035.39721319,0908.48000000,0180.00000000,0000.00000000,0000.00000000
P00019=0734.41281189,-0034.57335756,0908.48000000,0180.00000000,0000.00000000,0000.00000000
P00020=0732.82007387,-0033.65378984,0908.48000000,0180.00000000,0000.00000000,0000.00000000
P00021=0731.05997275,-0032.63759499,0908.48000000,0180.00000000,0000.00000000,0000.00000000
P00022=0729.13425973,-0031.52578406,0908.48000000,0180.00000000,0000.00000000,0000.00000000
P00023=0727.04829873,-0030.32145391,0908.48000000,0180.00000000,0000.00000000,0000.00000000
P00024=0724.81121894,-0029.02987529,0908.48000000,0180.00000000,0000.00000000,0000.00000000
P00025=0722.43592458,-0027.65849845,0908.48000000,0180.00000000,0000.00000000,0000.00000000
P00026=0719.93895027,-0026.21686966,0908.48000000,0180.00000000,0000.00000000,0000.00000000
P00027=0717.34015911,-0024.71645689,0908.48000000,0180.00000000,0000.00000000,0000.00000000
P00028=0714.66228990,-0023.17038838,0908.48000000,0180.00000000,0000.00000000,0000.00000000
P00029=0711.93036966,-0021.59311349,0908.48000000,0180.00000000,0000.00000000,0000.00000000
P00030=0709.17101615,-0020.00000000,0908.48000000,0180.00000000,0000.00000000,0000.00000000
P00031=0706.41166264,-0018.40688651,0908.48000000,0180.00000000,0000.00000000,0000.00000000
P00032=0703.67974240,-0016.82961162,0908.48000000,0180.00000000,0000.00000000,0000.00000000
P00033=0701.00187319,-0015.28354311,0908.48000000,0180.00000000,0000.00000000,0000.00000000
P00034=0698.40308203,-0013.78313034,0908.48000000,0180.00000000,0000.00000000,0000.00000000
P00035=0695.90610772,-0012.34150155,0908.48000000,0180.00000000,0000.00000000,0000.00000000
P00036=0693.53081336,-0010.97012471,0908.48000000,0180.00000000,0000.00000000,0000.00000000
P00037=0691.29373357,-0009.67854609,0908.48000000,0180.00000000,0000.00000000,0000.00000000
P00038=0689.20777257,-0008.47421594,0908.48000000,0180.00000000,0000.00000000,0000.00000000
P00039=0687.28205955,-0007.36240501,0908.48000000,0180.00000000,0000.00000000,0000.00000000
P00040=0685.52195843,-0006.34621016,0908.48000000,0180.00000000,0000.00000000,0000.00000000
P00041=0683.92922042,-0005.42664244,0908.48000000,0180.00000000,0000.00000000,0000.00000000
P00042=0682.50226061,-0004.60278681,0908.48000000,0180.00000000,0000.00000000,0000.00000000
P00043=0681.23653430,-0003.87201938,0908.48000000,0180.00000000,0000.00000000,0000.00000000
P00044=0680.12498547,-0003.23026637,0908.48000000,0180.00000000,0000.00000000,0000.00000000
P00045=0679.15853868,-0002.67228805,0908.48000000,0180.00000000,0000.00000000,0000.00000000
P00046=0678.32660630,-0002.19197167,0908.48000000,0180.00000000,0000.00000000,0000.00000000
P00047=0677.61758583,-0001.78261851,0908.48000000,0180.00000000,0000.00000000,0000.00000000
P00048=0677.01932553,-0001.43721276,0908.48000000,0180.00000000,0000.00000000,0000.00000000
P00049=0676.51954162,-0001.14866239,0908.48000000,0180.00000000,0000.00000000,0000.00000000
P00050=0676.10617538,-0000.91000528,0908.48000000,0180.00000000,0000.00000000,0000.00000000
P00051=0675.76768336,-0000.71457682,0908.48000000,0180.00000000,0000.00000000,0000.00000000
P00052=0675.49325910,-0000.55613790,0908.48000000,0180.00000000,0000.00000000,0000.00000000
P00053=0675.27298814,-0000.42896440,0908.48000000,0180.00000000,0000.00000000,0000.00000000
P00054=0675.09794195,-0000.32790144,0908.48000000,0180.00000000,0000.00000000,0000.00000000
P00055=0674.96021823,-0000.24838661,0908.48000000,0180.00000000,0000.00000000,0000.00000000
P00056=0674.85293658,-0000.18644752,0908.48000000,0180.00000000,0000.00000000,0000.00000000
P00057=0674.77019899,-0000.13867895,0908.48000000,0180.00000000,0000.00000000,0000.00000000
P00058=0674.70702462,-0000.10220521,0908.48000000,0180.00000000,0000.00000000,0000.00000000
P00059=0674.65926734,-0000.07463253,0908.48000000,0180.00000000,0000.00000000,0000.00000000
P00060=0674.62352368,-0000.05399592,0908.48000000,0180.00000000,0000.00000000,0000.00000000
//INST
///DATE 2017/03/31 08:11
///ATTR SC,RW
///GROUP1 RB2
NOP
DOUT OT#(16) OFF
DOUT OT#(15) ON
DOUT OT#(16) ON
MOVL P00001 V=0003.4465852
MOVL P00002 V=0004.5592174
MOVL P00003 V=0005.9710711
MOVL P00004 V=0007.7423865
MOVL P00005 V=0009.9393530
MOVL P00006 V=0012.6328705
MOVL P00007 V=0015.8966875
MOVL P00008 V=0019.8048652
MOVL P00009 V=0024.4285569
MOVL P00010 V=0029.8321393
MOVL P00011 V=0036.0687965
MOVL P00012 V=0043.1757182
MOVL P00013 V=0051.1691447
MOVL P00014 V=0060.0395478
MOVL P00015 V=0069.7472898
MOVL P00016 V=0080.2191268
MOVL P00017 V=0091.3459282
MOVL P00018 V=0102.9819536
MOVL P00019 V=0114.9459649
MOVL P00020 V=0127.0243571
MOVL P00021 V=0138.9763662
MOVL P00022 V=0150.5412682
MOVL P00023 V=0161.4473276
MOVL P00024 V=0171.4221049
MOVL P00025 V=0180.2035983
MOVL P00026 V=0187.5515971
MOVL P00027 V=0193.2585637
MOVL P00028 V=0197.1593608
MOVL P00029 V=0199.1391864
MOVL P00030 V=0199.1391864
MOVL P00031 V=0197.1593608
MOVL P00032 V=0193.2585637
MOVL P00033 V=0187.5515971
MOVL P00034 V=0180.2035983
MOVL P00035 V=0171.4221049
MOVL P00036 V=0161.4473276
MOVL P00037 V=0150.5412682
MOVL P00038 V=0138.9763662
MOVL P00039 V=0127.0243571
MOVL P00040 V=0114.9459649
MOVL P00041 V=0102.9819536
MOVL P00042 V=0091.3459282
MOVL P00043 V=0080.2191268
MOVL P00044 V=0069.7472898
MOVL P00045 V=0060.0395478
MOVL P00046 V=0051.1691447
MOVL P00047 V=0043.1757182
MOVL P00048 V=0036.0687965
MOVL P00049 V=0029.8321393
MOVL P00050 V=0024.4285569
MOVL P00051 V=0019.8048652
MOVL P00052 V=0015.8966875
MOVL P00053 V=0012.6328705
MOVL P00054 V=0009.9393530
MOVL P00055 V=0007.7423865
MOVL P00056 V=0005.9710711
MOVL P00057 V=0004.5592174
MOVL P00058 V=0003.4465852
MOVL P00059 V=0002.5795763
MOVL P00060 V=0002.5795763
DOUT OT#(16) OFF
DOUT OT#(15) OFF
DOUT OT#(16) ON
END
