/JOB
//NAME GAUSSIANMOVING2
//POS
///NPOS 0,0,0,13,0,0
///TOOL 0
///POSTYPE ROBOT
///RECTAN
///RCONF 0,0,0,0,0,0,0,0,0,0,0,0,0,0,0,0,0,0,0,0,0,0,0,0
P00000=10.000,0.000,0.000,0.0000,0.0000,0.0000
///POSTYPE BASE
///TOOL1
P00001=0708.95590703,0019.87580669,0908.48000000,0180.00000000,0000.00000000,0000.00000000
P00002=0708.38292846,0019.54499736,0908.48000000,0180.00000000,0000.00000000,0000.00000000
P00003=0706.85674681,0018.66385597,0908.48000000,0180.00000000,0000.00000000,0000.00000000
P00004=0703.67503694,0016.82689492,0908.48000000,0180.00000000,0000.00000000,0000.00000000
P00005=0698.48296229,0013.82924923,0908.48000000,0180.00000000,0000.00000000,0000.00000000
P00006=0691.85050808,0010.00000000,0908.48000000,0180.00000000,0000.00000000,0000.00000000
P00007=0685.21805386,0006.17075077,0908.48000000,0180.00000000,0000.00000000,0000.00000000
P00008=0680.02597921,0003.17310508,0908.48000000,0180.00000000,0000.00000000,0000.00000000
P00009=0676.84426934,0001.33614403,0908.48000000,0180.00000000,0000.00000000,0000.00000000
P00010=0675.31808769,0000.45500264,0908.48000000,0180.00000000,0000.00000000,0000.00000000
P00011=0674.74510912,0000.12419331,0908.48000000,0180.00000000,0000.00000000,0000.00000000
P00012=0674.57676184,0000.02699796,0908.48000000,0180.00000000,0000.00000000,0000.00000000
//INST
///DATE 2017/03/31 08:11
///ATTR SC,RW
///GROUP1 RB2
NOP
DOUT OT#(16) OFF
DOUT OT#(15) ON
DOUT OT#(16) ON
MOVL P00001 V=0041.3511666
MOVL P00002 V=0110.1426733
MOVL P00003 V=0229.6201317
MOVL P00004 V=0374.7057120
MOVL P00005 V=0478.6561532
MOVL P00006 V=0478.6561532
MOVL P00007 V=0374.7057120
MOVL P00008 V=0229.6201317
MOVL P00009 V=0110.1426733
MOVL P00010 V=0041.3511666
MOVL P00011 V=0012.1494182
MOVL P00012 V=0012.1494182
DOUT OT#(16) OFF
DOUT OT#(15) OFF
DOUT OT#(16) ON
END
