/JOB
//NAME GAUSSIANMOVING2
//POS
///NPOS 0,0,0,121,0,0
///TOOL 0
///POSTYPE ROBOT
///RECTAN
///RCONF 0,0,0,0,0,0,0,0,0,0,0,0,0,0,0,0,0,0,0,0,0,0,0,0
P00000=10.000,0.000,0.000,0.0000,0.0000,0.0000
///POSTYPE BASE
///TOOL0
P00001=0647.84014638,0027.31055981,0523.09500000,0000.00000000,0000.00400000,0180.00000000,
P00002=0647.78832669,0027.29169898,0523.09500000,0000.00000000,0000.00400000,0180.00000000,
P00003=0647.71977849,0027.26674948,0523.09500000,0000.00000000,0000.00400000,0180.00000000,
P00004=0647.63000294,0027.23407385,0523.09500000,0000.00000000,0000.00400000,0180.00000000,
P00005=0647.51359553,0027.19170502,0523.09500000,0000.00000000,0000.00400000,0180.00000000,
P00006=0647.36415654,0027.13731367,0523.09500000,0000.00000000,0000.00400000,0180.00000000,
P00007=0647.17422030,0027.06818253,0523.09500000,0000.00000000,0000.00400000,0180.00000000,
P00008=0646.93521230,0026.98119074,0523.09500000,0000.00000000,0000.00400000,0180.00000000,
P00009=0646.63744453,0026.87281213,0523.09500000,0000.00000000,0000.00400000,0180.00000000,
P00010=0646.27015917,0026.73913119,0523.09500000,0000.00000000,0000.00400000,0180.00000000,
P00011=0645.82163051,0026.57588011,0523.09500000,0000.00000000,0000.00400000,0180.00000000,
P00012=0645.27933320,0026.37850003,0523.09500000,0000.00000000,0000.00400000,0180.00000000,
P00013=0644.63018274,0026.14222859,0523.09500000,0000.00000000,0000.00400000,0180.00000000,
P00014=0643.86085046,0025.86221454,0523.09500000,0000.00000000,0000.00400000,0180.00000000,
P00015=0642.95815094,0025.53365878,0523.09500000,0000.00000000,0000.00400000,0180.00000000,
P00016=0641.90949472,0025.15197913,0523.09500000,0000.00000000,0000.00400000,0180.00000000,
P00017=0640.70339358,0024.71299422,0523.09500000,0000.00000000,0000.00400000,0180.00000000,
P00018=0639.33000006,0024.21311986,0523.09500000,0000.00000000,0000.00400000,0180.00000000,
P00019=0637.78165795,0023.64956942,0523.09500000,0000.00000000,0000.00400000,0180.00000000,
P00020=0636.05343595,0023.02054805,0523.09500000,0000.00000000,0000.00400000,0180.00000000,
P00021=0634.14361434,0022.32542983,0523.09500000,0000.00000000,0000.00400000,0180.00000000,
P00022=0632.05409329,0021.56490636,0523.09500000,0000.00000000,0000.00400000,0180.00000000,
P00023=0629.79069298,0020.74109603,0523.09500000,0000.00000000,0000.00400000,0180.00000000,
P00024=0627.36331918,0019.85760421,0523.09500000,0000.00000000,0000.00400000,0180.00000000,
P00025=0624.78597379,0018.91952721,0523.09500000,0000.00000000,0000.00400000,0180.00000000,
P00026=0622.07659793,0017.93339504,0523.09500000,0000.00000000,0000.00400000,0180.00000000,
P00027=0619.25674430,0016.90705225,0523.09500000,0000.00000000,0000.00400000,0180.00000000,
P00028=0616.35108596,0015.84947911,0523.09500000,0000.00000000,0000.00400000,0180.00000000,
P00029=0613.38677881,0014.77055954,0523.09500000,0000.00000000,0000.00400000,0180.00000000,
P00030=0610.39270483,0013.68080573,0523.09500000,0000.00000000,0000.00400000,0180.00000000,
P00031=0607.39863085,0012.59105192,0523.09500000,0000.00000000,0000.00400000,0180.00000000,
P00032=0604.43432370,0011.51213236,0523.09500000,0000.00000000,0000.00400000,0180.00000000,
P00033=0601.52866536,0010.45455921,0523.09500000,0000.00000000,0000.00400000,0180.00000000,
P00034=0598.70881174,0009.42821643,0523.09500000,0000.00000000,0000.00400000,0180.00000000,
P00035=0595.99943587,0008.44208426,0523.09500000,0000.00000000,0000.00400000,0180.00000000,
P00036=0593.42209048,0007.50400725,0523.09500000,0000.00000000,0000.00400000,0180.00000000,
P00037=0590.99471668,0006.62051544,0523.09500000,0000.00000000,0000.00400000,0180.00000000,
P00038=0588.73131638,0005.79670510,0523.09500000,0000.00000000,0000.00400000,0180.00000000,
P00039=0586.64179533,0005.03618164,0523.09500000,0000.00000000,0000.00400000,0180.00000000,
P00040=0584.73197371,0004.34106342,0523.09500000,0000.00000000,0000.00400000,0180.00000000,
P00041=0583.00375171,0003.71204205,0523.09500000,0000.00000000,0000.00400000,0180.00000000,
P00042=0581.45540960,0003.14849161,0523.09500000,0000.00000000,0000.00400000,0180.00000000,
P00043=0580.08201608,0002.64861725,0523.09500000,0000.00000000,0000.00400000,0180.00000000,
P00044=0578.87591494,0002.20963233,0523.09500000,0000.00000000,0000.00400000,0180.00000000,
P00045=0577.82725872,0001.82795268,0523.09500000,0000.00000000,0000.00400000,0180.00000000,
P00046=0576.92455920,0001.49939693,0523.09500000,0000.00000000,0000.00400000,0180.00000000,
P00047=0576.15522692,0001.21938288,0523.09500000,0000.00000000,0000.00400000,0180.00000000,
P00048=0575.50607646,0000.98311143,0523.09500000,0000.00000000,0000.00400000,0180.00000000,
P00049=0574.96377915,0000.78573135,0523.09500000,0000.00000000,0000.00400000,0180.00000000,
P00050=0574.51525049,0000.62248027,0523.09500000,0000.00000000,0000.00400000,0180.00000000,
P00051=0574.14796513,0000.48879933,0523.09500000,0000.00000000,0000.00400000,0180.00000000,
P00052=0573.85019736,0000.38042073,0523.09500000,0000.00000000,0000.00400000,0180.00000000,
P00053=0573.61118936,0000.29342893,0523.09500000,0000.00000000,0000.00400000,0180.00000000,
P00054=0573.42125312,0000.22429779,0523.09500000,0000.00000000,0000.00400000,0180.00000000,
P00055=0573.27181413,0000.16990645,0523.09500000,0000.00000000,0000.00400000,0180.00000000,
P00056=0573.15540672,0000.12753762,0523.09500000,0000.00000000,0000.00400000,0180.00000000,
P00057=0573.06563118,0000.09486199,0523.09500000,0000.00000000,0000.00400000,0180.00000000,
P00058=0572.99708297,0000.06991248,0523.09500000,0000.00000000,0000.00400000,0180.00000000,
P00059=0572.94526328,0000.05105166,0523.09500000,0000.00000000,0000.00400000,0180.00000000,
P00060=0572.90647914,0000.03693539,0523.09500000,0000.00000000,0000.00400000,0180.00000000,
///TOOL1
P00061=0660.66406539,0024.01650323,0908.48000000,0180.00000000,0000.00000000,0000.00000000
P00062=0660.67364128,0023.99991730,0908.48000000,0180.00000000,0000.00000000,0000.00000000
P00063=0660.68630848,0023.97797707,0908.48000000,0180.00000000,0000.00000000,0000.00000000
P00064=0660.70289833,0023.94924261,0908.48000000,0180.00000000,0000.00000000,0000.00000000
P00065=0660.72440955,0023.91198408,0908.48000000,0180.00000000,0000.00000000,0000.00000000
P00066=0660.75202476,0023.86415314,0908.48000000,0180.00000000,0000.00000000,0000.00000000
P00067=0660.78712356,0023.80336024,0908.48000000,0180.00000000,0000.00000000,0000.00000000
P00068=0660.83129045,0023.72686093,0908.48000000,0180.00000000,0000.00000000,0000.00000000
P00069=0660.88631571,0023.63155439,0908.48000000,0180.00000000,0000.00000000,0000.00000000
P00070=0660.95418730,0023.51399735,0908.48000000,0180.00000000,0000.00000000,0000.00000000
P00071=0661.03707205,0023.37043675,0908.48000000,0180.00000000,0000.00000000,0000.00000000
P00072=0661.13728454,0023.19686363,0908.48000000,0180.00000000,0000.00000000,0000.00000000
P00073=0661.25724270,0022.98909000,0908.48000000,0180.00000000,0000.00000000,0000.00000000
P00074=0661.39940956,0022.74284978,0908.48000000,0180.00000000,0000.00000000,0000.00000000
P00075=0661.56622169,0022.45392270,0908.48000000,0180.00000000,0000.00000000,0000.00000000
P00076=0661.76000552,0022.11827925,0908.48000000,0180.00000000,0000.00000000,0000.00000000
P00077=0661.98288401,0021.73224239,0908.48000000,0180.00000000,0000.00000000,0000.00000000
P00078=0662.23667687,0021.29266026,0908.48000000,0180.00000000,0000.00000000,0000.00000000
P00079=0662.52279893,0020.79708232,0908.48000000,0180.00000000,0000.00000000,0000.00000000
P00080=0662.84216144,0020.24393021,0908.48000000,0180.00000000,0000.00000000,0000.00000000
P00081=0663.19508221,0019.63265350,0908.48000000,0180.00000000,0000.00000000,0000.00000000
P00082=0663.58121010,0018.96386039,0908.48000000,0180.00000000,0000.00000000,0000.00000000
P00083=0663.99946957,0018.23941374,0908.48000000,0180.00000000,0000.00000000,0000.00000000
P00084=0664.44803012,0017.46248408,0908.48000000,0180.00000000,0000.00000000,0000.00000000
P00085=0664.92430429,0016.63755300,0908.48000000,0180.00000000,0000.00000000,0000.00000000
P00086=0665.42497672,0015.77036293,0908.48000000,0180.00000000,0000.00000000,0000.00000000
P00087=0665.94606461,0014.86781223,0908.48000000,0180.00000000,0000.00000000,0000.00000000
P00088=0666.48300856,0013.93779801,0908.48000000,0180.00000000,0000.00000000,0000.00000000
P00089=0667.03079038,0012.98901207,0908.48000000,0180.00000000,0000.00000000,0000.00000000
P00090=0667.58407289,0012.03069865,0908.48000000,0180.00000000,0000.00000000,0000.00000000
P00091=0668.13735540,0011.07238524,0908.48000000,0180.00000000,0000.00000000,0000.00000000
P00092=0668.68513722,0010.12359930,0908.48000000,0180.00000000,0000.00000000,0000.00000000
P00093=0669.22208118,0009.19358508,0908.48000000,0180.00000000,0000.00000000,0000.00000000
P00094=0669.74316907,0008.29103438,0908.48000000,0180.00000000,0000.00000000,0000.00000000
P00095=0670.24384149,0007.42384430,0908.48000000,0180.00000000,0000.00000000,0000.00000000
P00096=0670.72011567,0006.59891323,0908.48000000,0180.00000000,0000.00000000,0000.00000000
P00097=0671.16867622,0005.82198357,0908.48000000,0180.00000000,0000.00000000,0000.00000000
P00098=0671.58693569,0005.09753692,0908.48000000,0180.00000000,0000.00000000,0000.00000000
P00099=0671.97306357,0004.42874380,0908.48000000,0180.00000000,0000.00000000,0000.00000000
P00100=0672.32598434,0003.81746710,0908.48000000,0180.00000000,0000.00000000,0000.00000000
P00101=0672.64534686,0003.26431499,0908.48000000,0180.00000000,0000.00000000,0000.00000000
P00102=0672.93146892,0002.76873705,0908.48000000,0180.00000000,0000.00000000,0000.00000000
P00103=0673.18526178,0002.32915492,0908.48000000,0180.00000000,0000.00000000,0000.00000000
P00104=0673.40814026,0001.94311806,0908.48000000,0180.00000000,0000.00000000,0000.00000000
P00105=0673.60192410,0001.60747461,0908.48000000,0180.00000000,0000.00000000,0000.00000000
P00106=0673.76873623,0001.31854753,0908.48000000,0180.00000000,0000.00000000,0000.00000000
P00107=0673.91090309,0001.07230731,0908.48000000,0180.00000000,0000.00000000,0000.00000000
P00108=0674.03086125,0000.86453368,0908.48000000,0180.00000000,0000.00000000,0000.00000000
P00109=0674.13107374,0000.69096056,0908.48000000,0180.00000000,0000.00000000,0000.00000000
P00110=0674.21395848,0000.54739996,0908.48000000,0180.00000000,0000.00000000,0000.00000000
P00111=0674.28183007,0000.42984292,0908.48000000,0180.00000000,0000.00000000,0000.00000000
P00112=0674.33685533,0000.33453637,0908.48000000,0180.00000000,0000.00000000,0000.00000000
P00113=0674.38102223,0000.25803707,0908.48000000,0180.00000000,0000.00000000,0000.00000000
P00114=0674.41612103,0000.19724417,0908.48000000,0180.00000000,0000.00000000,0000.00000000
P00115=0674.44373623,0000.14941322,0908.48000000,0180.00000000,0000.00000000,0000.00000000
P00116=0674.46524746,0000.11215470,0908.48000000,0180.00000000,0000.00000000,0000.00000000
P00117=0674.48183731,0000.08342023,0908.48000000,0180.00000000,0000.00000000,0000.00000000
P00118=0674.49450450,0000.06148001,0908.48000000,0180.00000000,0000.00000000,0000.00000000
P00119=0674.50408039,0000.04489408,0908.48000000,0180.00000000,0000.00000000,0000.00000000
P00120=0674.51124741,0000.03248043,0908.48000000,0180.00000000,0000.00000000,0000.00000000
//INST
///DATE 2017/03/31 08:11
///COMM PLAYINGTWOROBOTS
///ATTR SC,RW
///GROUP1 RB1
///GROUP2 RB2
NOP
DOUT OT#(16) OFF
DOUT OT#(15) ON
DOUT OT#(16) ON
MOVL P00001 V=0003.4465852  +MOVL P00061 V=0001.1969865
MOVL P00002 V=0004.5592174  +MOVL P00062 V=0001.5833996
MOVL P00003 V=0005.9710711  +MOVL P00063 V=0002.0737312
MOVL P00004 V=0007.7423865  +MOVL P00064 V=0002.6889026
MOVL P00005 V=0009.9393530  +MOVL P00065 V=0003.4519011
MOVL P00006 V=0012.6328705  +MOVL P00066 V=0004.3873499
MOVL P00007 V=0015.8966875  +MOVL P00067 V=0005.5208616
MOVL P00008 V=0019.8048652  +MOVL P00068 V=0006.8781575
MOVL P00009 V=0024.4285569  +MOVL P00069 V=0008.4839488
MOVL P00010 V=0029.8321393  +MOVL P00070 V=0010.3605933
MOVL P00011 V=0036.0687965  +MOVL P00071 V=0012.5265616
MOVL P00012 V=0043.1757182  +MOVL P00072 V=0014.9947696
MOVL P00013 V=0051.1691447  +MOVL P00073 V=0017.7708575
MOVL P00014 V=0060.0395478  +MOVL P00074 V=0020.8515161
MOVL P00015 V=0069.7472898  +MOVL P00075 V=0024.2229796
MOVL P00016 V=0080.2191268  +MOVL P00076 V=0027.8598104
MOVL P00017 V=0091.3459282  +MOVL P00077 V=0031.7241079
MOVL P00018 V=0102.9819536  +MOVL P00078 V=0035.7652572
MOVL P00019 V=0114.9459649  +MOVL P00079 V=0039.9203147
MOVL P00020 V=0127.0243571  +MOVL P00080 V=0044.1150963
MOVL P00021 V=0138.9763662  +MOVL P00081 V=0048.2659855
MOVL P00022 V=0150.5412682  +MOVL P00082 V=0052.2824338
MOVL P00023 V=0161.4473276  +MOVL P00083 V=0056.0700685
MOVL P00024 V=0171.4221049  +MOVL P00084 V=0059.5342722
MOVL P00025 V=0180.2035983  +MOVL P00085 V=0062.5840529
MOVL P00026 V=0187.5515971  +MOVL P00086 V=0065.1359861
MOVL P00027 V=0193.2585637  +MOVL P00087 V=0067.1179948
MOVL P00028 V=0197.1593608  +MOVL P00088 V=0068.4727274
MOVL P00029 V=0199.1391864  +MOVL P00089 V=0069.1603136
MOVL P00030 V=0199.1391864  +MOVL P00090 V=0069.1603136
MOVL P00031 V=0197.1593608  +MOVL P00091 V=0068.4727274
MOVL P00032 V=0193.2585637  +MOVL P00092 V=0067.1179948
MOVL P00033 V=0187.5515971  +MOVL P00093 V=0065.1359861
MOVL P00034 V=0180.2035983  +MOVL P00094 V=0062.5840529
MOVL P00035 V=0171.4221049  +MOVL P00095 V=0059.5342722
MOVL P00036 V=0161.4473276  +MOVL P00096 V=0056.0700685
MOVL P00037 V=0150.5412682  +MOVL P00097 V=0052.2824338
MOVL P00038 V=0138.9763662  +MOVL P00098 V=0048.2659855
MOVL P00039 V=0127.0243571  +MOVL P00099 V=0044.1150963
MOVL P00040 V=0114.9459649  +MOVL P00100 V=0039.9203147
MOVL P00041 V=0102.9819536  +MOVL P00101 V=0035.7652572
MOVL P00042 V=0091.3459282  +MOVL P00102 V=0031.7241079
MOVL P00043 V=0080.2191268  +MOVL P00103 V=0027.8598104
MOVL P00044 V=0069.7472898  +MOVL P00104 V=0024.2229796
MOVL P00045 V=0060.0395478  +MOVL P00105 V=0020.8515161
MOVL P00046 V=0051.1691447  +MOVL P00106 V=0017.7708575
MOVL P00047 V=0043.1757182  +MOVL P00107 V=0014.9947696
MOVL P00048 V=0036.0687965  +MOVL P00108 V=0012.5265616
MOVL P00049 V=0029.8321393  +MOVL P00109 V=0010.3605933
MOVL P00050 V=0024.4285569  +MOVL P00110 V=0008.4839488
MOVL P00051 V=0019.8048652  +MOVL P00111 V=0006.8781575
MOVL P00052 V=0015.8966875  +MOVL P00112 V=0005.5208616
MOVL P00053 V=0012.6328705  +MOVL P00113 V=0004.3873499
MOVL P00054 V=0009.9393530  +MOVL P00114 V=0003.4519011
MOVL P00055 V=0007.7423865  +MOVL P00115 V=0002.6889026
MOVL P00056 V=0005.9710711  +MOVL P00116 V=0002.0737312
MOVL P00057 V=0004.5592174  +MOVL P00117 V=0001.5833996
MOVL P00058 V=0003.4465852  +MOVL P00118 V=0001.1969865
MOVL P00059 V=0002.5795763  +MOVL P00119 V=0000.8958775
MOVL P00060 V=0002.5795763  +MOVL P00120 V=0000.8958775
DOUT OT#(16) OFF
DOUT OT#(15) OFF
DOUT OT#(16) ON
END
