/JOB
//NAME GAUSSIANMOVING2
//POS
///NPOS 0,0,0,121,0,0
///TOOL 0
///POSTYPE ROBOT
///RECTAN
///RCONF 0,0,0,0,0,0,0,0,0,0,0,0,0,0,0,0,0,0,0,0,0,0,0,0
P00000=10.000,0.000,0.000,0.0000,0.0000,0.0000
///POSTYPE BASE
///TOOL0
P00001=0652.57973473,0003.48304014,0523.09500000,0000.00000000,0000.00400000,0180.00000000,
P00002=0652.52464185,0003.48063473,0523.09500000,0000.00000000,0000.00400000,0180.00000000,
P00003=0652.45176381,0003.47745281,0523.09500000,0000.00000000,0000.00400000,0180.00000000,
P00004=0652.35631760,0003.47328554,0523.09500000,0000.00000000,0000.00400000,0180.00000000,
P00005=0652.23255732,0003.46788205,0523.09500000,0000.00000000,0000.00400000,0180.00000000,
P00006=0652.07367903,0003.46094527,0523.09500000,0000.00000000,0000.00400000,0180.00000000,
P00007=0651.87174548,0003.45212866,0523.09500000,0000.00000000,0000.00400000,0180.00000000,
P00008=0651.61764057,0003.44103420,0523.09500000,0000.00000000,0000.00400000,0180.00000000,
P00009=0651.30106432,0003.42721218,0523.09500000,0000.00000000,0000.00400000,0180.00000000,
P00010=0650.91057942,0003.41016324,0523.09500000,0000.00000000,0000.00400000,0180.00000000,
P00011=0650.43371949,0003.38934309,0523.09500000,0000.00000000,0000.00400000,0180.00000000,
P00012=0649.85716801,0003.36417031,0523.09500000,0000.00000000,0000.00400000,0180.00000000,
P00013=0649.16701402,0003.33403753,0523.09500000,0000.00000000,0000.00400000,0180.00000000,
P00014=0648.34908693,0003.29832607,0523.09500000,0000.00000000,0000.00400000,0180.00000000,
P00015=0647.38936848,0003.25642385,0523.09500000,0000.00000000,0000.00400000,0180.00000000,
P00016=0646.27447398,0003.20774651,0523.09500000,0000.00000000,0000.00400000,0180.00000000,
P00017=0644.99218957,0003.15176076,0523.09500000,0000.00000000,0000.00400000,0180.00000000,
P00018=0643.53204578,0003.08800951,0523.09500000,0000.00000000,0000.00400000,0180.00000000,
P00019=0641.88590277,0003.01613735,0523.09500000,0000.00000000,0000.00400000,0180.00000000,
P00020=0640.04851778,0002.93591539,0523.09500000,0000.00000000,0000.00400000,0180.00000000,
P00021=0638.01806246,0002.84726380,0523.09500000,0000.00000000,0000.00400000,0180.00000000,
P00022=0635.79655699,0002.75027077,0523.09500000,0000.00000000,0000.00400000,0180.00000000,
P00023=0633.39018921,0002.64520649,0523.09500000,0000.00000000,0000.00400000,0180.00000000,
P00024=0630.80949056,0002.53253075,0523.09500000,0000.00000000,0000.00400000,0180.00000000,
P00025=0628.06934738,0002.41289352,0523.09500000,0000.00000000,0000.00400000,0180.00000000,
P00026=0625.18883403,0002.28712759,0523.09500000,0000.00000000,0000.00400000,0180.00000000,
P00027=0622.19086459,0002.15623341,0523.09500000,0000.00000000,0000.00400000,0180.00000000,
P00028=0619.10167060,0002.02135629,0523.09500000,0000.00000000,0000.00400000,0180.00000000,
P00029=0615.95012326,0001.88375676,0523.09500000,0000.00000000,0000.00400000,0180.00000000,
P00030=0612.76692886,0001.74477549,0523.09500000,0000.00000000,0000.00400000,0180.00000000,
P00031=0609.58373446,0001.60579423,0523.09500000,0000.00000000,0000.00400000,0180.00000000,
P00032=0606.43218712,0001.46819470,0523.09500000,0000.00000000,0000.00400000,0180.00000000,
P00033=0603.34299313,0001.33331757,0523.09500000,0000.00000000,0000.00400000,0180.00000000,
P00034=0600.34502370,0001.20242340,0523.09500000,0000.00000000,0000.00400000,0180.00000000,
P00035=0597.46451035,0001.07665747,0523.09500000,0000.00000000,0000.00400000,0180.00000000,
P00036=0594.72436716,0000.95702024,0523.09500000,0000.00000000,0000.00400000,0180.00000000,
P00037=0592.14366852,0000.84434450,0523.09500000,0000.00000000,0000.00400000,0180.00000000,
P00038=0589.73730073,0000.73928022,0523.09500000,0000.00000000,0000.00400000,0180.00000000,
P00039=0587.51579527,0000.64228719,0523.09500000,0000.00000000,0000.00400000,0180.00000000,
P00040=0585.48533994,0000.55363560,0523.09500000,0000.00000000,0000.00400000,0180.00000000,
P00041=0583.64795495,0000.47341364,0523.09500000,0000.00000000,0000.00400000,0180.00000000,
P00042=0582.00181195,0000.40154148,0523.09500000,0000.00000000,0000.00400000,0180.00000000,
P00043=0580.54166816,0000.33779023,0523.09500000,0000.00000000,0000.00400000,0180.00000000,
P00044=0579.25938374,0000.28180448,0523.09500000,0000.00000000,0000.00400000,0180.00000000,
P00045=0578.14448925,0000.23312714,0523.09500000,0000.00000000,0000.00400000,0180.00000000,
P00046=0577.18477079,0000.19122492,0523.09500000,0000.00000000,0000.00400000,0180.00000000,
P00047=0576.36684371,0000.15551345,0523.09500000,0000.00000000,0000.00400000,0180.00000000,
P00048=0575.67668971,0000.12538068,0523.09500000,0000.00000000,0000.00400000,0180.00000000,
P00049=0575.10013824,0000.10020790,0523.09500000,0000.00000000,0000.00400000,0180.00000000,
P00050=0574.62327831,0000.07938775,0523.09500000,0000.00000000,0000.00400000,0180.00000000,
P00051=0574.23279341,0000.06233881,0523.09500000,0000.00000000,0000.00400000,0180.00000000,
P00052=0573.91621716,0000.04851679,0523.09500000,0000.00000000,0000.00400000,0180.00000000,
P00053=0573.66211224,0000.03742233,0523.09500000,0000.00000000,0000.00400000,0180.00000000,
P00054=0573.46017869,0000.02860572,0523.09500000,0000.00000000,0000.00400000,0180.00000000,
P00055=0573.30130041,0000.02166894,0523.09500000,0000.00000000,0000.00400000,0180.00000000,
P00056=0573.17754013,0000.01626545,0523.09500000,0000.00000000,0000.00400000,0180.00000000,
P00057=0573.08209392,0000.01209818,0523.09500000,0000.00000000,0000.00400000,0180.00000000,
P00058=0573.00921587,0000.00891626,0523.09500000,0000.00000000,0000.00400000,0180.00000000,
P00059=0572.95412300,0000.00651085,0523.09500000,0000.00000000,0000.00400000,0180.00000000,
P00060=0572.91288906,0000.00471054,0523.09500000,0000.00000000,0000.00400000,0180.00000000,
///TOOL1
P00061=0670.91026471,-0027.49461923,0908.48000000,0180.00000000,0000.00000000,0000.00000000
P00062=0670.91276452,-0027.47563129,0908.48000000,0180.00000000,0000.00000000,0000.00000000
P00063=0670.91607132,-0027.45051364,0908.48000000,0180.00000000,0000.00000000,0000.00000000
P00064=0670.92040214,-0027.41761779,0908.48000000,0180.00000000,0000.00000000,0000.00000000
P00065=0670.92601769,-0027.37496342,0908.48000000,0180.00000000,0000.00000000,0000.00000000
P00066=0670.93322671,-0027.32020550,0908.48000000,0180.00000000,0000.00000000,0000.00000000
P00067=0670.94238934,-0027.25060845,0908.48000000,0180.00000000,0000.00000000,0000.00000000
P00068=0670.95391921,-0027.16303038,0908.48000000,0180.00000000,0000.00000000,0000.00000000
P00069=0670.96828368,-0027.05392135,0908.48000000,0180.00000000,0000.00000000,0000.00000000
P00070=0670.98600172,-0026.91933947,0908.48000000,0180.00000000,0000.00000000,0000.00000000
P00071=0671.00763899,-0026.75498816,0908.48000000,0180.00000000,0000.00000000,0000.00000000
P00072=0671.03379970,-0026.55627784,0908.48000000,0180.00000000,0000.00000000,0000.00000000
P00073=0671.06511506,-0026.31841405,0908.48000000,0180.00000000,0000.00000000,0000.00000000
P00074=0671.10222806,-0026.03651284,0908.48000000,0180.00000000,0000.00000000,0000.00000000
P00075=0671.14577476,-0025.70574278,0908.48000000,0180.00000000,0000.00000000,0000.00000000
P00076=0671.19636249,-0025.32149081,0908.48000000,0180.00000000,0000.00000000,0000.00000000
P00077=0671.25454545,-0024.87954735,0908.48000000,0180.00000000,0000.00000000,0000.00000000
P00078=0671.32079868,-0024.37630409,0908.48000000,0180.00000000,0000.00000000,0000.00000000
P00079=0671.39549153,-0023.80895561,0908.48000000,0180.00000000,0000.00000000,0000.00000000
P00080=0671.47886188,-0023.17569495,0908.48000000,0180.00000000,0000.00000000,0000.00000000
P00081=0671.57099268,-0022.47589199,0908.48000000,0180.00000000,0000.00000000,0000.00000000
P00082=0671.67179229,-0021.71024297,0908.48000000,0180.00000000,0000.00000000,0000.00000000
P00083=0671.78097992,-0020.88088057,0908.48000000,0180.00000000,0000.00000000,0000.00000000
P00084=0671.89807772,-0019.99143447,0908.48000000,0180.00000000,0000.00000000,0000.00000000
P00085=0672.02241023,-0019.04703530,0908.48000000,0180.00000000,0000.00000000,0000.00000000
P00086=0672.15311196,-0018.05425709,0908.48000000,0180.00000000,0000.00000000,0000.00000000
P00087=0672.28914320,-0017.02099727,0908.48000000,0180.00000000,0000.00000000,0000.00000000
P00088=0672.42931370,-0015.95629662,0908.48000000,0180.00000000,0000.00000000,0000.00000000
P00089=0672.57231345,-0014.87010568,0908.48000000,0180.00000000,0000.00000000,0000.00000000
P00090=0672.71674917,-0013.77300747,0908.48000000,0180.00000000,0000.00000000,0000.00000000
P00091=0672.86118488,-0012.67590927,0908.48000000,0180.00000000,0000.00000000,0000.00000000
P00092=0673.00418464,-0011.58971833,0908.48000000,0180.00000000,0000.00000000,0000.00000000
P00093=0673.14435514,-0010.52501768,0908.48000000,0180.00000000,0000.00000000,0000.00000000
P00094=0673.28038637,-0009.49175786,0908.48000000,0180.00000000,0000.00000000,0000.00000000
P00095=0673.41108810,-0008.49897965,0908.48000000,0180.00000000,0000.00000000,0000.00000000
P00096=0673.53542061,-0007.55458048,0908.48000000,0180.00000000,0000.00000000,0000.00000000
P00097=0673.65251841,-0006.66513438,0908.48000000,0180.00000000,0000.00000000,0000.00000000
P00098=0673.76170604,-0005.83577198,0908.48000000,0180.00000000,0000.00000000,0000.00000000
P00099=0673.86250565,-0005.07012296,0908.48000000,0180.00000000,0000.00000000,0000.00000000
P00100=0673.95463646,-0004.37032000,0908.48000000,0180.00000000,0000.00000000,0000.00000000
P00101=0674.03800680,-0003.73705934,0908.48000000,0180.00000000,0000.00000000,0000.00000000
P00102=0674.11269965,-0003.16971086,0908.48000000,0180.00000000,0000.00000000,0000.00000000
P00103=0674.17895288,-0002.66646760,0908.48000000,0180.00000000,0000.00000000,0000.00000000
P00104=0674.23713584,-0002.22452414,0908.48000000,0180.00000000,0000.00000000,0000.00000000
P00105=0674.28772357,-0001.84027216,0908.48000000,0180.00000000,0000.00000000,0000.00000000
P00106=0674.33127028,-0001.50950211,0908.48000000,0180.00000000,0000.00000000,0000.00000000
P00107=0674.36838328,-0001.22760090,0908.48000000,0180.00000000,0000.00000000,0000.00000000
P00108=0674.39969864,-0000.98973711,0908.48000000,0180.00000000,0000.00000000,0000.00000000
P00109=0674.42585935,-0000.79102679,0908.48000000,0180.00000000,0000.00000000,0000.00000000
P00110=0674.44749661,-0000.62667547,0908.48000000,0180.00000000,0000.00000000,0000.00000000
P00111=0674.46521465,-0000.49209360,0908.48000000,0180.00000000,0000.00000000,0000.00000000
P00112=0674.47957912,-0000.38298457,0908.48000000,0180.00000000,0000.00000000,0000.00000000
P00113=0674.49110900,-0000.29540649,0908.48000000,0180.00000000,0000.00000000,0000.00000000
P00114=0674.50027162,-0000.22580945,0908.48000000,0180.00000000,0000.00000000,0000.00000000
P00115=0674.50748064,-0000.17105153,0908.48000000,0180.00000000,0000.00000000,0000.00000000
P00116=0674.51309619,-0000.12839715,0908.48000000,0180.00000000,0000.00000000,0000.00000000
P00117=0674.51742701,-0000.09550131,0908.48000000,0180.00000000,0000.00000000,0000.00000000
P00118=0674.52073382,-0000.07038366,0908.48000000,0180.00000000,0000.00000000,0000.00000000
P00119=0674.52323362,-0000.05139572,0908.48000000,0180.00000000,0000.00000000,0000.00000000
P00120=0674.52510459,-0000.03718431,0908.48000000,0180.00000000,0000.00000000,0000.00000000
//INST
///DATE 2017/03/31 08:11
///COMM PLAYINGTWOROBOTS
///ATTR SC,RW
///GROUP1 RB1
///GROUP2 RB2
NOP
DOUT OT#(16) OFF
DOUT OT#(15) ON
DOUT OT#(16) ON
MOVL P00001 V=0003.4465852  +MOVL P00061 V=0001.1969865
MOVL P00002 V=0004.5592174  +MOVL P00062 V=0001.5833996
MOVL P00003 V=0005.9710711  +MOVL P00063 V=0002.0737312
MOVL P00004 V=0007.7423865  +MOVL P00064 V=0002.6889026
MOVL P00005 V=0009.9393530  +MOVL P00065 V=0003.4519011
MOVL P00006 V=0012.6328705  +MOVL P00066 V=0004.3873499
MOVL P00007 V=0015.8966875  +MOVL P00067 V=0005.5208616
MOVL P00008 V=0019.8048652  +MOVL P00068 V=0006.8781575
MOVL P00009 V=0024.4285569  +MOVL P00069 V=0008.4839488
MOVL P00010 V=0029.8321393  +MOVL P00070 V=0010.3605933
MOVL P00011 V=0036.0687965  +MOVL P00071 V=0012.5265616
MOVL P00012 V=0043.1757182  +MOVL P00072 V=0014.9947696
MOVL P00013 V=0051.1691447  +MOVL P00073 V=0017.7708575
MOVL P00014 V=0060.0395478  +MOVL P00074 V=0020.8515161
MOVL P00015 V=0069.7472898  +MOVL P00075 V=0024.2229796
MOVL P00016 V=0080.2191268  +MOVL P00076 V=0027.8598104
MOVL P00017 V=0091.3459282  +MOVL P00077 V=0031.7241079
MOVL P00018 V=0102.9819536  +MOVL P00078 V=0035.7652572
MOVL P00019 V=0114.9459649  +MOVL P00079 V=0039.9203147
MOVL P00020 V=0127.0243571  +MOVL P00080 V=0044.1150963
MOVL P00021 V=0138.9763662  +MOVL P00081 V=0048.2659855
MOVL P00022 V=0150.5412682  +MOVL P00082 V=0052.2824338
MOVL P00023 V=0161.4473276  +MOVL P00083 V=0056.0700685
MOVL P00024 V=0171.4221049  +MOVL P00084 V=0059.5342722
MOVL P00025 V=0180.2035983  +MOVL P00085 V=0062.5840529
MOVL P00026 V=0187.5515971  +MOVL P00086 V=0065.1359861
MOVL P00027 V=0193.2585637  +MOVL P00087 V=0067.1179948
MOVL P00028 V=0197.1593608  +MOVL P00088 V=0068.4727274
MOVL P00029 V=0199.1391864  +MOVL P00089 V=0069.1603136
MOVL P00030 V=0199.1391864  +MOVL P00090 V=0069.1603136
MOVL P00031 V=0197.1593608  +MOVL P00091 V=0068.4727274
MOVL P00032 V=0193.2585637  +MOVL P00092 V=0067.1179948
MOVL P00033 V=0187.5515971  +MOVL P00093 V=0065.1359861
MOVL P00034 V=0180.2035983  +MOVL P00094 V=0062.5840529
MOVL P00035 V=0171.4221049  +MOVL P00095 V=0059.5342722
MOVL P00036 V=0161.4473276  +MOVL P00096 V=0056.0700685
MOVL P00037 V=0150.5412682  +MOVL P00097 V=0052.2824338
MOVL P00038 V=0138.9763662  +MOVL P00098 V=0048.2659855
MOVL P00039 V=0127.0243571  +MOVL P00099 V=0044.1150963
MOVL P00040 V=0114.9459649  +MOVL P00100 V=0039.9203147
MOVL P00041 V=0102.9819536  +MOVL P00101 V=0035.7652572
MOVL P00042 V=0091.3459282  +MOVL P00102 V=0031.7241079
MOVL P00043 V=0080.2191268  +MOVL P00103 V=0027.8598104
MOVL P00044 V=0069.7472898  +MOVL P00104 V=0024.2229796
MOVL P00045 V=0060.0395478  +MOVL P00105 V=0020.8515161
MOVL P00046 V=0051.1691447  +MOVL P00106 V=0017.7708575
MOVL P00047 V=0043.1757182  +MOVL P00107 V=0014.9947696
MOVL P00048 V=0036.0687965  +MOVL P00108 V=0012.5265616
MOVL P00049 V=0029.8321393  +MOVL P00109 V=0010.3605933
MOVL P00050 V=0024.4285569  +MOVL P00110 V=0008.4839488
MOVL P00051 V=0019.8048652  +MOVL P00111 V=0006.8781575
MOVL P00052 V=0015.8966875  +MOVL P00112 V=0005.5208616
MOVL P00053 V=0012.6328705  +MOVL P00113 V=0004.3873499
MOVL P00054 V=0009.9393530  +MOVL P00114 V=0003.4519011
MOVL P00055 V=0007.7423865  +MOVL P00115 V=0002.6889026
MOVL P00056 V=0005.9710711  +MOVL P00116 V=0002.0737312
MOVL P00057 V=0004.5592174  +MOVL P00117 V=0001.5833996
MOVL P00058 V=0003.4465852  +MOVL P00118 V=0001.1969865
MOVL P00059 V=0002.5795763  +MOVL P00119 V=0000.8958775
MOVL P00060 V=0002.5795763  +MOVL P00120 V=0000.8958775
DOUT OT#(16) OFF
DOUT OT#(15) OFF
DOUT OT#(16) ON
END
