/JOB
//NAME GAUSSIANMOVING2
//POS
///NPOS 0,0,0,61,0,0
///TOOL 0
///POSTYPE ROBOT
///RECTAN
///RCONF 0,0,0,0,0,0,0,0,0,0,0,0,0,0,0,0,0,0,0,0,0,0,0,0
P00000=10.000,0.000,0.000,0.0000,0.0000,0.0000
///POSTYPE BASE
///TOOL1
P00001=0753.69760083,-0010.42261238,0908.48000000,0180.00000000,0000.00000000,0000.00000000
P00002=0753.64292724,-0010.41541446,0908.48000000,0180.00000000,0000.00000000,0000.00000000
P00003=0753.57060384,-0010.40589291,0908.48000000,0180.00000000,0000.00000000,0000.00000000
P00004=0753.47588404,-0010.39342281,0908.48000000,0180.00000000,0000.00000000,0000.00000000
P00005=0753.35306565,-0010.37725346,0908.48000000,0180.00000000,0000.00000000,0000.00000000
P00006=0753.19539652,-0010.35649593,0908.48000000,0180.00000000,0000.00000000,0000.00000000
P00007=0752.99499981,-0010.33011320,0908.48000000,0180.00000000,0000.00000000,0000.00000000
P00008=0752.74282878,-0010.29691425,0908.48000000,0180.00000000,0000.00000000,0000.00000000
P00009=0752.42866187,-0010.25555339,0908.48000000,0180.00000000,0000.00000000,0000.00000000
P00010=0752.04114880,-0010.20453633,0908.48000000,0180.00000000,0000.00000000,0000.00000000
P00011=0751.56791806,-0010.14223432,0908.48000000,0180.00000000,0000.00000000,0000.00000000
P00012=0750.99575449,-0010.06690756,0908.48000000,0180.00000000,0000.00000000,0000.00000000
P00013=0750.31085299,-0009.97673856,0908.48000000,0180.00000000,0000.00000000,0000.00000000
P00014=0749.49915082,-0009.86987595,0908.48000000,0180.00000000,0000.00000000,0000.00000000
P00015=0748.54673640,-0009.74448821,0908.48000000,0180.00000000,0000.00000000,0000.00000000
P00016=0747.44032692,-0009.59882664,0908.48000000,0180.00000000,0000.00000000,0000.00000000
P00017=0746.16780147,-0009.43129548,0908.48000000,0180.00000000,0000.00000000,0000.00000000
P00018=0744.71877025,-0009.24052691,0908.48000000,0180.00000000,0000.00000000,0000.00000000
P00019=0743.08515539,-0009.02545743,0908.48000000,0180.00000000,0000.00000000,0000.00000000
P00020=0741.26175401,-0008.78540208,0908.48000000,0180.00000000,0000.00000000,0000.00000000
P00021=0739.24675167,-0008.52012199,0908.48000000,0180.00000000,0000.00000000,0000.00000000
P00022=0737.04215321,-0008.22988110,0908.48000000,0180.00000000,0000.00000000,0000.00000000
P00023=0734.65409934,-0007.91548784,0908.48000000,0180.00000000,0000.00000000,0000.00000000
P00024=0732.09304137,-0007.57831816,0908.48000000,0180.00000000,0000.00000000,0000.00000000
P00025=0729.37375233,-0007.22031697,0908.48000000,0180.00000000,0000.00000000,0000.00000000
P00026=0726.51516142,-0006.84397634,0908.48000000,0180.00000000,0000.00000000,0000.00000000
P00027=0723.54000835,-0006.45229001,0908.48000000,0180.00000000,0000.00000000,0000.00000000
P00028=0720.47432499,-0006.04868513,0908.48000000,0180.00000000,0000.00000000,0000.00000000
P00029=0717.34676282,-0005.63693376,0908.48000000,0180.00000000,0000.00000000,0000.00000000
P00030=0714.18779445,-0005.22104769,0908.48000000,0180.00000000,0000.00000000,0000.00000000
P00031=0711.02882609,-0004.80516161,0908.48000000,0180.00000000,0000.00000000,0000.00000000
P00032=0707.90126392,-0004.39341024,0908.48000000,0180.00000000,0000.00000000,0000.00000000
P00033=0704.83558056,-0003.98980537,0908.48000000,0180.00000000,0000.00000000,0000.00000000
P00034=0701.86042749,-0003.59811904,0908.48000000,0180.00000000,0000.00000000,0000.00000000
P00035=0699.00183658,-0003.22177841,0908.48000000,0180.00000000,0000.00000000,0000.00000000
P00036=0696.28254754,-0002.86377721,0908.48000000,0180.00000000,0000.00000000,0000.00000000
P00037=0693.72148957,-0002.52660753,0908.48000000,0180.00000000,0000.00000000,0000.00000000
P00038=0691.33343570,-0002.21221428,0908.48000000,0180.00000000,0000.00000000,0000.00000000
P00039=0689.12883724,-0001.92197338,0908.48000000,0180.00000000,0000.00000000,0000.00000000
P00040=0687.11383490,-0001.65669329,0908.48000000,0180.00000000,0000.00000000,0000.00000000
P00041=0685.29043352,-0001.41663795,0908.48000000,0180.00000000,0000.00000000,0000.00000000
P00042=0683.65681866,-0001.20156847,0908.48000000,0180.00000000,0000.00000000,0000.00000000
P00043=0682.20778744,-0001.01079989,0908.48000000,0180.00000000,0000.00000000,0000.00000000
P00044=0680.93526199,-0000.84326874,0908.48000000,0180.00000000,0000.00000000,0000.00000000
P00045=0679.82885251,-0000.69760717,0908.48000000,0180.00000000,0000.00000000,0000.00000000
P00046=0678.87643809,-0000.57221943,0908.48000000,0180.00000000,0000.00000000,0000.00000000
P00047=0678.06473592,-0000.46535681,0908.48000000,0180.00000000,0000.00000000,0000.00000000
P00048=0677.37983442,-0000.37518782,0908.48000000,0180.00000000,0000.00000000,0000.00000000
P00049=0676.80767085,-0000.29986106,0908.48000000,0180.00000000,0000.00000000,0000.00000000
P00050=0676.33444011,-0000.23755905,0908.48000000,0180.00000000,0000.00000000,0000.00000000
P00051=0675.94692704,-0000.18654198,0908.48000000,0180.00000000,0000.00000000,0000.00000000
P00052=0675.63276013,-0000.14518113,0908.48000000,0180.00000000,0000.00000000,0000.00000000
P00053=0675.38058910,-0000.11198218,0908.48000000,0180.00000000,0000.00000000,0000.00000000
P00054=0675.18019239,-0000.08559945,0908.48000000,0180.00000000,0000.00000000,0000.00000000
P00055=0675.02252326,-0000.06484192,0908.48000000,0180.00000000,0000.00000000,0000.00000000
P00056=0674.89970487,-0000.04867257,0908.48000000,0180.00000000,0000.00000000,0000.00000000
P00057=0674.80498507,-0000.03620247,0908.48000000,0180.00000000,0000.00000000,0000.00000000
P00058=0674.73266167,-0000.02668091,0908.48000000,0180.00000000,0000.00000000,0000.00000000
P00059=0674.67798808,-0000.01948300,0908.48000000,0180.00000000,0000.00000000,0000.00000000
P00060=0674.63706796,-0000.01409576,0908.48000000,0180.00000000,0000.00000000,0000.00000000
//INST
///DATE 2017/03/31 08:11
///ATTR SC,RW
///GROUP1 RB2
NOP
DOUT OT#(16) OFF
DOUT OT#(15) ON
DOUT OT#(16) ON
MOVL P00001 V=0003.4465852
MOVL P00002 V=0004.5592174
MOVL P00003 V=0005.9710711
MOVL P00004 V=0007.7423865
MOVL P00005 V=0009.9393530
MOVL P00006 V=0012.6328705
MOVL P00007 V=0015.8966875
MOVL P00008 V=0019.8048652
MOVL P00009 V=0024.4285569
MOVL P00010 V=0029.8321393
MOVL P00011 V=0036.0687965
MOVL P00012 V=0043.1757182
MOVL P00013 V=0051.1691447
MOVL P00014 V=0060.0395478
MOVL P00015 V=0069.7472898
MOVL P00016 V=0080.2191268
MOVL P00017 V=0091.3459282
MOVL P00018 V=0102.9819536
MOVL P00019 V=0114.9459649
MOVL P00020 V=0127.0243571
MOVL P00021 V=0138.9763662
MOVL P00022 V=0150.5412682
MOVL P00023 V=0161.4473276
MOVL P00024 V=0171.4221049
MOVL P00025 V=0180.2035983
MOVL P00026 V=0187.5515971
MOVL P00027 V=0193.2585637
MOVL P00028 V=0197.1593608
MOVL P00029 V=0199.1391864
MOVL P00030 V=0199.1391864
MOVL P00031 V=0197.1593608
MOVL P00032 V=0193.2585637
MOVL P00033 V=0187.5515971
MOVL P00034 V=0180.2035983
MOVL P00035 V=0171.4221049
MOVL P00036 V=0161.4473276
MOVL P00037 V=0150.5412682
MOVL P00038 V=0138.9763662
MOVL P00039 V=0127.0243571
MOVL P00040 V=0114.9459649
MOVL P00041 V=0102.9819536
MOVL P00042 V=0091.3459282
MOVL P00043 V=0080.2191268
MOVL P00044 V=0069.7472898
MOVL P00045 V=0060.0395478
MOVL P00046 V=0051.1691447
MOVL P00047 V=0043.1757182
MOVL P00048 V=0036.0687965
MOVL P00049 V=0029.8321393
MOVL P00050 V=0024.4285569
MOVL P00051 V=0019.8048652
MOVL P00052 V=0015.8966875
MOVL P00053 V=0012.6328705
MOVL P00054 V=0009.9393530
MOVL P00055 V=0007.7423865
MOVL P00056 V=0005.9710711
MOVL P00057 V=0004.5592174
MOVL P00058 V=0003.4465852
MOVL P00059 V=0002.5795763
MOVL P00060 V=0002.5795763
DOUT OT#(16) OFF
DOUT OT#(15) OFF
DOUT OT#(16) ON
END
