/JOB
//NAME GAUSSIANMOVING2
//POS
///NPOS 0,0,0,61,0,0
///TOOL 0
///POSTYPE ROBOT
///RECTAN
///RCONF 0,0,0,0,0,0,0,0,0,0,0,0,0,0,0,0,0,0,0,0,0,0,0,0
P00000=10.000,0.000,0.000,0.0000,0.0000,0.0000
///POSTYPE BASE
///TOOL0
P00001=0649.93488712,0020.66689097,0523.09500000,0000.00000000,0000.00400000,0180.00000000,
P00002=0649.88162079,0020.65261830,0523.09500000,0000.00000000,0000.00400000,0180.00000000,
P00003=0649.81115894,0020.63373810,0523.09500000,0000.00000000,0000.00400000,0180.00000000,
P00004=0649.71887715,0020.60901127,0523.09500000,0000.00000000,0000.00400000,0180.00000000,
P00005=0649.59922001,0020.57694924,0523.09500000,0000.00000000,0000.00400000,0180.00000000,
P00006=0649.44560917,0020.53578933,0523.09500000,0000.00000000,0000.00400000,0180.00000000,
P00007=0649.25037052,0020.48347529,0523.09500000,0000.00000000,0000.00400000,0180.00000000,
P00008=0649.00469018,0020.41764545,0523.09500000,0000.00000000,0000.00400000,0180.00000000,
P00009=0648.69860969,0020.33563143,0523.09500000,0000.00000000,0000.00400000,0180.00000000,
P00010=0648.32107090,0020.23447021,0523.09500000,0000.00000000,0000.00400000,0180.00000000,
P00011=0647.86002076,0020.11093220,0523.09500000,0000.00000000,0000.00400000,0180.00000000,
P00012=0647.30258425,0019.96156754,0523.09500000,0000.00000000,0000.00400000,0180.00000000,
P00013=0646.63531159,0019.78277237,0523.09500000,0000.00000000,0000.00400000,0180.00000000,
P00014=0645.84450201,0019.57087558,0523.09500000,0000.00000000,0000.00400000,0180.00000000,
P00015=0644.91660202,0019.32224553,0523.09500000,0000.00000000,0000.00400000,0180.00000000,
P00016=0643.83867068,0019.03341469,0523.09500000,0000.00000000,0000.00400000,0180.00000000,
P00017=0642.59889906,0018.70121889,0523.09500000,0000.00000000,0000.00400000,0180.00000000,
P00018=0641.18716480,0018.32294583,0523.09500000,0000.00000000,0000.00400000,0180.00000000,
P00019=0639.59559794,0017.89648678,0523.09500000,0000.00000000,0000.00400000,0180.00000000,
P00020=0637.81912952,0017.42048350,0523.09500000,0000.00000000,0000.00400000,0180.00000000,
P00021=0635.85599181,0016.89446234,0523.09500000,0000.00000000,0000.00400000,0180.00000000,
P00022=0633.70813803,0016.31894665,0523.09500000,0000.00000000,0000.00400000,0180.00000000,
P00023=0631.38155085,0015.69553949,0523.09500000,0000.00000000,0000.00400000,0180.00000000,
P00024=0628.88641255,0015.02696920,0523.09500000,0000.00000000,0000.00400000,0180.00000000,
P00025=0626.23711594,0014.31709232,0523.09500000,0000.00000000,0000.00400000,0180.00000000,
P00026=0623.45210299,0013.57085034,0523.09500000,0000.00000000,0000.00400000,0180.00000000,
P00027=0620.55352808,0012.79417954,0523.09500000,0000.00000000,0000.00400000,0180.00000000,
P00028=0617.56675308,0011.99387559,0523.09500000,0000.00000000,0000.00400000,0180.00000000,
P00029=0614.51969198,0011.17741803,0523.09500000,0000.00000000,0000.00400000,0180.00000000,
P00030=0611.44203305,0010.35276180,0523.09500000,0000.00000000,0000.00400000,0180.00000000,
P00031=0608.36437412,0009.52810558,0523.09500000,0000.00000000,0000.00400000,0180.00000000,
P00032=0605.31731303,0008.71164802,0523.09500000,0000.00000000,0000.00400000,0180.00000000,
P00033=0602.33053802,0007.91134407,0523.09500000,0000.00000000,0000.00400000,0180.00000000,
P00034=0599.43196312,0007.13467326,0523.09500000,0000.00000000,0000.00400000,0180.00000000,
P00035=0596.64695016,0006.38843129,0523.09500000,0000.00000000,0000.00400000,0180.00000000,
P00036=0593.99765355,0005.67855440,0523.09500000,0000.00000000,0000.00400000,0180.00000000,
P00037=0591.50251526,0005.00998411,0523.09500000,0000.00000000,0000.00400000,0180.00000000,
P00038=0589.17592807,0004.38657696,0523.09500000,0000.00000000,0000.00400000,0180.00000000,
P00039=0587.02807429,0003.81106127,0523.09500000,0000.00000000,0000.00400000,0180.00000000,
P00040=0585.06493658,0003.28504011,0523.09500000,0000.00000000,0000.00400000,0180.00000000,
P00041=0583.28846816,0002.80903683,0523.09500000,0000.00000000,0000.00400000,0180.00000000,
P00042=0581.69690130,0002.38257777,0523.09500000,0000.00000000,0000.00400000,0180.00000000,
P00043=0580.28516704,0002.00430472,0523.09500000,0000.00000000,0000.00400000,0180.00000000,
P00044=0579.04539542,0001.67210891,0523.09500000,0000.00000000,0000.00400000,0180.00000000,
P00045=0577.96746409,0001.38327808,0523.09500000,0000.00000000,0000.00400000,0180.00000000,
P00046=0577.03956409,0001.13464803,0523.09500000,0000.00000000,0000.00400000,0180.00000000,
P00047=0576.24875452,0000.92275124,0523.09500000,0000.00000000,0000.00400000,0180.00000000,
P00048=0575.58148185,0000.74395607,0523.09500000,0000.00000000,0000.00400000,0180.00000000,
P00049=0575.02404534,0000.59459141,0523.09500000,0000.00000000,0000.00400000,0180.00000000,
P00050=0574.56299520,0000.47105339,0523.09500000,0000.00000000,0000.00400000,0180.00000000,
P00051=0574.18545642,0000.36989218,0523.09500000,0000.00000000,0000.00400000,0180.00000000,
P00052=0573.87937592,0000.28787816,0523.09500000,0000.00000000,0000.00400000,0180.00000000,
P00053=0573.63369559,0000.22204831,0523.09500000,0000.00000000,0000.00400000,0180.00000000,
P00054=0573.43845693,0000.16973427,0523.09500000,0000.00000000,0000.00400000,0180.00000000,
P00055=0573.28484609,0000.12857437,0523.09500000,0000.00000000,0000.00400000,0180.00000000,
P00056=0573.16518895,0000.09651234,0523.09500000,0000.00000000,0000.00400000,0180.00000000,
P00057=0573.07290716,0000.07178551,0523.09500000,0000.00000000,0000.00400000,0180.00000000,
P00058=0573.00244531,0000.05290531,0523.09500000,0000.00000000,0000.00400000,0180.00000000,
P00059=0572.94917898,0000.03863264,0523.09500000,0000.00000000,0000.00400000,0180.00000000,
P00060=0572.90931211,0000.02795035,0523.09500000,0000.00000000,0000.00400000,0180.00000000,
//INST
///DATE 2017/03/31 08:11
///ATTR SC,RW
///GROUP1 RB1
NOP
DOUT OT#(16) OFF
DOUT OT#(15) ON
DOUT OT#(16) ON
MOVL P00001 V=0003.4465852
MOVL P00002 V=0004.5592174
MOVL P00003 V=0005.9710711
MOVL P00004 V=0007.7423865
MOVL P00005 V=0009.9393530
MOVL P00006 V=0012.6328705
MOVL P00007 V=0015.8966875
MOVL P00008 V=0019.8048652
MOVL P00009 V=0024.4285569
MOVL P00010 V=0029.8321393
MOVL P00011 V=0036.0687965
MOVL P00012 V=0043.1757182
MOVL P00013 V=0051.1691447
MOVL P00014 V=0060.0395478
MOVL P00015 V=0069.7472898
MOVL P00016 V=0080.2191268
MOVL P00017 V=0091.3459282
MOVL P00018 V=0102.9819536
MOVL P00019 V=0114.9459649
MOVL P00020 V=0127.0243571
MOVL P00021 V=0138.9763662
MOVL P00022 V=0150.5412682
MOVL P00023 V=0161.4473276
MOVL P00024 V=0171.4221049
MOVL P00025 V=0180.2035983
MOVL P00026 V=0187.5515971
MOVL P00027 V=0193.2585637
MOVL P00028 V=0197.1593608
MOVL P00029 V=0199.1391864
MOVL P00030 V=0199.1391864
MOVL P00031 V=0197.1593608
MOVL P00032 V=0193.2585637
MOVL P00033 V=0187.5515971
MOVL P00034 V=0180.2035983
MOVL P00035 V=0171.4221049
MOVL P00036 V=0161.4473276
MOVL P00037 V=0150.5412682
MOVL P00038 V=0138.9763662
MOVL P00039 V=0127.0243571
MOVL P00040 V=0114.9459649
MOVL P00041 V=0102.9819536
MOVL P00042 V=0091.3459282
MOVL P00043 V=0080.2191268
MOVL P00044 V=0069.7472898
MOVL P00045 V=0060.0395478
MOVL P00046 V=0051.1691447
MOVL P00047 V=0043.1757182
MOVL P00048 V=0036.0687965
MOVL P00049 V=0029.8321393
MOVL P00050 V=0024.4285569
MOVL P00051 V=0019.8048652
MOVL P00052 V=0015.8966875
MOVL P00053 V=0012.6328705
MOVL P00054 V=0009.9393530
MOVL P00055 V=0007.7423865
MOVL P00056 V=0005.9710711
MOVL P00057 V=0004.5592174
MOVL P00058 V=0003.4465852
MOVL P00059 V=0002.5795763
MOVL P00060 V=0002.5795763
DOUT OT#(16) OFF
DOUT OT#(15) OFF
DOUT OT#(16) ON
END
