/JOB
//NAME GAUSSIANMOVING2
//POS
///NPOS 0,0,0,61,0,0
///TOOL 0
///POSTYPE ROBOT
///RECTAN
///RCONF 0,0,0,0,0,0,0,0,0,0,0,0,0,0,0,0,0,0,0,0,0,0,0,0
P00000=10.000,0.000,0.000,0.0000,0.0000,0.0000
///POSTYPE BASE
///TOOL1
P00001=0754.37769446,-0000.69682027,0908.48000000,0180.00000000,0000.00000000,0000.00000000
P00002=0754.32255120,-0000.69633905,0908.48000000,0180.00000000,0000.00000000,0000.00000000
P00003=0754.24960650,-0000.69570247,0908.48000000,0180.00000000,0000.00000000,0000.00000000
P00004=0754.15407300,-0000.69486876,0908.48000000,0180.00000000,0000.00000000,0000.00000000
P00005=0754.03019953,-0000.69378773,0908.48000000,0180.00000000,0000.00000000,0000.00000000
P00006=0753.87117594,-0000.69239995,0908.48000000,0180.00000000,0000.00000000,0000.00000000
P00007=0753.66905771,-0000.69063609,0908.48000000,0180.00000000,0000.00000000,0000.00000000
P00008=0753.41472040,-0000.68841653,0908.48000000,0180.00000000,0000.00000000,0000.00000000
P00009=0753.09785462,-0000.68565128,0908.48000000,0180.00000000,0000.00000000,0000.00000000
P00010=0752.70701259,-0000.68224045,0908.48000000,0180.00000000,0000.00000000,0000.00000000
P00011=0752.22971653,-0000.67807515,0908.48000000,0180.00000000,0000.00000000,0000.00000000
P00012=0751.65263777,-0000.67303906,0908.48000000,0180.00000000,0000.00000000,0000.00000000
P00013=0750.96185258,-0000.66701067,0908.48000000,0180.00000000,0000.00000000,0000.00000000
P00014=0750.14317744,-0000.65986620,0908.48000000,0180.00000000,0000.00000000,0000.00000000
P00015=0749.18258125,-0000.65148321,0908.48000000,0180.00000000,0000.00000000,0000.00000000
P00016=0748.06666710,-0000.64174477,0908.48000000,0180.00000000,0000.00000000,0000.00000000
P00017=0746.78320995,-0000.63054421,0908.48000000,0180.00000000,0000.00000000,0000.00000000
P00018=0745.32173075,-0000.61779007,0908.48000000,0180.00000000,0000.00000000,0000.00000000
P00019=0743.67408223,-0000.60341126,0908.48000000,0180.00000000,0000.00000000,0000.00000000
P00020=0741.83501682,-0000.58736198,0908.48000000,0180.00000000,0000.00000000,0000.00000000
P00021=0739.80270449,-0000.56962626,0908.48000000,0180.00000000,0000.00000000,0000.00000000
P00022=0737.57916730,-0000.55022175,0908.48000000,0180.00000000,0000.00000000,0000.00000000
P00023=0735.17059873,-0000.52920249,0908.48000000,0180.00000000,0000.00000000,0000.00000000
P00024=0732.58753984,-0000.50666047,0908.48000000,0180.00000000,0000.00000000,0000.00000000
P00025=0729.84489060,-0000.48272574,0908.48000000,0180.00000000,0000.00000000,0000.00000000
P00026=0726.96174281,-0000.45756489,0908.48000000,0180.00000000,0000.00000000,0000.00000000
P00027=0723.96103152,-0000.43137808,0908.48000000,0180.00000000,0000.00000000,0000.00000000
P00028=0720.86901224,-0000.40439443,0908.48000000,0180.00000000,0000.00000000,0000.00000000
P00029=0717.71458258,-0000.37686614,0908.48000000,0180.00000000,0000.00000000,0000.00000000
P00030=0714.52847692,-0000.34906142,0908.48000000,0180.00000000,0000.00000000,0000.00000000
P00031=0711.34237126,-0000.32125670,0908.48000000,0180.00000000,0000.00000000,0000.00000000
P00032=0708.18794160,-0000.29372841,0908.48000000,0180.00000000,0000.00000000,0000.00000000
P00033=0705.09592232,-0000.26674476,0908.48000000,0180.00000000,0000.00000000,0000.00000000
P00034=0702.09521103,-0000.24055795,0908.48000000,0180.00000000,0000.00000000,0000.00000000
P00035=0699.21206324,-0000.21539710,0908.48000000,0180.00000000,0000.00000000,0000.00000000
P00036=0696.46941400,-0000.19146237,0908.48000000,0180.00000000,0000.00000000,0000.00000000
P00037=0693.88635512,-0000.16892035,0908.48000000,0180.00000000,0000.00000000,0000.00000000
P00038=0691.47778654,-0000.14790109,0908.48000000,0180.00000000,0000.00000000,0000.00000000
P00039=0689.25424935,-0000.12849658,0908.48000000,0180.00000000,0000.00000000,0000.00000000
P00040=0687.22193703,-0000.11076086,0908.48000000,0180.00000000,0000.00000000,0000.00000000
P00041=0685.38287162,-0000.09471158,0908.48000000,0180.00000000,0000.00000000,0000.00000000
P00042=0683.73522310,-0000.08033276,0908.48000000,0180.00000000,0000.00000000,0000.00000000
P00043=0682.27374390,-0000.06757863,0908.48000000,0180.00000000,0000.00000000,0000.00000000
P00044=0680.99028674,-0000.05637807,0908.48000000,0180.00000000,0000.00000000,0000.00000000
P00045=0679.87437260,-0000.04663963,0908.48000000,0180.00000000,0000.00000000,0000.00000000
P00046=0678.91377641,-0000.03825664,0908.48000000,0180.00000000,0000.00000000,0000.00000000
P00047=0678.09510127,-0000.03111217,0908.48000000,0180.00000000,0000.00000000,0000.00000000
P00048=0677.40431608,-0000.02508378,0908.48000000,0180.00000000,0000.00000000,0000.00000000
P00049=0676.82723731,-0000.02004769,0908.48000000,0180.00000000,0000.00000000,0000.00000000
P00050=0676.34994126,-0000.01588239,0908.48000000,0180.00000000,0000.00000000,0000.00000000
P00051=0675.95909923,-0000.01247156,0908.48000000,0180.00000000,0000.00000000,0000.00000000
P00052=0675.64223345,-0000.00970631,0908.48000000,0180.00000000,0000.00000000,0000.00000000
P00053=0675.38789613,-0000.00748675,0908.48000000,0180.00000000,0000.00000000,0000.00000000
P00054=0675.18577790,-0000.00572289,0908.48000000,0180.00000000,0000.00000000,0000.00000000
P00055=0675.02675431,-0000.00433511,0908.48000000,0180.00000000,0000.00000000,0000.00000000
P00056=0674.90288084,-0000.00325408,0908.48000000,0180.00000000,0000.00000000,0000.00000000
P00057=0674.80734734,-0000.00242037,0908.48000000,0180.00000000,0000.00000000,0000.00000000
P00058=0674.73440264,-0000.00178379,0908.48000000,0180.00000000,0000.00000000,0000.00000000
P00059=0674.67925938,-0000.00130257,0908.48000000,0180.00000000,0000.00000000,0000.00000000
P00060=0674.63798773,-0000.00094239,0908.48000000,0180.00000000,0000.00000000,0000.00000000
//INST
///DATE 2017/03/31 08:11
///ATTR SC,RW
///GROUP1 RB2
NOP
DOUT OT#(16) OFF
DOUT OT#(15) ON
DOUT OT#(16) ON
MOVL P00001 V=0003.4465852
MOVL P00002 V=0004.5592174
MOVL P00003 V=0005.9710711
MOVL P00004 V=0007.7423865
MOVL P00005 V=0009.9393530
MOVL P00006 V=0012.6328705
MOVL P00007 V=0015.8966875
MOVL P00008 V=0019.8048652
MOVL P00009 V=0024.4285569
MOVL P00010 V=0029.8321393
MOVL P00011 V=0036.0687965
MOVL P00012 V=0043.1757182
MOVL P00013 V=0051.1691447
MOVL P00014 V=0060.0395478
MOVL P00015 V=0069.7472898
MOVL P00016 V=0080.2191268
MOVL P00017 V=0091.3459282
MOVL P00018 V=0102.9819536
MOVL P00019 V=0114.9459649
MOVL P00020 V=0127.0243571
MOVL P00021 V=0138.9763662
MOVL P00022 V=0150.5412682
MOVL P00023 V=0161.4473276
MOVL P00024 V=0171.4221049
MOVL P00025 V=0180.2035983
MOVL P00026 V=0187.5515971
MOVL P00027 V=0193.2585637
MOVL P00028 V=0197.1593608
MOVL P00029 V=0199.1391864
MOVL P00030 V=0199.1391864
MOVL P00031 V=0197.1593608
MOVL P00032 V=0193.2585637
MOVL P00033 V=0187.5515971
MOVL P00034 V=0180.2035983
MOVL P00035 V=0171.4221049
MOVL P00036 V=0161.4473276
MOVL P00037 V=0150.5412682
MOVL P00038 V=0138.9763662
MOVL P00039 V=0127.0243571
MOVL P00040 V=0114.9459649
MOVL P00041 V=0102.9819536
MOVL P00042 V=0091.3459282
MOVL P00043 V=0080.2191268
MOVL P00044 V=0069.7472898
MOVL P00045 V=0060.0395478
MOVL P00046 V=0051.1691447
MOVL P00047 V=0043.1757182
MOVL P00048 V=0036.0687965
MOVL P00049 V=0029.8321393
MOVL P00050 V=0024.4285569
MOVL P00051 V=0019.8048652
MOVL P00052 V=0015.8966875
MOVL P00053 V=0012.6328705
MOVL P00054 V=0009.9393530
MOVL P00055 V=0007.7423865
MOVL P00056 V=0005.9710711
MOVL P00057 V=0004.5592174
MOVL P00058 V=0003.4465852
MOVL P00059 V=0002.5795763
MOVL P00060 V=0002.5795763
DOUT OT#(16) OFF
DOUT OT#(15) OFF
DOUT OT#(16) ON
END
