/JOB
//NAME GAUSSIANMOVING2
//POS
///NPOS 0,0,0,121,0,0
///TOOL 0
///POSTYPE ROBOT
///RECTAN
///RCONF 0,0,0,0,0,0,0,0,0,0,0,0,0,0,0,0,0,0,0,0,0,0,0,0
P00000=10.000,0.000,0.000,0.0000,0.0000,0.0000
///POSTYPE BASE
///TOOL0
P00001=0633.97421178,-0051.32706304,0523.09500000,0000.00000000,0000.00400000,0180.00000000,
P00002=0633.93196798,-0051.29161629,0523.09500000,0000.00000000,0000.00400000,0180.00000000,
P00003=0633.87608697,-0051.24472655,0523.09500000,0000.00000000,0000.00400000,0180.00000000,
P00004=0633.80290127,-0051.18331646,0523.09500000,0000.00000000,0000.00400000,0180.00000000,
P00005=0633.70800508,-0051.10368910,0523.09500000,0000.00000000,0000.00400000,0180.00000000,
P00006=0633.58618130,-0051.00146681,0523.09500000,0000.00000000,0000.00400000,0180.00000000,
P00007=0633.43134386,-0050.87154277,0523.09500000,0000.00000000,0000.00400000,0180.00000000,
P00008=0633.23650275,-0050.70805167,0523.09500000,0000.00000000,0000.00400000,0180.00000000,
P00009=0632.99376024,-0050.50436652,0523.09500000,0000.00000000,0000.00400000,0180.00000000,
P00010=0632.69434648,-0050.25312854,0523.09500000,0000.00000000,0000.00400000,0180.00000000,
P00011=0632.32870256,-0049.94631687,0523.09500000,0000.00000000,0000.00400000,0180.00000000,
P00012=0631.88661775,-0049.57536366,0523.09500000,0000.00000000,0000.00400000,0180.00000000,
P00013=0631.35742544,-0049.13131859,0523.09500000,0000.00000000,0000.00400000,0180.00000000,
P00014=0630.73026002,-0048.60506432,0523.09500000,0000.00000000,0000.00400000,0180.00000000,
P00015=0629.99437263,-0047.98758148,0523.09500000,0000.00000000,0000.00400000,0180.00000000,
P00016=0629.13950025,-0047.27025838,0523.09500000,0000.00000000,0000.00400000,0180.00000000,
P00017=0628.15627758,-0046.44523661,0523.09500000,0000.00000000,0000.00400000,0180.00000000,
P00018=0627.03667693,-0045.50578011,0523.09500000,0000.00000000,0000.00400000,0180.00000000,
P00019=0625.77445688,-0044.44665173,0523.09500000,0000.00000000,0000.00400000,0180.00000000,
P00020=0624.36559740,-0043.26447826,0523.09500000,0000.00000000,0000.00400000,0180.00000000,
P00021=0622.80869655,-0041.95808333,0523.09500000,0000.00000000,0000.00400000,0180.00000000,
P00022=0621.10530338,-0040.52876675,0523.09500000,0000.00000000,0000.00400000,0180.00000000,
P00023=0619.26016255,-0038.98050976,0523.09500000,0000.00000000,0000.00400000,0180.00000000,
P00024=0617.28134930,-0037.32008829,0523.09500000,0000.00000000,0000.00400000,0180.00000000,
P00025=0615.18027809,-0035.55708021,0523.09500000,0000.00000000,0000.00400000,0180.00000000,
P00026=0612.97157464,-0033.70375797,0523.09500000,0000.00000000,0000.00400000,0180.00000000,
P00027=0610.67280890,-0031.77486449,0523.09500000,0000.00000000,0000.00400000,0180.00000000,
P00028=0608.30409452,-0029.78727712,0523.09500000,0000.00000000,0000.00400000,0180.00000000,
P00029=0605.88756920,-0027.75957161,0523.09500000,0000.00000000,0000.00400000,0180.00000000,
P00030=0603.44677772,-0025.71150439,0523.09500000,0000.00000000,0000.00400000,0180.00000000,
P00031=0601.00598625,-0023.66343716,0523.09500000,0000.00000000,0000.00400000,0180.00000000,
P00032=0598.58946093,-0021.63573165,0523.09500000,0000.00000000,0000.00400000,0180.00000000,
P00033=0596.22074654,-0019.64814429,0523.09500000,0000.00000000,0000.00400000,0180.00000000,
P00034=0593.92198080,-0017.71925080,0523.09500000,0000.00000000,0000.00400000,0180.00000000,
P00035=0591.71327736,-0015.86592856,0523.09500000,0000.00000000,0000.00400000,0180.00000000,
P00036=0589.61220615,-0014.10292048,0523.09500000,0000.00000000,0000.00400000,0180.00000000,
P00037=0587.63339290,-0012.44249901,0523.09500000,0000.00000000,0000.00400000,0180.00000000,
P00038=0585.78825207,-0010.89424202,0523.09500000,0000.00000000,0000.00400000,0180.00000000,
P00039=0584.08485890,-0009.46492544,0523.09500000,0000.00000000,0000.00400000,0180.00000000,
P00040=0582.52795805,-0008.15853052,0523.09500000,0000.00000000,0000.00400000,0180.00000000,
P00041=0581.11909857,-0006.97635704,0523.09500000,0000.00000000,0000.00400000,0180.00000000,
P00042=0579.85687852,-0005.91722866,0523.09500000,0000.00000000,0000.00400000,0180.00000000,
P00043=0578.73727786,-0004.97777217,0523.09500000,0000.00000000,0000.00400000,0180.00000000,
P00044=0577.75405520,-0004.15275040,0523.09500000,0000.00000000,0000.00400000,0180.00000000,
P00045=0576.89918282,-0003.43542730,0523.09500000,0000.00000000,0000.00400000,0180.00000000,
P00046=0576.16329543,-0002.81794446,0523.09500000,0000.00000000,0000.00400000,0180.00000000,
P00047=0575.53613001,-0002.29169018,0523.09500000,0000.00000000,0000.00400000,0180.00000000,
P00048=0575.00693770,-0001.84764512,0523.09500000,0000.00000000,0000.00400000,0180.00000000,
P00049=0574.56485289,-0001.47669191,0523.09500000,0000.00000000,0000.00400000,0180.00000000,
P00050=0574.19920897,-0001.16988023,0523.09500000,0000.00000000,0000.00400000,0180.00000000,
P00051=0573.89979521,-0000.91864226,0523.09500000,0000.00000000,0000.00400000,0180.00000000,
P00052=0573.65705270,-0000.71495710,0523.09500000,0000.00000000,0000.00400000,0180.00000000,
P00053=0573.46221159,-0000.55146600,0523.09500000,0000.00000000,0000.00400000,0180.00000000,
P00054=0573.30737415,-0000.42154196,0523.09500000,0000.00000000,0000.00400000,0180.00000000,
P00055=0573.18555037,-0000.31931967,0523.09500000,0000.00000000,0000.00400000,0180.00000000,
P00056=0573.09065417,-0000.23969231,0523.09500000,0000.00000000,0000.00400000,0180.00000000,
P00057=0573.01746848,-0000.17828222,0523.09500000,0000.00000000,0000.00400000,0180.00000000,
P00058=0572.96158747,-0000.13139249,0523.09500000,0000.00000000,0000.00400000,0180.00000000,
P00059=0572.91934367,-0000.09594573,0523.09500000,0000.00000000,0000.00400000,0180.00000000,
P00060=0572.88772655,-0000.06941582,0523.09500000,0000.00000000,0000.00400000,0180.00000000,
///TOOL1
P00061=0688.39593461,0024.01650323,0908.48000000,0180.00000000,0000.00000000,0000.00000000
P00062=0688.38635872,0023.99991730,0908.48000000,0180.00000000,0000.00000000,0000.00000000
P00063=0688.37369152,0023.97797707,0908.48000000,0180.00000000,0000.00000000,0000.00000000
P00064=0688.35710167,0023.94924261,0908.48000000,0180.00000000,0000.00000000,0000.00000000
P00065=0688.33559045,0023.91198408,0908.48000000,0180.00000000,0000.00000000,0000.00000000
P00066=0688.30797524,0023.86415314,0908.48000000,0180.00000000,0000.00000000,0000.00000000
P00067=0688.27287644,0023.80336024,0908.48000000,0180.00000000,0000.00000000,0000.00000000
P00068=0688.22870955,0023.72686093,0908.48000000,0180.00000000,0000.00000000,0000.00000000
P00069=0688.17368429,0023.63155439,0908.48000000,0180.00000000,0000.00000000,0000.00000000
P00070=0688.10581270,0023.51399735,0908.48000000,0180.00000000,0000.00000000,0000.00000000
P00071=0688.02292795,0023.37043675,0908.48000000,0180.00000000,0000.00000000,0000.00000000
P00072=0687.92271546,0023.19686363,0908.48000000,0180.00000000,0000.00000000,0000.00000000
P00073=0687.80275730,0022.98909000,0908.48000000,0180.00000000,0000.00000000,0000.00000000
P00074=0687.66059044,0022.74284978,0908.48000000,0180.00000000,0000.00000000,0000.00000000
P00075=0687.49377831,0022.45392270,0908.48000000,0180.00000000,0000.00000000,0000.00000000
P00076=0687.29999448,0022.11827925,0908.48000000,0180.00000000,0000.00000000,0000.00000000
P00077=0687.07711599,0021.73224239,0908.48000000,0180.00000000,0000.00000000,0000.00000000
P00078=0686.82332313,0021.29266026,0908.48000000,0180.00000000,0000.00000000,0000.00000000
P00079=0686.53720107,0020.79708232,0908.48000000,0180.00000000,0000.00000000,0000.00000000
P00080=0686.21783856,0020.24393021,0908.48000000,0180.00000000,0000.00000000,0000.00000000
P00081=0685.86491779,0019.63265350,0908.48000000,0180.00000000,0000.00000000,0000.00000000
P00082=0685.47878990,0018.96386039,0908.48000000,0180.00000000,0000.00000000,0000.00000000
P00083=0685.06053043,0018.23941374,0908.48000000,0180.00000000,0000.00000000,0000.00000000
P00084=0684.61196988,0017.46248408,0908.48000000,0180.00000000,0000.00000000,0000.00000000
P00085=0684.13569571,0016.63755300,0908.48000000,0180.00000000,0000.00000000,0000.00000000
P00086=0683.63502328,0015.77036293,0908.48000000,0180.00000000,0000.00000000,0000.00000000
P00087=0683.11393539,0014.86781223,0908.48000000,0180.00000000,0000.00000000,0000.00000000
P00088=0682.57699144,0013.93779801,0908.48000000,0180.00000000,0000.00000000,0000.00000000
P00089=0682.02920962,0012.98901207,0908.48000000,0180.00000000,0000.00000000,0000.00000000
P00090=0681.47592711,0012.03069865,0908.48000000,0180.00000000,0000.00000000,0000.00000000
P00091=0680.92264460,0011.07238524,0908.48000000,0180.00000000,0000.00000000,0000.00000000
P00092=0680.37486278,0010.12359930,0908.48000000,0180.00000000,0000.00000000,0000.00000000
P00093=0679.83791882,0009.19358508,0908.48000000,0180.00000000,0000.00000000,0000.00000000
P00094=0679.31683093,0008.29103438,0908.48000000,0180.00000000,0000.00000000,0000.00000000
P00095=0678.81615851,0007.42384430,0908.48000000,0180.00000000,0000.00000000,0000.00000000
P00096=0678.33988433,0006.59891323,0908.48000000,0180.00000000,0000.00000000,0000.00000000
P00097=0677.89132378,0005.82198357,0908.48000000,0180.00000000,0000.00000000,0000.00000000
P00098=0677.47306431,0005.09753692,0908.48000000,0180.00000000,0000.00000000,0000.00000000
P00099=0677.08693643,0004.42874380,0908.48000000,0180.00000000,0000.00000000,0000.00000000
P00100=0676.73401566,0003.81746710,0908.48000000,0180.00000000,0000.00000000,0000.00000000
P00101=0676.41465314,0003.26431499,0908.48000000,0180.00000000,0000.00000000,0000.00000000
P00102=0676.12853108,0002.76873705,0908.48000000,0180.00000000,0000.00000000,0000.00000000
P00103=0675.87473822,0002.32915492,0908.48000000,0180.00000000,0000.00000000,0000.00000000
P00104=0675.65185974,0001.94311806,0908.48000000,0180.00000000,0000.00000000,0000.00000000
P00105=0675.45807590,0001.60747461,0908.48000000,0180.00000000,0000.00000000,0000.00000000
P00106=0675.29126377,0001.31854753,0908.48000000,0180.00000000,0000.00000000,0000.00000000
P00107=0675.14909691,0001.07230731,0908.48000000,0180.00000000,0000.00000000,0000.00000000
P00108=0675.02913875,0000.86453368,0908.48000000,0180.00000000,0000.00000000,0000.00000000
P00109=0674.92892626,0000.69096056,0908.48000000,0180.00000000,0000.00000000,0000.00000000
P00110=0674.84604152,0000.54739996,0908.48000000,0180.00000000,0000.00000000,0000.00000000
P00111=0674.77816993,0000.42984292,0908.48000000,0180.00000000,0000.00000000,0000.00000000
P00112=0674.72314467,0000.33453637,0908.48000000,0180.00000000,0000.00000000,0000.00000000
P00113=0674.67897777,0000.25803707,0908.48000000,0180.00000000,0000.00000000,0000.00000000
P00114=0674.64387897,0000.19724417,0908.48000000,0180.00000000,0000.00000000,0000.00000000
P00115=0674.61626377,0000.14941322,0908.48000000,0180.00000000,0000.00000000,0000.00000000
P00116=0674.59475254,0000.11215470,0908.48000000,0180.00000000,0000.00000000,0000.00000000
P00117=0674.57816269,0000.08342023,0908.48000000,0180.00000000,0000.00000000,0000.00000000
P00118=0674.56549550,0000.06148001,0908.48000000,0180.00000000,0000.00000000,0000.00000000
P00119=0674.55591961,0000.04489408,0908.48000000,0180.00000000,0000.00000000,0000.00000000
P00120=0674.54875259,0000.03248043,0908.48000000,0180.00000000,0000.00000000,0000.00000000
//INST
///DATE 2017/03/31 08:11
///COMM PLAYINGTWOROBOTS
///ATTR SC,RW
///GROUP1 RB1
///GROUP2 RB2
NOP
DOUT OT#(16) OFF
DOUT OT#(15) ON
DOUT OT#(16) ON
MOVL P00001 V=0003.4465852  +MOVL P00061 V=0001.1969865
MOVL P00002 V=0004.5592174  +MOVL P00062 V=0001.5833996
MOVL P00003 V=0005.9710711  +MOVL P00063 V=0002.0737312
MOVL P00004 V=0007.7423865  +MOVL P00064 V=0002.6889026
MOVL P00005 V=0009.9393530  +MOVL P00065 V=0003.4519011
MOVL P00006 V=0012.6328705  +MOVL P00066 V=0004.3873499
MOVL P00007 V=0015.8966875  +MOVL P00067 V=0005.5208616
MOVL P00008 V=0019.8048652  +MOVL P00068 V=0006.8781575
MOVL P00009 V=0024.4285569  +MOVL P00069 V=0008.4839488
MOVL P00010 V=0029.8321393  +MOVL P00070 V=0010.3605933
MOVL P00011 V=0036.0687965  +MOVL P00071 V=0012.5265616
MOVL P00012 V=0043.1757182  +MOVL P00072 V=0014.9947696
MOVL P00013 V=0051.1691447  +MOVL P00073 V=0017.7708575
MOVL P00014 V=0060.0395478  +MOVL P00074 V=0020.8515161
MOVL P00015 V=0069.7472898  +MOVL P00075 V=0024.2229796
MOVL P00016 V=0080.2191268  +MOVL P00076 V=0027.8598104
MOVL P00017 V=0091.3459282  +MOVL P00077 V=0031.7241079
MOVL P00018 V=0102.9819536  +MOVL P00078 V=0035.7652572
MOVL P00019 V=0114.9459649  +MOVL P00079 V=0039.9203147
MOVL P00020 V=0127.0243571  +MOVL P00080 V=0044.1150963
MOVL P00021 V=0138.9763662  +MOVL P00081 V=0048.2659855
MOVL P00022 V=0150.5412682  +MOVL P00082 V=0052.2824338
MOVL P00023 V=0161.4473276  +MOVL P00083 V=0056.0700685
MOVL P00024 V=0171.4221049  +MOVL P00084 V=0059.5342722
MOVL P00025 V=0180.2035983  +MOVL P00085 V=0062.5840529
MOVL P00026 V=0187.5515971  +MOVL P00086 V=0065.1359861
MOVL P00027 V=0193.2585637  +MOVL P00087 V=0067.1179948
MOVL P00028 V=0197.1593608  +MOVL P00088 V=0068.4727274
MOVL P00029 V=0199.1391864  +MOVL P00089 V=0069.1603136
MOVL P00030 V=0199.1391864  +MOVL P00090 V=0069.1603136
MOVL P00031 V=0197.1593608  +MOVL P00091 V=0068.4727274
MOVL P00032 V=0193.2585637  +MOVL P00092 V=0067.1179948
MOVL P00033 V=0187.5515971  +MOVL P00093 V=0065.1359861
MOVL P00034 V=0180.2035983  +MOVL P00094 V=0062.5840529
MOVL P00035 V=0171.4221049  +MOVL P00095 V=0059.5342722
MOVL P00036 V=0161.4473276  +MOVL P00096 V=0056.0700685
MOVL P00037 V=0150.5412682  +MOVL P00097 V=0052.2824338
MOVL P00038 V=0138.9763662  +MOVL P00098 V=0048.2659855
MOVL P00039 V=0127.0243571  +MOVL P00099 V=0044.1150963
MOVL P00040 V=0114.9459649  +MOVL P00100 V=0039.9203147
MOVL P00041 V=0102.9819536  +MOVL P00101 V=0035.7652572
MOVL P00042 V=0091.3459282  +MOVL P00102 V=0031.7241079
MOVL P00043 V=0080.2191268  +MOVL P00103 V=0027.8598104
MOVL P00044 V=0069.7472898  +MOVL P00104 V=0024.2229796
MOVL P00045 V=0060.0395478  +MOVL P00105 V=0020.8515161
MOVL P00046 V=0051.1691447  +MOVL P00106 V=0017.7708575
MOVL P00047 V=0043.1757182  +MOVL P00107 V=0014.9947696
MOVL P00048 V=0036.0687965  +MOVL P00108 V=0012.5265616
MOVL P00049 V=0029.8321393  +MOVL P00109 V=0010.3605933
MOVL P00050 V=0024.4285569  +MOVL P00110 V=0008.4839488
MOVL P00051 V=0019.8048652  +MOVL P00111 V=0006.8781575
MOVL P00052 V=0015.8966875  +MOVL P00112 V=0005.5208616
MOVL P00053 V=0012.6328705  +MOVL P00113 V=0004.3873499
MOVL P00054 V=0009.9393530  +MOVL P00114 V=0003.4519011
MOVL P00055 V=0007.7423865  +MOVL P00115 V=0002.6889026
MOVL P00056 V=0005.9710711  +MOVL P00116 V=0002.0737312
MOVL P00057 V=0004.5592174  +MOVL P00117 V=0001.5833996
MOVL P00058 V=0003.4465852  +MOVL P00118 V=0001.1969865
MOVL P00059 V=0002.5795763  +MOVL P00119 V=0000.8958775
MOVL P00060 V=0002.5795763  +MOVL P00120 V=0000.8958775
DOUT OT#(16) OFF
DOUT OT#(15) OFF
DOUT OT#(16) ON
END
