/JOB
//NAME GAUSSIANMOVING2
//POS
///NPOS 0,0,0,61,0,0
///TOOL 0
///POSTYPE ROBOT
///RECTAN
///RCONF 0,0,0,0,0,0,0,0,0,0,0,0,0,0,0,0,0,0,0,0,0,0,0,0
P00000=10.000,0.000,0.000,0.0000,0.0000,0.0000
///POSTYPE BASE
///TOOL0
P00001=0385.17824307,0064.87872214,0483.09500000,0000.00000000,0000.00400000,0180.00000000,
P00002=0385.10063748,0064.83391653,0483.09500000,0000.00000000,0000.00400000,0180.00000000,
P00003=0384.99797913,0064.77464670,0483.09500000,0000.00000000,0000.00400000,0180.00000000,
P00004=0384.86353055,0064.69702278,0483.09500000,0000.00000000,0000.00400000,0180.00000000,
P00005=0384.68919786,0064.59637175,0483.09500000,0000.00000000,0000.00400000,0180.00000000,
P00006=0384.46539683,0064.46716016,0483.09500000,0000.00000000,0000.00400000,0180.00000000,
P00007=0384.18094677,0064.30293285,0483.09500000,0000.00000000,0000.00400000,0180.00000000,
P00008=0383.82300645,0064.09627591,0483.09500000,0000.00000000,0000.00400000,0180.00000000,
P00009=0383.37706703,0063.83881266,0483.09500000,0000.00000000,0000.00400000,0180.00000000,
P00010=0382.82701751,0063.52124142,0483.09500000,0000.00000000,0000.00400000,0180.00000000,
P00011=0382.15529735,0063.13342361,0483.09500000,0000.00000000,0000.00400000,0180.00000000,
P00012=0381.34314851,0062.66452926,0483.09500000,0000.00000000,0000.00400000,0180.00000000,
P00013=0380.37097552,0062.10324492,0483.09500000,0000.00000000,0000.00400000,0180.00000000,
P00014=0379.21881726,0061.43804604,0483.09500000,0000.00000000,0000.00400000,0180.00000000,
P00015=0377.86692714,0060.65753192,0483.09500000,0000.00000000,0000.00400000,0180.00000000,
P00016=0376.29645110,0059.75081715,0483.09500000,0000.00000000,0000.00400000,0180.00000000,
P00017=0374.49018425,0058.70796850,0483.09500000,0000.00000000,0000.00400000,0180.00000000,
P00018=0372.43337900,0057.52047144,0483.09500000,0000.00000000,0000.00400000,0180.00000000,
P00019=0370.11456931,0056.18170604,0483.09500000,0000.00000000,0000.00400000,0180.00000000,
P00020=0367.52637005,0054.68740849,0483.09500000,0000.00000000,0000.00400000,0180.00000000,
P00021=0364.66620572,0053.03609185,0483.09500000,0000.00000000,0000.00400000,0180.00000000,
P00022=0361.53692207,0051.22939909,0483.09500000,0000.00000000,0000.00400000,0180.00000000,
P00023=0358.14723544,0049.27236261,0483.09500000,0000.00000000,0000.00400000,0180.00000000,
P00024=0354.51198078,0047.17354735,0483.09500000,0000.00000000,0000.00400000,0180.00000000,
P00025=0350.65212744,0044.94505998,0483.09500000,0000.00000000,0000.00400000,0180.00000000,
P00026=0346.59454420,0042.60241320,0483.09500000,0000.00000000,0000.00400000,0180.00000000,
P00027=0342.37150856,0040.16424244,0483.09500000,0000.00000000,0000.00400000,0180.00000000,
P00028=0338.01997109,0037.65188111,0483.09500000,0000.00000000,0000.00400000,0180.00000000,
P00029=0333.58060070,0035.08880942,0483.09500000,0000.00000000,0000.00400000,0180.00000000,
P00030=0329.09665125,0032.50000000,0483.09500000,0000.00000000,0000.00400000,0180.00000000,
P00031=0324.61270179,0029.91119058,0483.09500000,0000.00000000,0000.00400000,0180.00000000,
P00032=0320.17333140,0027.34811889,0483.09500000,0000.00000000,0000.00400000,0180.00000000,
P00033=0315.82179393,0024.83575756,0483.09500000,0000.00000000,0000.00400000,0180.00000000,
P00034=0311.59875830,0022.39758680,0483.09500000,0000.00000000,0000.00400000,0180.00000000,
P00035=0307.54117505,0020.05494002,0483.09500000,0000.00000000,0000.00400000,0180.00000000,
P00036=0303.68132172,0017.82645265,0483.09500000,0000.00000000,0000.00400000,0180.00000000,
P00037=0300.04606705,0015.72763739,0483.09500000,0000.00000000,0000.00400000,0180.00000000,
P00038=0296.65638042,0013.77060091,0483.09500000,0000.00000000,0000.00400000,0180.00000000,
P00039=0293.52709677,0011.96390815,0483.09500000,0000.00000000,0000.00400000,0180.00000000,
P00040=0290.66693245,0010.31259151,0483.09500000,0000.00000000,0000.00400000,0180.00000000,
P00041=0288.07873318,0008.81829396,0483.09500000,0000.00000000,0000.00400000,0180.00000000,
P00042=0285.75992349,0007.47952856,0483.09500000,0000.00000000,0000.00400000,0180.00000000,
P00043=0283.70311824,0006.29203150,0483.09500000,0000.00000000,0000.00400000,0180.00000000,
P00044=0281.89685139,0005.24918285,0483.09500000,0000.00000000,0000.00400000,0180.00000000,
P00045=0280.32637535,0004.34246808,0483.09500000,0000.00000000,0000.00400000,0180.00000000,
P00046=0278.97448523,0003.56195396,0483.09500000,0000.00000000,0000.00400000,0180.00000000,
P00047=0277.82232697,0002.89675508,0483.09500000,0000.00000000,0000.00400000,0180.00000000,
P00048=0276.85015399,0002.33547074,0483.09500000,0000.00000000,0000.00400000,0180.00000000,
P00049=0276.03800514,0001.86657639,0483.09500000,0000.00000000,0000.00400000,0180.00000000,
P00050=0275.36628499,0001.47875858,0483.09500000,0000.00000000,0000.00400000,0180.00000000,
P00051=0274.81623546,0001.16118734,0483.09500000,0000.00000000,0000.00400000,0180.00000000,
P00052=0274.37029604,0000.90372409,0483.09500000,0000.00000000,0000.00400000,0180.00000000,
P00053=0274.01235572,0000.69706715,0483.09500000,0000.00000000,0000.00400000,0180.00000000,
P00054=0273.72790567,0000.53283984,0483.09500000,0000.00000000,0000.00400000,0180.00000000,
P00055=0273.50410463,0000.40362825,0483.09500000,0000.00000000,0000.00400000,0180.00000000,
P00056=0273.32977194,0000.30297722,0483.09500000,0000.00000000,0000.00400000,0180.00000000,
P00057=0273.19532336,0000.22535330,0483.09500000,0000.00000000,0000.00400000,0180.00000000,
P00058=0273.09266501,0000.16608347,0483.09500000,0000.00000000,0000.00400000,0180.00000000,
P00059=0273.01505942,0000.12127786,0483.09500000,0000.00000000,0000.00400000,0180.00000000,
P00060=0272.95697598,0000.08774337,0483.09500000,0000.00000000,0000.00400000,0180.00000000,
//INST
///DATE 2017/03/31 08:11
///ATTR SC,RW
///GROUP1 RB1
NOP
DOUT OT#(1) ON
MOVL P00001 V=0005.6007009
MOVL P00002 V=0007.4087282
MOVL P00003 V=0009.7029905
MOVL P00004 V=0012.5813781
MOVL P00005 V=0016.1514486
MOVL P00006 V=0020.5284145
MOVL P00007 V=0025.8321171
MOVL P00008 V=0032.1829060
MOVL P00009 V=0039.6964050
MOVL P00010 V=0048.4772264
MOVL P00011 V=0058.6117943
MOVL P00012 V=0070.1605421
MOVL P00013 V=0083.1498601
MOVL P00014 V=0097.5642653
MOVL P00015 V=0113.3393460
MOVL P00016 V=0130.3560810
MOVL P00017 V=0148.4371333
MOVL P00018 V=0167.3456746
MOVL P00019 V=0186.7871930
MOVL P00020 V=0206.4145802
MOVL P00021 V=0225.8365950
MOVL P00022 V=0244.6295608
MOVL P00023 V=0262.3519074
MOVL P00024 V=0278.5609204
MOVL P00025 V=0292.8308473
MOVL P00026 V=0304.7713453
MOVL P00027 V=0314.0451661
MOVL P00028 V=0320.3839613
MOVL P00029 V=0323.6011779
MOVL P00030 V=0323.6011779
MOVL P00031 V=0320.3839613
MOVL P00032 V=0314.0451661
MOVL P00033 V=0304.7713453
MOVL P00034 V=0292.8308473
MOVL P00035 V=0278.5609204
MOVL P00036 V=0262.3519074
MOVL P00037 V=0244.6295608
MOVL P00038 V=0225.8365950
MOVL P00039 V=0206.4145802
MOVL P00040 V=0186.7871930
MOVL P00041 V=0167.3456746
MOVL P00042 V=0148.4371333
MOVL P00043 V=0130.3560810
MOVL P00044 V=0113.3393460
MOVL P00045 V=0097.5642653
MOVL P00046 V=0083.1498601
MOVL P00047 V=0070.1605421
MOVL P00048 V=0058.6117943
MOVL P00049 V=0048.4772264
MOVL P00050 V=0039.6964050
MOVL P00051 V=0032.1829060
MOVL P00052 V=0025.8321171
MOVL P00053 V=0020.5284145
MOVL P00054 V=0016.1514486
MOVL P00055 V=0012.5813781
MOVL P00056 V=0009.7029905
MOVL P00057 V=0007.4087282
MOVL P00058 V=0005.6007009
MOVL P00059 V=0004.1918116
MOVL P00060 V=0004.1918116
DOUT OT#(1) OFF
END
