/JOB
//NAME GAUSSIANMOVING2
//POS
///NPOS 0,0,0,61,0,0
///TOOL 0
///POSTYPE ROBOT
///RECTAN
///RCONF 0,0,0,0,0,0,0,0,0,0,0,0,0,0,0,0,0,0,0,0,0,0,0,0
P00000=10.000,0.000,0.000,0.0000,0.0000,0.0000
///POSTYPE BASE
P00001=0237.81496555,-0002.87923299,273.306,-178.8807,-3.0241,-161.3872
P00002=0237.96973866,-0002.87855766,273.306,-178.8807,-3.0241,-161.3872
P00003=0238.17653180,-0002.87765535,273.306,-178.8807,-3.0241,-161.3872
P00004=0238.45008224,-0002.87646176,273.306,-178.8807,-3.0241,-161.3872
P00005=0238.80834310,-0002.87489854,273.306,-178.8807,-3.0241,-161.3872
P00006=0239.27288186,-0002.87287159,273.306,-178.8807,-3.0241,-161.3872
P00007=0239.86923737,-0002.87026948,273.306,-178.8807,-3.0241,-161.3872
P00008=0240.62720238,-0002.86696222,273.306,-178.8807,-3.0241,-161.3872
P00009=0241.58099455,-0002.86280049,273.306,-178.8807,-3.0241,-161.3872
P00010=0242.76927515,-0002.85761560,273.306,-178.8807,-3.0241,-161.3872
P00011=0244.23497461,-0002.85122024,273.306,-178.8807,-3.0241,-161.3872
P00012=0246.02488594,-0002.84341023,273.306,-178.8807,-3.0241,-161.3872
P00013=0248.18899312,-0002.83396747,273.306,-178.8807,-3.0241,-161.3872
P00014=0250.77951156,-0002.82266413,273.306,-178.8807,-3.0241,-161.3872
P00015=0253.84963101,-0002.80926812,273.306,-178.8807,-3.0241,-161.3872
P00016=0257.45196959,-0002.79354986,273.306,-178.8807,-3.0241,-161.3872
P00017=0261.63676715,-0002.77529012,273.306,-178.8807,-3.0241,-161.3872
P00018=0266.44986893,-0002.75428886,273.306,-178.8807,-3.0241,-161.3872
P00019=0271.93057245,-0002.73037463,273.306,-178.8807,-3.0241,-161.3872
P00020=0278.10943085,-0002.70341410,273.306,-178.8807,-3.0241,-161.3872
P00021=0285.00612309,-0002.67332142,273.306,-178.8807,-3.0241,-161.3872
P00022=0292.62751197,-0002.64006662,273.306,-178.8807,-3.0241,-161.3872
P00023=0300.96601456,-0002.60368281,273.306,-178.8807,-3.0241,-161.3872
P00024=0309.99840467,-0002.56427132,273.306,-178.8807,-3.0241,-161.3872
P00025=0319.68515212,-0002.52200465,273.306,-178.8807,-3.0241,-161.3872
P00026=0329.97038050,-0002.47712659,273.306,-178.8807,-3.0241,-161.3872
P00027=0340.78249348,-0002.42994955,273.306,-178.8807,-3.0241,-161.3872
P00028=0352.03548218,-0002.38084881,273.306,-178.8807,-3.0241,-161.3872
P00029=0363.63088562,-0002.33025400,273.306,-178.8807,-3.0241,-161.3872
P00030=0375.46033466,-0002.27863796,273.306,-178.8807,-3.0241,-161.3872
P00031=0387.40857211,-0002.22650361,273.306,-178.8807,-3.0241,-161.3872
P00032=0399.35680955,-0002.17436926,273.306,-178.8807,-3.0241,-161.3872
P00033=0411.18625859,-0002.12275322,273.306,-178.8807,-3.0241,-161.3872
P00034=0422.78166204,-0002.07215841,273.306,-178.8807,-3.0241,-161.3872
P00035=0434.03465074,-0002.02305767,273.306,-178.8807,-3.0241,-161.3872
P00036=0444.84676371,-0001.97588063,273.306,-178.8807,-3.0241,-161.3872
P00037=0455.13199210,-0001.93100257,273.306,-178.8807,-3.0241,-161.3872
P00038=0464.81873955,-0001.88873589,273.306,-178.8807,-3.0241,-161.3872
P00039=0473.85112965,-0001.84932440,273.306,-178.8807,-3.0241,-161.3872
P00040=0482.18963225,-0001.81294059,273.306,-178.8807,-3.0241,-161.3872
P00041=0489.81102112,-0001.77968580,273.306,-178.8807,-3.0241,-161.3872
P00042=0496.70771337,-0001.74959311,273.306,-178.8807,-3.0241,-161.3872
P00043=0502.88657176,-0001.72263258,273.306,-178.8807,-3.0241,-161.3872
P00044=0508.36727528,-0001.69871835,273.306,-178.8807,-3.0241,-161.3872
P00045=0513.18037707,-0001.67771710,273.306,-178.8807,-3.0241,-161.3872
P00046=0517.36517462,-0001.65945736,273.306,-178.8807,-3.0241,-161.3872
P00047=0520.96751320,-0001.64373909,273.306,-178.8807,-3.0241,-161.3872
P00048=0524.03763266,-0001.63034308,273.306,-178.8807,-3.0241,-161.3872
P00049=0526.62815109,-0001.61903974,273.306,-178.8807,-3.0241,-161.3872
P00050=0528.79225828,-0001.60959698,273.306,-178.8807,-3.0241,-161.3872
P00051=0530.58216960,-0001.60178697,273.306,-178.8807,-3.0241,-161.3872
P00052=0532.04786906,-0001.59539161,273.306,-178.8807,-3.0241,-161.3872
P00053=0533.23614967,-0001.59020673,273.306,-178.8807,-3.0241,-161.3872
P00054=0534.18994184,-0001.58604500,273.306,-178.8807,-3.0241,-161.3872
P00055=0534.94790685,-0001.58273773,273.306,-178.8807,-3.0241,-161.3872
P00056=0535.54426235,-0001.58013562,273.306,-178.8807,-3.0241,-161.3872
P00057=0536.00880112,-0001.57810868,273.306,-178.8807,-3.0241,-161.3872
P00058=0536.36706198,-0001.57654546,273.306,-178.8807,-3.0241,-161.3872
P00059=0536.64061241,-0001.57535186,273.306,-178.8807,-3.0241,-161.3872
P00060=0536.84740555,-0001.57444955,273.306,-178.8807,-3.0241,-161.3872
//INST
///DATE 2017/03/31 08:11
///ATTR SC,RW
///GROUP1 RB1
NOP
MOVL P00001 V=0009.6734113
MOVL P00002 V=0012.9246943
MOVL P00003 V=0017.0970651
MOVL P00004 V=0022.3915166
MOVL P00005 V=0029.0339494
MOVL P00006 V=0037.2725737
MOVL P00007 V=0047.3732643
MOVL P00008 V=0059.6125780
MOVL P00009 V=0074.2682447
MOVL P00010 V=0091.6070885
MOVL P00011 V=0111.8705225
MOVL P00012 V=0135.2579868
MOVL P00013 V=0161.9089434
MOVL P00014 V=0191.8842926
MOVL P00015 V=0225.1483044
MOVL P00016 V=0261.5523368
MOVL P00017 V=0300.8217253
MOVL P00018 V=0342.5472307
MOVL P00019 V=0386.1823261
MOVL P00020 V=0431.0473685
MOVL P00021 V=0476.3413390
MOVL P00022 V=0521.1613732
MOVL P00023 V=0564.5297557
MOVL P00024 V=0605.4274786
MOVL P00025 V=0642.8328933
MOVL P00026 V=0675.7634937
MOVL P00027 V=0703.3184892
MOVL P00028 V=0724.7196141
MOVL P00029 V=0739.3476030
MOVL P00030 V=0746.7719489
MOVL P00031 V=0746.7719489
MOVL P00032 V=0739.3476030
MOVL P00033 V=0724.7196141
MOVL P00034 V=0703.3184892
MOVL P00035 V=0675.7634937
MOVL P00036 V=0642.8328933
MOVL P00037 V=0605.4274786
MOVL P00038 V=0564.5297557
MOVL P00039 V=0521.1613732
MOVL P00040 V=0476.3413390
MOVL P00041 V=0431.0473685
MOVL P00042 V=0386.1823261
MOVL P00043 V=0342.5472307
MOVL P00044 V=0300.8217253
MOVL P00045 V=0261.5523368
MOVL P00046 V=0225.1483044
MOVL P00047 V=0191.8842926
MOVL P00048 V=0161.9089434
MOVL P00049 V=0135.2579868
MOVL P00050 V=0111.8705225
MOVL P00051 V=0091.6070885
MOVL P00052 V=0074.2682447
MOVL P00053 V=0059.6125780
MOVL P00054 V=0047.3732643
MOVL P00055 V=0037.2725737
MOVL P00056 V=0029.0339494
MOVL P00057 V=0022.3915166
MOVL P00058 V=0017.0970651
MOVL P00059 V=0012.9246943
MOVL P00060 V=0012.9246943
END
