/JOB
//NAME GAUSSIANMOVING2
//POS
///NPOS 0,0,0,121,0,0
///TOOL 0
///POSTYPE ROBOT
///RECTAN
///RCONF 0,0,0,0,0,0,0,0,0,0,0,0,0,0,0,0,0,0,0,0,0,0,0,0
P00000=10.000,0.000,0.000,0.0000,0.0000,0.0000
///POSTYPE BASE
P00001=0368.25936176,0004.05763824,0538.85800000,-0000.57780000,-0000.47430000,-0050.70270000,
P00002=0368.28854634,0004.02845366,0538.85800000,-0000.57780000,-0000.47430000,-0050.70270000,
P00003=0368.32754000,0003.98946000,0538.85800000,-0000.57780000,-0000.47430000,-0050.70270000,
P00004=0368.37912165,0003.93787835,0538.85800000,-0000.57780000,-0000.47430000,-0050.70270000,
P00005=0368.44667661,0003.87032339,0538.85800000,-0000.57780000,-0000.47430000,-0050.70270000,
P00006=0368.53427172,0003.78272828,0538.85800000,-0000.57780000,-0000.47430000,-0050.70270000,
P00007=0368.64672266,0003.67027734,0538.85800000,-0000.57780000,-0000.47430000,-0050.70270000,
P00008=0368.78964727,0003.52735273,0538.85800000,-0000.57780000,-0000.47430000,-0050.70270000,
P00009=0368.96949776,0003.34750224,0538.85800000,-0000.57780000,-0000.47430000,-0050.70270000,
P00010=0369.19356423,0003.12343577,0538.85800000,-0000.57780000,-0000.47430000,-0050.70270000,
P00011=0369.46994181,0002.84705819,0538.85800000,-0000.57780000,-0000.47430000,-0050.70270000,
P00012=0369.80745393,0002.50954607,0538.85800000,-0000.57780000,-0000.47430000,-0050.70270000,
P00013=0370.21552578,0002.10147422,0538.85800000,-0000.57780000,-0000.47430000,-0050.70270000,
P00014=0370.70400327,0001.61299673,0538.85800000,-0000.57780000,-0000.47430000,-0050.70270000,
P00015=0371.28291606,0001.03408394,0538.85800000,-0000.57780000,-0000.47430000,-0050.70270000,
P00016=0371.96218600,0000.35481400,0538.85800000,-0000.57780000,-0000.47430000,-0050.70270000,
P00017=0372.75128651,-0000.43428651,0538.85800000,-0000.57780000,-0000.47430000,-0050.70270000,
P00018=0373.65886233,-0001.34186233,0538.85800000,-0000.57780000,-0000.47430000,-0050.70270000,
P00019=0374.69232353,-0002.37532353,0538.85800000,-0000.57780000,-0000.47430000,-0050.70270000,
P00020=0375.85743133,-0003.54043133,0538.85800000,-0000.57780000,-0000.47430000,-0050.70270000,
P00021=0377.15789647,-0004.84089647,0538.85800000,-0000.57780000,-0000.47430000,-0050.70270000,
P00022=0378.59501302,-0006.27801302,0538.85800000,-0000.57780000,-0000.47430000,-0050.70270000,
P00023=0380.16735112,-0007.85035112,0538.85800000,-0000.57780000,-0000.47430000,-0050.70270000,
P00024=0381.87053114,-0009.55353114,0538.85800000,-0000.57780000,-0000.47430000,-0050.70270000,
P00025=0383.69709915,-0011.38009915,0538.85800000,-0000.57780000,-0000.47430000,-0050.70270000,
P00026=0385.63651887,-0013.31951887,0538.85800000,-0000.57780000,-0000.47430000,-0050.70270000,
P00027=0387.67528985,-0015.35828985,0538.85800000,-0000.57780000,-0000.47430000,-0050.70270000,
P00028=0389.79719395,-0017.48019395,0538.85800000,-0000.57780000,-0000.47430000,-0050.70270000,
P00029=0391.98366501,-0019.66666501,0538.85800000,-0000.57780000,-0000.47430000,-0050.70270000,
P00030=0394.21426854,-0021.89726854,0538.85800000,-0000.57780000,-0000.47430000,-0050.70270000,
P00031=0396.46727125,-0024.15027125,0538.85800000,-0000.57780000,-0000.47430000,-0050.70270000,
P00032=0398.72027395,-0026.40327395,0538.85800000,-0000.57780000,-0000.47430000,-0050.70270000,
P00033=0400.95087749,-0028.63387749,0538.85800000,-0000.57780000,-0000.47430000,-0050.70270000,
P00034=0403.13734854,-0030.82034854,0538.85800000,-0000.57780000,-0000.47430000,-0050.70270000,
P00035=0405.25925264,-0032.94225264,0538.85800000,-0000.57780000,-0000.47430000,-0050.70270000,
P00036=0407.29802362,-0034.98102362,0538.85800000,-0000.57780000,-0000.47430000,-0050.70270000,
P00037=0409.23744335,-0036.92044335,0538.85800000,-0000.57780000,-0000.47430000,-0050.70270000,
P00038=0411.06401135,-0038.74701135,0538.85800000,-0000.57780000,-0000.47430000,-0050.70270000,
P00039=0412.76719138,-0040.45019138,0538.85800000,-0000.57780000,-0000.47430000,-0050.70270000,
P00040=0414.33952947,-0042.02252947,0538.85800000,-0000.57780000,-0000.47430000,-0050.70270000,
P00041=0415.77664602,-0043.45964602,0538.85800000,-0000.57780000,-0000.47430000,-0050.70270000,
P00042=0417.07711116,-0044.76011116,0538.85800000,-0000.57780000,-0000.47430000,-0050.70270000,
P00043=0418.24221897,-0045.92521897,0538.85800000,-0000.57780000,-0000.47430000,-0050.70270000,
P00044=0419.27568017,-0046.95868017,0538.85800000,-0000.57780000,-0000.47430000,-0050.70270000,
P00045=0420.18325599,-0047.86625599,0538.85800000,-0000.57780000,-0000.47430000,-0050.70270000,
P00046=0420.97235649,-0048.65535649,0538.85800000,-0000.57780000,-0000.47430000,-0050.70270000,
P00047=0421.65162643,-0049.33462643,0538.85800000,-0000.57780000,-0000.47430000,-0050.70270000,
P00048=0422.23053922,-0049.91353922,0538.85800000,-0000.57780000,-0000.47430000,-0050.70270000,
P00049=0422.71901671,-0050.40201671,0538.85800000,-0000.57780000,-0000.47430000,-0050.70270000,
P00050=0423.12708856,-0050.81008856,0538.85800000,-0000.57780000,-0000.47430000,-0050.70270000,
P00051=0423.46460069,-0051.14760069,0538.85800000,-0000.57780000,-0000.47430000,-0050.70270000,
P00052=0423.74097826,-0051.42397826,0538.85800000,-0000.57780000,-0000.47430000,-0050.70270000,
P00053=0423.96504473,-0051.64804473,0538.85800000,-0000.57780000,-0000.47430000,-0050.70270000,
P00054=0424.14489522,-0051.82789522,0538.85800000,-0000.57780000,-0000.47430000,-0050.70270000,
P00055=0424.28781984,-0051.97081984,0538.85800000,-0000.57780000,-0000.47430000,-0050.70270000,
P00056=0424.40027078,-0052.08327078,0538.85800000,-0000.57780000,-0000.47430000,-0050.70270000,
P00057=0424.48786588,-0052.17086588,0538.85800000,-0000.57780000,-0000.47430000,-0050.70270000,
P00058=0424.55542084,-0052.23842084,0538.85800000,-0000.57780000,-0000.47430000,-0050.70270000,
P00059=0424.60700250,-0052.29000250,0538.85800000,-0000.57780000,-0000.47430000,-0050.70270000,
P00060=0424.64599616,-0052.32899616,0538.85800000,-0000.57780000,-0000.47430000,-0050.70270000,
P00061=0303.10763824,0000.69936176,0474.03100000,-0000.22600000,-0000.81470000,-0160.29600000
P00062=0303.07845366,0000.72854634,0474.03100000,-0000.22600000,-0000.81470000,-0160.29600000
P00063=0303.03946000,0000.76754000,0474.03100000,-0000.22600000,-0000.81470000,-0160.29600000
P00064=0302.98787835,0000.81912165,0474.03100000,-0000.22600000,-0000.81470000,-0160.29600000
P00065=0302.92032339,0000.88667661,0474.03100000,-0000.22600000,-0000.81470000,-0160.29600000
P00066=0302.83272828,0000.97427172,0474.03100000,-0000.22600000,-0000.81470000,-0160.29600000
P00067=0302.72027734,0001.08672266,0474.03100000,-0000.22600000,-0000.81470000,-0160.29600000
P00068=0302.57735273,0001.22964727,0474.03100000,-0000.22600000,-0000.81470000,-0160.29600000
P00069=0302.39750224,0001.40949776,0474.03100000,-0000.22600000,-0000.81470000,-0160.29600000
P00070=0302.17343577,0001.63356423,0474.03100000,-0000.22600000,-0000.81470000,-0160.29600000
P00071=0301.89705819,0001.90994181,0474.03100000,-0000.22600000,-0000.81470000,-0160.29600000
P00072=0301.55954607,0002.24745393,0474.03100000,-0000.22600000,-0000.81470000,-0160.29600000
P00073=0301.15147422,0002.65552578,0474.03100000,-0000.22600000,-0000.81470000,-0160.29600000
P00074=0300.66299673,0003.14400327,0474.03100000,-0000.22600000,-0000.81470000,-0160.29600000
P00075=0300.08408394,0003.72291606,0474.03100000,-0000.22600000,-0000.81470000,-0160.29600000
P00076=0299.40481400,0004.40218600,0474.03100000,-0000.22600000,-0000.81470000,-0160.29600000
P00077=0298.61571349,0005.19128651,0474.03100000,-0000.22600000,-0000.81470000,-0160.29600000
P00078=0297.70813767,0006.09886233,0474.03100000,-0000.22600000,-0000.81470000,-0160.29600000
P00079=0296.67467647,0007.13232353,0474.03100000,-0000.22600000,-0000.81470000,-0160.29600000
P00080=0295.50956867,0008.29743133,0474.03100000,-0000.22600000,-0000.81470000,-0160.29600000
P00081=0294.20910353,0009.59789647,0474.03100000,-0000.22600000,-0000.81470000,-0160.29600000
P00082=0292.77198698,0011.03501302,0474.03100000,-0000.22600000,-0000.81470000,-0160.29600000
P00083=0291.19964888,0012.60735112,0474.03100000,-0000.22600000,-0000.81470000,-0160.29600000
P00084=0289.49646886,0014.31053114,0474.03100000,-0000.22600000,-0000.81470000,-0160.29600000
P00085=0287.66990085,0016.13709915,0474.03100000,-0000.22600000,-0000.81470000,-0160.29600000
P00086=0285.73048113,0018.07651887,0474.03100000,-0000.22600000,-0000.81470000,-0160.29600000
P00087=0283.69171015,0020.11528985,0474.03100000,-0000.22600000,-0000.81470000,-0160.29600000
P00088=0281.56980605,0022.23719395,0474.03100000,-0000.22600000,-0000.81470000,-0160.29600000
P00089=0279.38333499,0024.42366501,0474.03100000,-0000.22600000,-0000.81470000,-0160.29600000
P00090=0277.15273146,0026.65426854,0474.03100000,-0000.22600000,-0000.81470000,-0160.29600000
P00091=0274.89972875,0028.90727125,0474.03100000,-0000.22600000,-0000.81470000,-0160.29600000
P00092=0272.64672605,0031.16027395,0474.03100000,-0000.22600000,-0000.81470000,-0160.29600000
P00093=0270.41612251,0033.39087749,0474.03100000,-0000.22600000,-0000.81470000,-0160.29600000
P00094=0268.22965146,0035.57734854,0474.03100000,-0000.22600000,-0000.81470000,-0160.29600000
P00095=0266.10774736,0037.69925264,0474.03100000,-0000.22600000,-0000.81470000,-0160.29600000
P00096=0264.06897638,0039.73802362,0474.03100000,-0000.22600000,-0000.81470000,-0160.29600000
P00097=0262.12955665,0041.67744335,0474.03100000,-0000.22600000,-0000.81470000,-0160.29600000
P00098=0260.30298865,0043.50401135,0474.03100000,-0000.22600000,-0000.81470000,-0160.29600000
P00099=0258.59980862,0045.20719138,0474.03100000,-0000.22600000,-0000.81470000,-0160.29600000
P00100=0257.02747053,0046.77952947,0474.03100000,-0000.22600000,-0000.81470000,-0160.29600000
P00101=0255.59035398,0048.21664602,0474.03100000,-0000.22600000,-0000.81470000,-0160.29600000
P00102=0254.28988884,0049.51711116,0474.03100000,-0000.22600000,-0000.81470000,-0160.29600000
P00103=0253.12478103,0050.68221897,0474.03100000,-0000.22600000,-0000.81470000,-0160.29600000
P00104=0252.09131983,0051.71568017,0474.03100000,-0000.22600000,-0000.81470000,-0160.29600000
P00105=0251.18374401,0052.62325599,0474.03100000,-0000.22600000,-0000.81470000,-0160.29600000
P00106=0250.39464351,0053.41235649,0474.03100000,-0000.22600000,-0000.81470000,-0160.29600000
P00107=0249.71537357,0054.09162643,0474.03100000,-0000.22600000,-0000.81470000,-0160.29600000
P00108=0249.13646078,0054.67053922,0474.03100000,-0000.22600000,-0000.81470000,-0160.29600000
P00109=0248.64798329,0055.15901671,0474.03100000,-0000.22600000,-0000.81470000,-0160.29600000
P00110=0248.23991144,0055.56708856,0474.03100000,-0000.22600000,-0000.81470000,-0160.29600000
P00111=0247.90239931,0055.90460069,0474.03100000,-0000.22600000,-0000.81470000,-0160.29600000
P00112=0247.62602174,0056.18097826,0474.03100000,-0000.22600000,-0000.81470000,-0160.29600000
P00113=0247.40195527,0056.40504473,0474.03100000,-0000.22600000,-0000.81470000,-0160.29600000
P00114=0247.22210478,0056.58489522,0474.03100000,-0000.22600000,-0000.81470000,-0160.29600000
P00115=0247.07918016,0056.72781984,0474.03100000,-0000.22600000,-0000.81470000,-0160.29600000
P00116=0246.96672922,0056.84027078,0474.03100000,-0000.22600000,-0000.81470000,-0160.29600000
P00117=0246.87913412,0056.92786588,0474.03100000,-0000.22600000,-0000.81470000,-0160.29600000
P00118=0246.81157916,0056.99542084,0474.03100000,-0000.22600000,-0000.81470000,-0160.29600000
P00119=0246.75999750,0057.04700250,0474.03100000,-0000.22600000,-0000.81470000,-0160.29600000
P00120=0246.72100384,0057.08599616,0474.03100000,-0000.22600000,-0000.81470000,-0160.29600000
//INST
///DATE 2017/03/31 08:11
///COMM PLAYINGTWOROBOTS
///ATTR SC,RW
///GROUP1 RB1
///GROUP2 RB2
NOP
MOVL P00001 V=0002.5795763  +MOVL P00061 V=0002.5795763
MOVL P00002 V=0003.4465852  +MOVL P00062 V=0003.4465852
MOVL P00003 V=0004.5592174  +MOVL P00063 V=0004.5592174
MOVL P00004 V=0005.9710711  +MOVL P00064 V=0005.9710711
MOVL P00005 V=0007.7423865  +MOVL P00065 V=0007.7423865
MOVL P00006 V=0009.9393530  +MOVL P00066 V=0009.9393530
MOVL P00007 V=0012.6328705  +MOVL P00067 V=0012.6328705
MOVL P00008 V=0015.8966875  +MOVL P00068 V=0015.8966875
MOVL P00009 V=0019.8048652  +MOVL P00069 V=0019.8048652
MOVL P00010 V=0024.4285569  +MOVL P00070 V=0024.4285569
MOVL P00011 V=0029.8321393  +MOVL P00071 V=0029.8321393
MOVL P00012 V=0036.0687965  +MOVL P00072 V=0036.0687965
MOVL P00013 V=0043.1757182  +MOVL P00073 V=0043.1757182
MOVL P00014 V=0051.1691447  +MOVL P00074 V=0051.1691447
MOVL P00015 V=0060.0395478  +MOVL P00075 V=0060.0395478
MOVL P00016 V=0069.7472898  +MOVL P00076 V=0069.7472898
MOVL P00017 V=0080.2191268  +MOVL P00077 V=0080.2191268
MOVL P00018 V=0091.3459282  +MOVL P00078 V=0091.3459282
MOVL P00019 V=0102.9819536  +MOVL P00079 V=0102.9819536
MOVL P00020 V=0114.9459649  +MOVL P00080 V=0114.9459649
MOVL P00021 V=0127.0243571  +MOVL P00081 V=0127.0243571
MOVL P00022 V=0138.9763662  +MOVL P00082 V=0138.9763662
MOVL P00023 V=0150.5412682  +MOVL P00083 V=0150.5412682
MOVL P00024 V=0161.4473276  +MOVL P00084 V=0161.4473276
MOVL P00025 V=0171.4221049  +MOVL P00085 V=0171.4221049
MOVL P00026 V=0180.2035983  +MOVL P00086 V=0180.2035983
MOVL P00027 V=0187.5515971  +MOVL P00087 V=0187.5515971
MOVL P00028 V=0193.2585637  +MOVL P00088 V=0193.2585637
MOVL P00029 V=0197.1593608  +MOVL P00089 V=0197.1593608
MOVL P00030 V=0199.1391864  +MOVL P00090 V=0199.1391864
MOVL P00031 V=0199.1391864  +MOVL P00091 V=0199.1391864
MOVL P00032 V=0197.1593608  +MOVL P00092 V=0197.1593608
MOVL P00033 V=0193.2585637  +MOVL P00093 V=0193.2585637
MOVL P00034 V=0187.5515971  +MOVL P00094 V=0187.5515971
MOVL P00035 V=0180.2035983  +MOVL P00095 V=0180.2035983
MOVL P00036 V=0171.4221049  +MOVL P00096 V=0171.4221049
MOVL P00037 V=0161.4473276  +MOVL P00097 V=0161.4473276
MOVL P00038 V=0150.5412682  +MOVL P00098 V=0150.5412682
MOVL P00039 V=0138.9763662  +MOVL P00099 V=0138.9763662
MOVL P00040 V=0127.0243571  +MOVL P00100 V=0127.0243571
MOVL P00041 V=0114.9459649  +MOVL P00101 V=0114.9459649
MOVL P00042 V=0102.9819536  +MOVL P00102 V=0102.9819536
MOVL P00043 V=0091.3459282  +MOVL P00103 V=0091.3459282
MOVL P00044 V=0080.2191268  +MOVL P00104 V=0080.2191268
MOVL P00045 V=0069.7472898  +MOVL P00105 V=0069.7472898
MOVL P00046 V=0060.0395478  +MOVL P00106 V=0060.0395478
MOVL P00047 V=0051.1691447  +MOVL P00107 V=0051.1691447
MOVL P00048 V=0043.1757182  +MOVL P00108 V=0043.1757182
MOVL P00049 V=0036.0687965  +MOVL P00109 V=0036.0687965
MOVL P00050 V=0029.8321393  +MOVL P00110 V=0029.8321393
MOVL P00051 V=0024.4285569  +MOVL P00111 V=0024.4285569
MOVL P00052 V=0019.8048652  +MOVL P00112 V=0019.8048652
MOVL P00053 V=0015.8966875  +MOVL P00113 V=0015.8966875
MOVL P00054 V=0012.6328705  +MOVL P00114 V=0012.6328705
MOVL P00055 V=0009.9393530  +MOVL P00115 V=0009.9393530
MOVL P00056 V=0007.7423865  +MOVL P00116 V=0007.7423865
MOVL P00057 V=0005.9710711  +MOVL P00117 V=0005.9710711
MOVL P00058 V=0004.5592174  +MOVL P00118 V=0004.5592174
MOVL P00059 V=0003.4465852  +MOVL P00119 V=0003.4465852
MOVL P00060 V=0003.4465852  +MOVL P00120 V=0003.4465852
END
