/JOB
//NAME GAUSSIANMOVING2
//POS
///NPOS 0,0,0,121,0,0
///TOOL 0
///POSTYPE ROBOT
///RECTAN
///RCONF 0,0,0,0,0,0,0,0,0,0,0,0,0,0,0,0,0,0,0,0,0,0,0,0
P00000=10.000,0.000,0.000,0.0000,0.0000,0.0000
///POSTYPE BASE
P00001=0249.04049656,16.200,273.300,-179.4000,-0.79,-160.6000
P00002=0249.04766564,16.200,273.300,-179.4000,-0.79,-160.6000
P00003=0249.05597387,16.200,273.300,-179.4000,-0.79,-160.6000
P00004=0249.06557822,16.200,273.300,-179.4000,-0.79,-160.6000
P00005=0249.07665318,16.200,273.300,-179.4000,-0.79,-160.6000
P00006=0249.08939205,16.200,273.300,-179.4000,-0.79,-160.6000
P00007=0249.10400822,16.200,273.300,-179.4000,-0.79,-160.6000
P00008=0249.12073651,16.200,273.300,-179.4000,-0.79,-160.6000
P00009=0249.13983431,16.200,273.300,-179.4000,-0.79,-160.6000
P00010=0249.16158284,16.200,273.300,-179.4000,-0.79,-160.6000
P00011=0249.18628819,16.200,273.300,-179.4000,-0.79,-160.6000
P00012=0249.21428228,16.200,273.300,-179.4000,-0.79,-160.6000
P00013=0249.24592374,16.200,273.300,-179.4000,-0.79,-160.6000
P00014=0249.28159849,16.200,273.300,-179.4000,-0.79,-160.6000
P00015=0249.32172024,16.200,273.300,-179.4000,-0.79,-160.6000
P00016=0249.36673069,16.200,273.300,-179.4000,-0.79,-160.6000
P00017=0249.41709945,16.200,273.300,-179.4000,-0.79,-160.6000
P00018=0249.47332372,16.200,273.300,-179.4000,-0.79,-160.6000
P00019=0249.53592752,16.200,273.300,-179.4000,-0.79,-160.6000
P00020=0249.60546070,16.200,273.300,-179.4000,-0.79,-160.6000
P00021=0249.68249746,16.200,273.300,-179.4000,-0.79,-160.6000
P00022=0249.76763448,16.200,273.300,-179.4000,-0.79,-160.6000
P00023=0249.86148859,16.200,273.300,-179.4000,-0.79,-160.6000
P00024=0249.96469406,16.200,273.300,-179.4000,-0.79,-160.6000
P00025=0250.07789931,16.200,273.300,-179.4000,-0.79,-160.6000
P00026=0250.20176327,16.200,273.300,-179.4000,-0.79,-160.6000
P00027=0250.33695116,16.200,273.300,-179.4000,-0.79,-160.6000
P00028=0250.48412991,16.200,273.300,-179.4000,-0.79,-160.6000
P00029=0250.64396310,16.200,273.300,-179.4000,-0.79,-160.6000
P00030=0250.81710544,16.200,273.300,-179.4000,-0.79,-160.6000
P00031=0251.00419696,16.200,273.300,-179.4000,-0.79,-160.6000
P00032=0251.20585679,16.200,273.300,-179.4000,-0.79,-160.6000
P00033=0251.42267671,16.200,273.300,-179.4000,-0.79,-160.6000
P00034=0251.65521447,16.200,273.300,-179.4000,-0.79,-160.6000
P00035=0251.90398689,16.200,273.300,-179.4000,-0.79,-160.6000
P00036=0252.16946304,16.200,273.300,-179.4000,-0.79,-160.6000
P00037=0252.45205725,16.200,273.300,-179.4000,-0.79,-160.6000
P00038=0252.75212235,16.200,273.300,-179.4000,-0.79,-160.6000
P00039=0253.06994309,16.200,273.300,-179.4000,-0.79,-160.6000
P00040=0253.40572975,16.200,273.300,-179.4000,-0.79,-160.6000
P00041=0253.75961231,16.200,273.300,-179.4000,-0.79,-160.6000
P00042=0254.13163494,16.200,273.300,-179.4000,-0.79,-160.6000
P00043=0254.52175120,16.200,273.300,-179.4000,-0.79,-160.6000
P00044=0254.92981985,16.200,273.300,-179.4000,-0.79,-160.6000
P00045=0255.35560146,16.200,273.300,-179.4000,-0.79,-160.6000
P00046=0255.79875585,16.200,273.300,-179.4000,-0.79,-160.6000
P00047=0256.25884047,16.200,273.300,-179.4000,-0.79,-160.6000
P00048=0256.73530969,16.200,273.300,-179.4000,-0.79,-160.6000
P00049=0257.22751521,16.200,273.300,-179.4000,-0.79,-160.6000
P00050=0257.73470745,16.200,273.300,-179.4000,-0.79,-160.6000
P00051=0258.25603805,16.200,273.300,-179.4000,-0.79,-160.6000
P00052=0258.79056341,16.200,273.300,-179.4000,-0.79,-160.6000
P00053=0259.33724935,16.200,273.300,-179.4000,-0.79,-160.6000
P00054=0259.89497675,16.200,273.300,-179.4000,-0.79,-160.6000
P00055=0260.46254822,16.200,273.300,-179.4000,-0.79,-160.6000
P00056=0261.03869563,16.200,273.300,-179.4000,-0.79,-160.6000
P00057=0261.62208856,16.200,273.300,-179.4000,-0.79,-160.6000
P00058=0262.21134347,16.200,273.300,-179.4000,-0.79,-160.6000
P00059=0262.80503347,16.200,273.300,-179.4000,-0.79,-160.6000
P00060=0263.40169873,16.200,273.300,-179.4000,-0.79,-160.6000
P00061=0263.99985721,16.200,273.300,-179.4000,-0.79,-160.6000
P00062=0264.59801569,16.200,273.300,-179.4000,-0.79,-160.6000
P00063=0265.19468096,16.200,273.300,-179.4000,-0.79,-160.6000
P00064=0265.78837096,16.200,273.300,-179.4000,-0.79,-160.6000
P00065=0266.37762586,16.200,273.300,-179.4000,-0.79,-160.6000
P00066=0266.96101879,16.200,273.300,-179.4000,-0.79,-160.6000
P00067=0267.53716620,16.200,273.300,-179.4000,-0.79,-160.6000
P00068=0268.10473767,16.200,273.300,-179.4000,-0.79,-160.6000
P00069=0268.66246507,16.200,273.300,-179.4000,-0.79,-160.6000
P00070=0269.20915101,16.200,273.300,-179.4000,-0.79,-160.6000
P00071=0269.74367637,16.200,273.300,-179.4000,-0.79,-160.6000
P00072=0270.26500697,16.200,273.300,-179.4000,-0.79,-160.6000
P00073=0270.77219921,16.200,273.300,-179.4000,-0.79,-160.6000
P00074=0271.26440473,16.200,273.300,-179.4000,-0.79,-160.6000
P00075=0271.74087395,16.200,273.300,-179.4000,-0.79,-160.6000
P00076=0272.20095857,16.200,273.300,-179.4000,-0.79,-160.6000
P00077=0272.64411297,16.200,273.300,-179.4000,-0.79,-160.6000
P00078=0273.06989458,16.200,273.300,-179.4000,-0.79,-160.6000
P00079=0273.47796322,16.200,273.300,-179.4000,-0.79,-160.6000
P00080=0273.86807948,16.200,273.300,-179.4000,-0.79,-160.6000
P00081=0274.24010211,16.200,273.300,-179.4000,-0.79,-160.6000
P00082=0274.59398467,16.200,273.300,-179.4000,-0.79,-160.6000
P00083=0274.92977134,16.200,273.300,-179.4000,-0.79,-160.6000
P00084=0275.24759207,16.200,273.300,-179.4000,-0.79,-160.6000
P00085=0275.54765718,16.200,273.300,-179.4000,-0.79,-160.6000
P00086=0275.83025138,16.200,273.300,-179.4000,-0.79,-160.6000
P00087=0276.09572753,16.200,273.300,-179.4000,-0.79,-160.6000
P00088=0276.34449995,16.200,273.300,-179.4000,-0.79,-160.6000
P00089=0276.57703771,16.200,273.300,-179.4000,-0.79,-160.6000
P00090=0276.79385763,16.200,273.300,-179.4000,-0.79,-160.6000
P00091=0276.99551746,16.200,273.300,-179.4000,-0.79,-160.6000
P00092=0277.18260898,16.200,273.300,-179.4000,-0.79,-160.6000
P00093=0277.35575132,16.200,273.300,-179.4000,-0.79,-160.6000
P00094=0277.51558451,16.200,273.300,-179.4000,-0.79,-160.6000
P00095=0277.66276327,16.200,273.300,-179.4000,-0.79,-160.6000
P00096=0277.79795116,16.200,273.300,-179.4000,-0.79,-160.6000
P00097=0277.92181511,16.200,273.300,-179.4000,-0.79,-160.6000
P00098=0278.03502036,16.200,273.300,-179.4000,-0.79,-160.6000
P00099=0278.13822583,16.200,273.300,-179.4000,-0.79,-160.6000
P00100=0278.23207994,16.200,273.300,-179.4000,-0.79,-160.6000
P00101=0278.31721696,16.200,273.300,-179.4000,-0.79,-160.6000
P00102=0278.39425372,16.200,273.300,-179.4000,-0.79,-160.6000
P00103=0278.46378691,16.200,273.300,-179.4000,-0.79,-160.6000
P00104=0278.52639071,16.200,273.300,-179.4000,-0.79,-160.6000
P00105=0278.58261497,16.200,273.300,-179.4000,-0.79,-160.6000
P00106=0278.63298373,16.200,273.300,-179.4000,-0.79,-160.6000
P00107=0278.67799418,16.200,273.300,-179.4000,-0.79,-160.6000
P00108=0278.71811594,16.200,273.300,-179.4000,-0.79,-160.6000
P00109=0278.75379068,16.200,273.300,-179.4000,-0.79,-160.6000
P00110=0278.78543214,16.200,273.300,-179.4000,-0.79,-160.6000
P00111=0278.81342624,16.200,273.300,-179.4000,-0.79,-160.6000
P00112=0278.83813158,16.200,273.300,-179.4000,-0.79,-160.6000
P00113=0278.85988011,16.200,273.300,-179.4000,-0.79,-160.6000
P00114=0278.87897791,16.200,273.300,-179.4000,-0.79,-160.6000
P00115=0278.89570620,16.200,273.300,-179.4000,-0.79,-160.6000
P00116=0278.91032238,16.200,273.300,-179.4000,-0.79,-160.6000
P00117=0278.92306124,16.200,273.300,-179.4000,-0.79,-160.6000
P00118=0278.93413620,16.200,273.300,-179.4000,-0.79,-160.6000
P00119=0278.94374056,16.200,273.300,-179.4000,-0.79,-160.6000
P00120=0278.95204879,16.200,273.300,-179.4000,-0.79,-160.6000
//INST
///DATE 2017/03/31 08:11
///ATTR SC,RW
///GROUP1 RB1
NOP
MOVL P00001 V=0000.4480675
MOVL P00002 V=0000.5192644
MOVL P00003 V=0000.6002721
MOVL P00004 V=0000.6921851
MOVL P00005 V=0000.7961791
MOVL P00006 V=0000.9135111
MOVL P00007 V=0001.0455177
MOVL P00008 V=0001.1936127
MOVL P00009 V=0001.3592832
MOVL P00010 V=0001.5440841
MOVL P00011 V=0001.7496310
MOVL P00012 V=0001.9775909
MOVL P00013 V=0002.2296718
MOVL P00014 V=0002.5076095
MOVL P00015 V=0002.8131532
MOVL P00016 V=0003.1480479
MOVL P00017 V=0003.5140163
MOVL P00018 V=0003.9127375
MOVL P00019 V=0004.3458240
MOVL P00020 V=0004.8147977
MOVL P00021 V=0005.3210635
MOVL P00022 V=0005.8658822
MOVL P00023 V=0006.4503417
MOVL P00024 V=0007.0753282
MOVL P00025 V=0007.7414971
MOVL P00026 V=0008.4492431
MOVL P00027 V=0009.1986723
MOVL P00028 V=0009.9895743
MOVL P00029 V=0010.8213963
MOVL P00030 V=0011.6932198
MOVL P00031 V=0012.6037394
MOVL P00032 V=0013.5512453
MOVL P00033 V=0014.5336095
MOVL P00034 V=0015.5482766
MOVL P00035 V=0016.5922591
MOVL P00036 V=0017.6621379
MOVL P00037 V=0018.7540691
MOVL P00038 V=0019.8637959
MOVL P00039 V=0020.9866667
MOVL P00040 V=0022.1176599
MOVL P00041 V=0023.2514144
MOVL P00042 V=0024.3822661
MOVL P00043 V=0025.5042905
MOVL P00044 V=0026.6113507
MOVL P00045 V=0027.6971497
MOVL P00046 V=0028.7552885
MOVL P00047 V=0029.7793264
MOVL P00048 V=0030.7628452
MOVL P00049 V=0031.6995152
MOVL P00050 V=0032.5831622
MOVL P00051 V=0033.4078349
MOVL P00052 V=0034.1678712
MOVL P00053 V=0034.8579627
MOVL P00054 V=0035.4732167
MOVL P00055 V=0036.0092132
MOVL P00056 V=0036.4620584
MOVL P00057 V=0036.8284314
MOVL P00058 V=0037.1056251
MOVL P00059 V=0037.2915790
MOVL P00060 V=0037.3849051
MOVL P00061 V=0037.3849051
MOVL P00062 V=0037.2915790
MOVL P00063 V=0037.1056251
MOVL P00064 V=0036.8284314
MOVL P00065 V=0036.4620584
MOVL P00066 V=0036.0092132
MOVL P00067 V=0035.4732167
MOVL P00068 V=0034.8579627
MOVL P00069 V=0034.1678712
MOVL P00070 V=0033.4078349
MOVL P00071 V=0032.5831622
MOVL P00072 V=0031.6995152
MOVL P00073 V=0030.7628452
MOVL P00074 V=0029.7793264
MOVL P00075 V=0028.7552885
MOVL P00076 V=0027.6971497
MOVL P00077 V=0026.6113507
MOVL P00078 V=0025.5042905
MOVL P00079 V=0024.3822661
MOVL P00080 V=0023.2514144
MOVL P00081 V=0022.1176599
MOVL P00082 V=0020.9866667
MOVL P00083 V=0019.8637959
MOVL P00084 V=0018.7540691
MOVL P00085 V=0017.6621379
MOVL P00086 V=0016.5922591
MOVL P00087 V=0015.5482766
MOVL P00088 V=0014.5336095
MOVL P00089 V=0013.5512453
MOVL P00090 V=0012.6037394
MOVL P00091 V=0011.6932198
MOVL P00092 V=0010.8213963
MOVL P00093 V=0009.9895743
MOVL P00094 V=0009.1986723
MOVL P00095 V=0008.4492431
MOVL P00096 V=0007.7414971
MOVL P00097 V=0007.0753282
MOVL P00098 V=0006.4503417
MOVL P00099 V=0005.8658822
MOVL P00100 V=0005.3210635
MOVL P00101 V=0004.8147977
MOVL P00102 V=0004.3458240
MOVL P00103 V=0003.9127375
MOVL P00104 V=0003.5140163
MOVL P00105 V=0003.1480479
MOVL P00106 V=0002.8131532
MOVL P00107 V=0002.5076095
MOVL P00108 V=0002.2296718
MOVL P00109 V=0001.9775909
MOVL P00110 V=0001.7496310
MOVL P00111 V=0001.5440841
MOVL P00112 V=0001.3592832
MOVL P00113 V=0001.1936127
MOVL P00114 V=0001.0455177
MOVL P00115 V=0000.9135111
MOVL P00116 V=0000.7961791
MOVL P00117 V=0000.6921851
MOVL P00118 V=0000.6002721
MOVL P00119 V=0000.5192644
MOVL P00120 V=0000.5192644
END
