/JOB
//NAME GAUSSIANMOVING2
//POS
///NPOS 0,0,0,121,0,0
///TOOL 0
///POSTYPE ROBOT
///RECTAN
///RCONF 0,0,0,0,0,0,0,0,0,0,0,0,0,0,0,0,0,0,0,0,0,0,0,0
P00000=10.000,0.000,0.000,0.0000,0.0000,0.0000
///POSTYPE BASE
P00001=0272.91299184,0000.00000000,0483.09500000,0000.00000000,0000.00000000,0180.00000000,
P00002=0272.95426506,0000.00000000,0483.09500000,0000.00000000,0000.00000000,0180.00000000,
P00003=0273.00941043,0000.00000000,0483.09500000,0000.00000000,0000.00000000,0180.00000000,
P00004=0273.08235790,0000.00000000,0483.09500000,0000.00000000,0000.00000000,0180.00000000,
P00005=0273.17789504,0000.00000000,0483.09500000,0000.00000000,0000.00000000,0180.00000000,
P00006=0273.30177323,0000.00000000,0483.09500000,0000.00000000,0000.00000000,0180.00000000,
P00007=0273.46080287,0000.00000000,0483.09500000,0000.00000000,0000.00000000,0180.00000000,
P00008=0273.66292880,0000.00000000,0483.09500000,0000.00000000,0000.00000000,0180.00000000,
P00009=0273.91727580,0000.00000000,0483.09500000,0000.00000000,0000.00000000,0180.00000000,
P00010=0274.23415365,0000.00000000,0483.09500000,0000.00000000,0000.00000000,0180.00000000,
P00011=0274.62501056,0000.00000000,0483.09500000,0000.00000000,0000.00000000,0180.00000000,
P00012=0275.10232479,0000.00000000,0483.09500000,0000.00000000,0000.00000000,0180.00000000,
P00013=0275.67942553,0000.00000000,0483.09500000,0000.00000000,0000.00000000,0180.00000000,
P00014=0276.37023702,0000.00000000,0483.09500000,0000.00000000,0000.00000000,0180.00000000,
P00015=0277.18894334,0000.00000000,0483.09500000,0000.00000000,0000.00000000,0180.00000000,
P00016=0278.14957610,0000.00000000,0483.09500000,0000.00000000,0000.00000000,0180.00000000,
P00017=0279.26553274,0000.00000000,0483.09500000,0000.00000000,0000.00000000,0180.00000000,
P00018=0280.54903877,0000.00000000,0483.09500000,0000.00000000,0000.00000000,0180.00000000,
P00019=0282.01057362,0000.00000000,0483.09500000,0000.00000000,0000.00000000,0180.00000000,
P00020=0283.65828488,0000.00000000,0483.09500000,0000.00000000,0000.00000000,0180.00000000,
P00021=0285.49742031,0000.00000000,0483.09500000,0000.00000000,0000.00000000,0180.00000000,
P00022=0287.52981003,0000.00000000,0483.09500000,0000.00000000,0000.00000000,0180.00000000,
P00023=0289.75343189,0000.00000000,0483.09500000,0000.00000000,0000.00000000,0180.00000000,
P00024=0292.16209218,0000.00000000,0483.09500000,0000.00000000,0000.00000000,0180.00000000,
P00025=0294.74524942,0000.00000000,0483.09500000,0000.00000000,0000.00000000,0180.00000000,
P00026=0297.48800310,0000.00000000,0483.09500000,0000.00000000,0000.00000000,0180.00000000,
P00027=0300.37126067,0000.00000000,0483.09500000,0000.00000000,0000.00000000,0180.00000000,
P00028=0303.37208622,0000.00000000,0483.09500000,0000.00000000,0000.00000000,0180.00000000,
P00029=0306.46422324,0000.00000000,0483.09500000,0000.00000000,0000.00000000,0180.00000000,
P00030=0309.61877302,0000.00000000,0483.09500000,0000.00000000,0000.00000000,0180.00000000,
P00031=0312.80500000,0000.00000000,0483.09500000,0000.00000000,0000.00000000,0180.00000000,
P00032=0315.99122698,0000.00000000,0483.09500000,0000.00000000,0000.00000000,0180.00000000,
P00033=0319.14577676,0000.00000000,0483.09500000,0000.00000000,0000.00000000,0180.00000000,
P00034=0322.23791378,0000.00000000,0483.09500000,0000.00000000,0000.00000000,0180.00000000,
P00035=0325.23873933,0000.00000000,0483.09500000,0000.00000000,0000.00000000,0180.00000000,
P00036=0328.12199690,0000.00000000,0483.09500000,0000.00000000,0000.00000000,0180.00000000,
P00037=0330.86475058,0000.00000000,0483.09500000,0000.00000000,0000.00000000,0180.00000000,
P00038=0333.44790782,0000.00000000,0483.09500000,0000.00000000,0000.00000000,0180.00000000,
P00039=0335.85656811,0000.00000000,0483.09500000,0000.00000000,0000.00000000,0180.00000000,
P00040=0338.08018997,0000.00000000,0483.09500000,0000.00000000,0000.00000000,0180.00000000,
P00041=0340.11257969,0000.00000000,0483.09500000,0000.00000000,0000.00000000,0180.00000000,
P00042=0341.95171512,0000.00000000,0483.09500000,0000.00000000,0000.00000000,0180.00000000,
P00043=0343.59942638,0000.00000000,0483.09500000,0000.00000000,0000.00000000,0180.00000000,
P00044=0345.06096123,0000.00000000,0483.09500000,0000.00000000,0000.00000000,0180.00000000,
P00045=0346.34446726,0000.00000000,0483.09500000,0000.00000000,0000.00000000,0180.00000000,
P00046=0347.46042390,0000.00000000,0483.09500000,0000.00000000,0000.00000000,0180.00000000,
P00047=0348.42105666,0000.00000000,0483.09500000,0000.00000000,0000.00000000,0180.00000000,
P00048=0349.23976298,0000.00000000,0483.09500000,0000.00000000,0000.00000000,0180.00000000,
P00049=0349.93057447,0000.00000000,0483.09500000,0000.00000000,0000.00000000,0180.00000000,
P00050=0350.50767521,0000.00000000,0483.09500000,0000.00000000,0000.00000000,0180.00000000,
P00051=0350.98498944,0000.00000000,0483.09500000,0000.00000000,0000.00000000,0180.00000000,
P00052=0351.37584635,0000.00000000,0483.09500000,0000.00000000,0000.00000000,0180.00000000,
P00053=0351.69272420,0000.00000000,0483.09500000,0000.00000000,0000.00000000,0180.00000000,
P00054=0351.94707120,0000.00000000,0483.09500000,0000.00000000,0000.00000000,0180.00000000,
P00055=0352.14919713,0000.00000000,0483.09500000,0000.00000000,0000.00000000,0180.00000000,
P00056=0352.30822677,0000.00000000,0483.09500000,0000.00000000,0000.00000000,0180.00000000,
P00057=0352.43210496,0000.00000000,0483.09500000,0000.00000000,0000.00000000,0180.00000000,
P00058=0352.52764210,0000.00000000,0483.09500000,0000.00000000,0000.00000000,0180.00000000,
P00059=0352.60058957,0000.00000000,0483.09500000,0000.00000000,0000.00000000,0180.00000000,
P00060=0352.65573494,0000.00000000,0483.09500000,0000.00000000,0000.00000000,0180.00000000,
P00061=0132.67000816,0000.00400000,0578.51100000,0000.01900000,-0000.28450000,0180.00000000
P00062=0132.62873494,0000.00400000,0578.51100000,0000.01900000,-0000.28450000,0180.00000000
P00063=0132.57358957,0000.00400000,0578.51100000,0000.01900000,-0000.28450000,0180.00000000
P00064=0132.50064210,0000.00400000,0578.51100000,0000.01900000,-0000.28450000,0180.00000000
P00065=0132.40510496,0000.00400000,0578.51100000,0000.01900000,-0000.28450000,0180.00000000
P00066=0132.28122677,0000.00400000,0578.51100000,0000.01900000,-0000.28450000,0180.00000000
P00067=0132.12219713,0000.00400000,0578.51100000,0000.01900000,-0000.28450000,0180.00000000
P00068=0131.92007120,0000.00400000,0578.51100000,0000.01900000,-0000.28450000,0180.00000000
P00069=0131.66572420,0000.00400000,0578.51100000,0000.01900000,-0000.28450000,0180.00000000
P00070=0131.34884635,0000.00400000,0578.51100000,0000.01900000,-0000.28450000,0180.00000000
P00071=0130.95798944,0000.00400000,0578.51100000,0000.01900000,-0000.28450000,0180.00000000
P00072=0130.48067521,0000.00400000,0578.51100000,0000.01900000,-0000.28450000,0180.00000000
P00073=0129.90357447,0000.00400000,0578.51100000,0000.01900000,-0000.28450000,0180.00000000
P00074=0129.21276298,0000.00400000,0578.51100000,0000.01900000,-0000.28450000,0180.00000000
P00075=0128.39405666,0000.00400000,0578.51100000,0000.01900000,-0000.28450000,0180.00000000
P00076=0127.43342390,0000.00400000,0578.51100000,0000.01900000,-0000.28450000,0180.00000000
P00077=0126.31746726,0000.00400000,0578.51100000,0000.01900000,-0000.28450000,0180.00000000
P00078=0125.03396123,0000.00400000,0578.51100000,0000.01900000,-0000.28450000,0180.00000000
P00079=0123.57242638,0000.00400000,0578.51100000,0000.01900000,-0000.28450000,0180.00000000
P00080=0121.92471512,0000.00400000,0578.51100000,0000.01900000,-0000.28450000,0180.00000000
P00081=0120.08557969,0000.00400000,0578.51100000,0000.01900000,-0000.28450000,0180.00000000
P00082=0118.05318997,0000.00400000,0578.51100000,0000.01900000,-0000.28450000,0180.00000000
P00083=0115.82956811,0000.00400000,0578.51100000,0000.01900000,-0000.28450000,0180.00000000
P00084=0113.42090782,0000.00400000,0578.51100000,0000.01900000,-0000.28450000,0180.00000000
P00085=0110.83775058,0000.00400000,0578.51100000,0000.01900000,-0000.28450000,0180.00000000
P00086=0108.09499690,0000.00400000,0578.51100000,0000.01900000,-0000.28450000,0180.00000000
P00087=0105.21173933,0000.00400000,0578.51100000,0000.01900000,-0000.28450000,0180.00000000
P00088=0102.21091378,0000.00400000,0578.51100000,0000.01900000,-0000.28450000,0180.00000000
P00089=0099.11877676,0000.00400000,0578.51100000,0000.01900000,-0000.28450000,0180.00000000
P00090=0095.96422698,0000.00400000,0578.51100000,0000.01900000,-0000.28450000,0180.00000000
P00091=0092.77800000,0000.00400000,0578.51100000,0000.01900000,-0000.28450000,0180.00000000
P00092=0089.59177302,0000.00400000,0578.51100000,0000.01900000,-0000.28450000,0180.00000000
P00093=0086.43722324,0000.00400000,0578.51100000,0000.01900000,-0000.28450000,0180.00000000
P00094=0083.34508622,0000.00400000,0578.51100000,0000.01900000,-0000.28450000,0180.00000000
P00095=0080.34426067,0000.00400000,0578.51100000,0000.01900000,-0000.28450000,0180.00000000
P00096=0077.46100310,0000.00400000,0578.51100000,0000.01900000,-0000.28450000,0180.00000000
P00097=0074.71824942,0000.00400000,0578.51100000,0000.01900000,-0000.28450000,0180.00000000
P00098=0072.13509218,0000.00400000,0578.51100000,0000.01900000,-0000.28450000,0180.00000000
P00099=0069.72643189,0000.00400000,0578.51100000,0000.01900000,-0000.28450000,0180.00000000
P00100=0067.50281003,0000.00400000,0578.51100000,0000.01900000,-0000.28450000,0180.00000000
P00101=0065.47042031,0000.00400000,0578.51100000,0000.01900000,-0000.28450000,0180.00000000
P00102=0063.63128488,0000.00400000,0578.51100000,0000.01900000,-0000.28450000,0180.00000000
P00103=0061.98357362,0000.00400000,0578.51100000,0000.01900000,-0000.28450000,0180.00000000
P00104=0060.52203877,0000.00400000,0578.51100000,0000.01900000,-0000.28450000,0180.00000000
P00105=0059.23853274,0000.00400000,0578.51100000,0000.01900000,-0000.28450000,0180.00000000
P00106=0058.12257610,0000.00400000,0578.51100000,0000.01900000,-0000.28450000,0180.00000000
P00107=0057.16194334,0000.00400000,0578.51100000,0000.01900000,-0000.28450000,0180.00000000
P00108=0056.34323702,0000.00400000,0578.51100000,0000.01900000,-0000.28450000,0180.00000000
P00109=0055.65242553,0000.00400000,0578.51100000,0000.01900000,-0000.28450000,0180.00000000
P00110=0055.07532479,0000.00400000,0578.51100000,0000.01900000,-0000.28450000,0180.00000000
P00111=0054.59801056,0000.00400000,0578.51100000,0000.01900000,-0000.28450000,0180.00000000
P00112=0054.20715365,0000.00400000,0578.51100000,0000.01900000,-0000.28450000,0180.00000000
P00113=0053.89027580,0000.00400000,0578.51100000,0000.01900000,-0000.28450000,0180.00000000
P00114=0053.63592880,0000.00400000,0578.51100000,0000.01900000,-0000.28450000,0180.00000000
P00115=0053.43380287,0000.00400000,0578.51100000,0000.01900000,-0000.28450000,0180.00000000
P00116=0053.27477323,0000.00400000,0578.51100000,0000.01900000,-0000.28450000,0180.00000000
P00117=0053.15089504,0000.00400000,0578.51100000,0000.01900000,-0000.28450000,0180.00000000
P00118=0053.05535790,0000.00400000,0578.51100000,0000.01900000,-0000.28450000,0180.00000000
P00119=0052.98241043,0000.00400000,0578.51100000,0000.01900000,-0000.28450000,0180.00000000
P00120=0052.92726506,0000.00400000,0578.51100000,0000.01900000,-0000.28450000,0180.00000000
//INST
///DATE 2017/03/31 08:11
///COMM PLAYINGTWOROBOTS
///ATTR SC,RW
///GROUP1 RB1
///GROUP2 RB2
NOP
MOVL P00001 V=0002.5795763  +MOVL P00061 V=0002.5795763
MOVL P00002 V=0003.4465852  +MOVL P00062 V=0003.4465852
MOVL P00003 V=0004.5592174  +MOVL P00063 V=0004.5592174
MOVL P00004 V=0005.9710711  +MOVL P00064 V=0005.9710711
MOVL P00005 V=0007.7423865  +MOVL P00065 V=0007.7423865
MOVL P00006 V=0009.9393530  +MOVL P00066 V=0009.9393530
MOVL P00007 V=0012.6328705  +MOVL P00067 V=0012.6328705
MOVL P00008 V=0015.8966875  +MOVL P00068 V=0015.8966875
MOVL P00009 V=0019.8048652  +MOVL P00069 V=0019.8048652
MOVL P00010 V=0024.4285569  +MOVL P00070 V=0024.4285569
MOVL P00011 V=0029.8321393  +MOVL P00071 V=0029.8321393
MOVL P00012 V=0036.0687965  +MOVL P00072 V=0036.0687965
MOVL P00013 V=0043.1757182  +MOVL P00073 V=0043.1757182
MOVL P00014 V=0051.1691447  +MOVL P00074 V=0051.1691447
MOVL P00015 V=0060.0395478  +MOVL P00075 V=0060.0395478
MOVL P00016 V=0069.7472898  +MOVL P00076 V=0069.7472898
MOVL P00017 V=0080.2191268  +MOVL P00077 V=0080.2191268
MOVL P00018 V=0091.3459282  +MOVL P00078 V=0091.3459282
MOVL P00019 V=0102.9819536  +MOVL P00079 V=0102.9819536
MOVL P00020 V=0114.9459649  +MOVL P00080 V=0114.9459649
MOVL P00021 V=0127.0243571  +MOVL P00081 V=0127.0243571
MOVL P00022 V=0138.9763662  +MOVL P00082 V=0138.9763662
MOVL P00023 V=0150.5412682  +MOVL P00083 V=0150.5412682
MOVL P00024 V=0161.4473276  +MOVL P00084 V=0161.4473276
MOVL P00025 V=0171.4221049  +MOVL P00085 V=0171.4221049
MOVL P00026 V=0180.2035983  +MOVL P00086 V=0180.2035983
MOVL P00027 V=0187.5515971  +MOVL P00087 V=0187.5515971
MOVL P00028 V=0193.2585637  +MOVL P00088 V=0193.2585637
MOVL P00029 V=0197.1593608  +MOVL P00089 V=0197.1593608
MOVL P00030 V=0199.1391864  +MOVL P00090 V=0199.1391864
MOVL P00031 V=0199.1391864  +MOVL P00091 V=0199.1391864
MOVL P00032 V=0197.1593608  +MOVL P00092 V=0197.1593608
MOVL P00033 V=0193.2585637  +MOVL P00093 V=0193.2585637
MOVL P00034 V=0187.5515971  +MOVL P00094 V=0187.5515971
MOVL P00035 V=0180.2035983  +MOVL P00095 V=0180.2035983
MOVL P00036 V=0171.4221049  +MOVL P00096 V=0171.4221049
MOVL P00037 V=0161.4473276  +MOVL P00097 V=0161.4473276
MOVL P00038 V=0150.5412682  +MOVL P00098 V=0150.5412682
MOVL P00039 V=0138.9763662  +MOVL P00099 V=0138.9763662
MOVL P00040 V=0127.0243571  +MOVL P00100 V=0127.0243571
MOVL P00041 V=0114.9459649  +MOVL P00101 V=0114.9459649
MOVL P00042 V=0102.9819536  +MOVL P00102 V=0102.9819536
MOVL P00043 V=0091.3459282  +MOVL P00103 V=0091.3459282
MOVL P00044 V=0080.2191268  +MOVL P00104 V=0080.2191268
MOVL P00045 V=0069.7472898  +MOVL P00105 V=0069.7472898
MOVL P00046 V=0060.0395478  +MOVL P00106 V=0060.0395478
MOVL P00047 V=0051.1691447  +MOVL P00107 V=0051.1691447
MOVL P00048 V=0043.1757182  +MOVL P00108 V=0043.1757182
MOVL P00049 V=0036.0687965  +MOVL P00109 V=0036.0687965
MOVL P00050 V=0029.8321393  +MOVL P00110 V=0029.8321393
MOVL P00051 V=0024.4285569  +MOVL P00111 V=0024.4285569
MOVL P00052 V=0019.8048652  +MOVL P00112 V=0019.8048652
MOVL P00053 V=0015.8966875  +MOVL P00113 V=0015.8966875
MOVL P00054 V=0012.6328705  +MOVL P00114 V=0012.6328705
MOVL P00055 V=0009.9393530  +MOVL P00115 V=0009.9393530
MOVL P00056 V=0007.7423865  +MOVL P00116 V=0007.7423865
MOVL P00057 V=0005.9710711  +MOVL P00117 V=0005.9710711
MOVL P00058 V=0004.5592174  +MOVL P00118 V=0004.5592174
MOVL P00059 V=0003.4465852  +MOVL P00119 V=0003.4465852
MOVL P00060 V=0003.4465852  +MOVL P00120 V=0003.4465852
END
