/JOB
//NAME GAUSSIANMOVING2
//POS
///NPOS 0,0,0,121,0,0
///TOOL 0
///POSTYPE ROBOT
///RECTAN
///RCONF 0,0,0,0,0,0,0,0,0,0,0,0,0,0,0,0,0,0,0,0,0,0,0,0
P00000=10.000,0.000,0.000,0.0000,0.0000,0.0000
///POSTYPE BASE
///TOOL0
P00001=0612.73036747,-0069.15276497,0523.09500000,0000.00000000,0000.00400000,0180.00000000,
P00002=0612.70279479,-0069.10500768,0523.09500000,0000.00000000,0000.00400000,0180.00000000,
P00003=0612.66632105,-0069.04183331,0523.09500000,0000.00000000,0000.00400000,0180.00000000,
P00004=0612.61855248,-0068.95909572,0523.09500000,0000.00000000,0000.00400000,0180.00000000,
P00005=0612.55661339,-0068.85181407,0523.09500000,0000.00000000,0000.00400000,0180.00000000,
P00006=0612.47709856,-0068.71409035,0523.09500000,0000.00000000,0000.00400000,0180.00000000,
P00007=0612.37603560,-0068.53904417,0523.09500000,0000.00000000,0000.00400000,0180.00000000,
P00008=0612.24886210,-0068.31877320,0523.09500000,0000.00000000,0000.00400000,0180.00000000,
P00009=0612.09042318,-0068.04434894,0523.09500000,0000.00000000,0000.00400000,0180.00000000,
P00010=0611.89499472,-0067.70585693,0523.09500000,0000.00000000,0000.00400000,0180.00000000,
P00011=0611.65633761,-0067.29249068,0523.09500000,0000.00000000,0000.00400000,0180.00000000,
P00012=0611.36778724,-0066.79270677,0523.09500000,0000.00000000,0000.00400000,0180.00000000,
P00013=0611.02238149,-0066.19444647,0523.09500000,0000.00000000,0000.00400000,0180.00000000,
P00014=0610.61302833,-0065.48542601,0523.09500000,0000.00000000,0000.00400000,0180.00000000,
P00015=0610.13271195,-0064.65349363,0523.09500000,0000.00000000,0000.00400000,0180.00000000,
P00016=0609.57473363,-0063.68704683,0523.09500000,0000.00000000,0000.00400000,0180.00000000,
P00017=0608.93298062,-0062.57549800,0523.09500000,0000.00000000,0000.00400000,0180.00000000,
P00018=0608.20221319,-0061.30977169,0523.09500000,0000.00000000,0000.00400000,0180.00000000,
P00019=0607.37835756,-0059.88281189,0523.09500000,0000.00000000,0000.00400000,0180.00000000,
P00020=0606.45878984,-0058.29007387,0523.09500000,0000.00000000,0000.00400000,0180.00000000,
P00021=0605.44259499,-0056.52997275,0523.09500000,0000.00000000,0000.00400000,0180.00000000,
P00022=0604.33078406,-0054.60425973,0523.09500000,0000.00000000,0000.00400000,0180.00000000,
P00023=0603.12645391,-0052.51829873,0523.09500000,0000.00000000,0000.00400000,0180.00000000,
P00024=0601.83487529,-0050.28121894,0523.09500000,0000.00000000,0000.00400000,0180.00000000,
P00025=0600.46349845,-0047.90592458,0523.09500000,0000.00000000,0000.00400000,0180.00000000,
P00026=0599.02186966,-0045.40895027,0523.09500000,0000.00000000,0000.00400000,0180.00000000,
P00027=0597.52145689,-0042.81015911,0523.09500000,0000.00000000,0000.00400000,0180.00000000,
P00028=0595.97538838,-0040.13228990,0523.09500000,0000.00000000,0000.00400000,0180.00000000,
P00029=0594.39811349,-0037.40036966,0523.09500000,0000.00000000,0000.00400000,0180.00000000,
P00030=0592.80500000,-0034.64101615,0523.09500000,0000.00000000,0000.00400000,0180.00000000,
P00031=0591.21188651,-0031.88166264,0523.09500000,0000.00000000,0000.00400000,0180.00000000,
P00032=0589.63461162,-0029.14974240,0523.09500000,0000.00000000,0000.00400000,0180.00000000,
P00033=0588.08854311,-0026.47187319,0523.09500000,0000.00000000,0000.00400000,0180.00000000,
P00034=0586.58813034,-0023.87308203,0523.09500000,0000.00000000,0000.00400000,0180.00000000,
P00035=0585.14650155,-0021.37610772,0523.09500000,0000.00000000,0000.00400000,0180.00000000,
P00036=0583.77512471,-0019.00081336,0523.09500000,0000.00000000,0000.00400000,0180.00000000,
P00037=0582.48354609,-0016.76373357,0523.09500000,0000.00000000,0000.00400000,0180.00000000,
P00038=0581.27921594,-0014.67777257,0523.09500000,0000.00000000,0000.00400000,0180.00000000,
P00039=0580.16740501,-0012.75205955,0523.09500000,0000.00000000,0000.00400000,0180.00000000,
P00040=0579.15121016,-0010.99195843,0523.09500000,0000.00000000,0000.00400000,0180.00000000,
P00041=0578.23164244,-0009.39922042,0523.09500000,0000.00000000,0000.00400000,0180.00000000,
P00042=0577.40778681,-0007.97226061,0523.09500000,0000.00000000,0000.00400000,0180.00000000,
P00043=0576.67701938,-0006.70653430,0523.09500000,0000.00000000,0000.00400000,0180.00000000,
P00044=0576.03526637,-0005.59498547,0523.09500000,0000.00000000,0000.00400000,0180.00000000,
P00045=0575.47728805,-0004.62853868,0523.09500000,0000.00000000,0000.00400000,0180.00000000,
P00046=0574.99697167,-0003.79660630,0523.09500000,0000.00000000,0000.00400000,0180.00000000,
P00047=0574.58761851,-0003.08758583,0523.09500000,0000.00000000,0000.00400000,0180.00000000,
P00048=0574.24221276,-0002.48932553,0523.09500000,0000.00000000,0000.00400000,0180.00000000,
P00049=0573.95366239,-0001.98954162,0523.09500000,0000.00000000,0000.00400000,0180.00000000,
P00050=0573.71500528,-0001.57617538,0523.09500000,0000.00000000,0000.00400000,0180.00000000,
P00051=0573.51957682,-0001.23768336,0523.09500000,0000.00000000,0000.00400000,0180.00000000,
P00052=0573.36113790,-0000.96325910,0523.09500000,0000.00000000,0000.00400000,0180.00000000,
P00053=0573.23396440,-0000.74298814,0523.09500000,0000.00000000,0000.00400000,0180.00000000,
P00054=0573.13290144,-0000.56794195,0523.09500000,0000.00000000,0000.00400000,0180.00000000,
P00055=0573.05338661,-0000.43021823,0523.09500000,0000.00000000,0000.00400000,0180.00000000,
P00056=0572.99144752,-0000.32293658,0523.09500000,0000.00000000,0000.00400000,0180.00000000,
P00057=0572.94367895,-0000.24019899,0523.09500000,0000.00000000,0000.00400000,0180.00000000,
P00058=0572.90720521,-0000.17702462,0523.09500000,0000.00000000,0000.00400000,0180.00000000,
P00059=0572.87963253,-0000.12926734,0523.09500000,0000.00000000,0000.00400000,0180.00000000,
P00060=0572.85899592,-0000.09352368,0523.09500000,0000.00000000,0000.00400000,0180.00000000,
///TOOL1
P00061=0634.60463253,0069.15276497,0908.48000000,0180.00000000,0000.00000000,0000.00000000
P00062=0634.63220521,0069.10500768,0908.48000000,0180.00000000,0000.00000000,0000.00000000
P00063=0634.66867895,0069.04183331,0908.48000000,0180.00000000,0000.00000000,0000.00000000
P00064=0634.71644752,0068.95909572,0908.48000000,0180.00000000,0000.00000000,0000.00000000
P00065=0634.77838661,0068.85181407,0908.48000000,0180.00000000,0000.00000000,0000.00000000
P00066=0634.85790144,0068.71409035,0908.48000000,0180.00000000,0000.00000000,0000.00000000
P00067=0634.95896440,0068.53904417,0908.48000000,0180.00000000,0000.00000000,0000.00000000
P00068=0635.08613790,0068.31877320,0908.48000000,0180.00000000,0000.00000000,0000.00000000
P00069=0635.24457682,0068.04434894,0908.48000000,0180.00000000,0000.00000000,0000.00000000
P00070=0635.44000528,0067.70585693,0908.48000000,0180.00000000,0000.00000000,0000.00000000
P00071=0635.67866239,0067.29249068,0908.48000000,0180.00000000,0000.00000000,0000.00000000
P00072=0635.96721276,0066.79270677,0908.48000000,0180.00000000,0000.00000000,0000.00000000
P00073=0636.31261851,0066.19444647,0908.48000000,0180.00000000,0000.00000000,0000.00000000
P00074=0636.72197167,0065.48542601,0908.48000000,0180.00000000,0000.00000000,0000.00000000
P00075=0637.20228805,0064.65349363,0908.48000000,0180.00000000,0000.00000000,0000.00000000
P00076=0637.76026637,0063.68704683,0908.48000000,0180.00000000,0000.00000000,0000.00000000
P00077=0638.40201938,0062.57549800,0908.48000000,0180.00000000,0000.00000000,0000.00000000
P00078=0639.13278681,0061.30977169,0908.48000000,0180.00000000,0000.00000000,0000.00000000
P00079=0639.95664244,0059.88281189,0908.48000000,0180.00000000,0000.00000000,0000.00000000
P00080=0640.87621016,0058.29007387,0908.48000000,0180.00000000,0000.00000000,0000.00000000
P00081=0641.89240501,0056.52997275,0908.48000000,0180.00000000,0000.00000000,0000.00000000
P00082=0643.00421594,0054.60425973,0908.48000000,0180.00000000,0000.00000000,0000.00000000
P00083=0644.20854609,0052.51829873,0908.48000000,0180.00000000,0000.00000000,0000.00000000
P00084=0645.50012471,0050.28121894,0908.48000000,0180.00000000,0000.00000000,0000.00000000
P00085=0646.87150155,0047.90592458,0908.48000000,0180.00000000,0000.00000000,0000.00000000
P00086=0648.31313034,0045.40895027,0908.48000000,0180.00000000,0000.00000000,0000.00000000
P00087=0649.81354311,0042.81015911,0908.48000000,0180.00000000,0000.00000000,0000.00000000
P00088=0651.35961162,0040.13228990,0908.48000000,0180.00000000,0000.00000000,0000.00000000
P00089=0652.93688651,0037.40036966,0908.48000000,0180.00000000,0000.00000000,0000.00000000
P00090=0654.53000000,0034.64101615,0908.48000000,0180.00000000,0000.00000000,0000.00000000
P00091=0656.12311349,0031.88166264,0908.48000000,0180.00000000,0000.00000000,0000.00000000
P00092=0657.70038838,0029.14974240,0908.48000000,0180.00000000,0000.00000000,0000.00000000
P00093=0659.24645689,0026.47187319,0908.48000000,0180.00000000,0000.00000000,0000.00000000
P00094=0660.74686966,0023.87308203,0908.48000000,0180.00000000,0000.00000000,0000.00000000
P00095=0662.18849845,0021.37610772,0908.48000000,0180.00000000,0000.00000000,0000.00000000
P00096=0663.55987529,0019.00081336,0908.48000000,0180.00000000,0000.00000000,0000.00000000
P00097=0664.85145391,0016.76373357,0908.48000000,0180.00000000,0000.00000000,0000.00000000
P00098=0666.05578406,0014.67777257,0908.48000000,0180.00000000,0000.00000000,0000.00000000
P00099=0667.16759499,0012.75205955,0908.48000000,0180.00000000,0000.00000000,0000.00000000
P00100=0668.18378984,0010.99195843,0908.48000000,0180.00000000,0000.00000000,0000.00000000
P00101=0669.10335756,0009.39922042,0908.48000000,0180.00000000,0000.00000000,0000.00000000
P00102=0669.92721319,0007.97226061,0908.48000000,0180.00000000,0000.00000000,0000.00000000
P00103=0670.65798062,0006.70653430,0908.48000000,0180.00000000,0000.00000000,0000.00000000
P00104=0671.29973363,0005.59498547,0908.48000000,0180.00000000,0000.00000000,0000.00000000
P00105=0671.85771195,0004.62853868,0908.48000000,0180.00000000,0000.00000000,0000.00000000
P00106=0672.33802833,0003.79660630,0908.48000000,0180.00000000,0000.00000000,0000.00000000
P00107=0672.74738149,0003.08758583,0908.48000000,0180.00000000,0000.00000000,0000.00000000
P00108=0673.09278724,0002.48932553,0908.48000000,0180.00000000,0000.00000000,0000.00000000
P00109=0673.38133761,0001.98954162,0908.48000000,0180.00000000,0000.00000000,0000.00000000
P00110=0673.61999472,0001.57617538,0908.48000000,0180.00000000,0000.00000000,0000.00000000
P00111=0673.81542318,0001.23768336,0908.48000000,0180.00000000,0000.00000000,0000.00000000
P00112=0673.97386210,0000.96325910,0908.48000000,0180.00000000,0000.00000000,0000.00000000
P00113=0674.10103560,0000.74298814,0908.48000000,0180.00000000,0000.00000000,0000.00000000
P00114=0674.20209856,0000.56794195,0908.48000000,0180.00000000,0000.00000000,0000.00000000
P00115=0674.28161339,0000.43021823,0908.48000000,0180.00000000,0000.00000000,0000.00000000
P00116=0674.34355248,0000.32293658,0908.48000000,0180.00000000,0000.00000000,0000.00000000
P00117=0674.39132105,0000.24019899,0908.48000000,0180.00000000,0000.00000000,0000.00000000
P00118=0674.42779479,0000.17702462,0908.48000000,0180.00000000,0000.00000000,0000.00000000
P00119=0674.45536747,0000.12926734,0908.48000000,0180.00000000,0000.00000000,0000.00000000
P00120=0674.47600408,0000.09352368,0908.48000000,0180.00000000,0000.00000000,0000.00000000
//INST
///DATE 2017/03/31 08:11
///COMM PLAYINGTWOROBOTS
///ATTR SC,RW
///GROUP1 RB1
///GROUP2 RB2
NOP
DOUT OT#(15) ON
MOVL P00001 V=0003.4465852  +MOVL P00061 V=0003.4465852
MOVL P00002 V=0004.5592174  +MOVL P00062 V=0004.5592174
MOVL P00003 V=0005.9710711  +MOVL P00063 V=0005.9710711
MOVL P00004 V=0007.7423865  +MOVL P00064 V=0007.7423865
MOVL P00005 V=0009.9393530  +MOVL P00065 V=0009.9393530
MOVL P00006 V=0012.6328705  +MOVL P00066 V=0012.6328705
MOVL P00007 V=0015.8966875  +MOVL P00067 V=0015.8966875
MOVL P00008 V=0019.8048652  +MOVL P00068 V=0019.8048652
MOVL P00009 V=0024.4285569  +MOVL P00069 V=0024.4285569
MOVL P00010 V=0029.8321393  +MOVL P00070 V=0029.8321393
MOVL P00011 V=0036.0687965  +MOVL P00071 V=0036.0687965
MOVL P00012 V=0043.1757182  +MOVL P00072 V=0043.1757182
MOVL P00013 V=0051.1691447  +MOVL P00073 V=0051.1691447
MOVL P00014 V=0060.0395478  +MOVL P00074 V=0060.0395478
MOVL P00015 V=0069.7472898  +MOVL P00075 V=0069.7472898
MOVL P00016 V=0080.2191268  +MOVL P00076 V=0080.2191268
MOVL P00017 V=0091.3459282  +MOVL P00077 V=0091.3459282
MOVL P00018 V=0102.9819536  +MOVL P00078 V=0102.9819536
MOVL P00019 V=0114.9459649  +MOVL P00079 V=0114.9459649
MOVL P00020 V=0127.0243571  +MOVL P00080 V=0127.0243571
MOVL P00021 V=0138.9763662  +MOVL P00081 V=0138.9763662
MOVL P00022 V=0150.5412682  +MOVL P00082 V=0150.5412682
MOVL P00023 V=0161.4473276  +MOVL P00083 V=0161.4473276
MOVL P00024 V=0171.4221049  +MOVL P00084 V=0171.4221049
MOVL P00025 V=0180.2035983  +MOVL P00085 V=0180.2035983
MOVL P00026 V=0187.5515971  +MOVL P00086 V=0187.5515971
MOVL P00027 V=0193.2585637  +MOVL P00087 V=0193.2585637
MOVL P00028 V=0197.1593608  +MOVL P00088 V=0197.1593608
MOVL P00029 V=0199.1391864  +MOVL P00089 V=0199.1391864
MOVL P00030 V=0199.1391864  +MOVL P00090 V=0199.1391864
MOVL P00031 V=0197.1593608  +MOVL P00091 V=0197.1593608
MOVL P00032 V=0193.2585637  +MOVL P00092 V=0193.2585637
MOVL P00033 V=0187.5515971  +MOVL P00093 V=0187.5515971
MOVL P00034 V=0180.2035983  +MOVL P00094 V=0180.2035983
MOVL P00035 V=0171.4221049  +MOVL P00095 V=0171.4221049
MOVL P00036 V=0161.4473276  +MOVL P00096 V=0161.4473276
MOVL P00037 V=0150.5412682  +MOVL P00097 V=0150.5412682
MOVL P00038 V=0138.9763662  +MOVL P00098 V=0138.9763662
MOVL P00039 V=0127.0243571  +MOVL P00099 V=0127.0243571
MOVL P00040 V=0114.9459649  +MOVL P00100 V=0114.9459649
MOVL P00041 V=0102.9819536  +MOVL P00101 V=0102.9819536
MOVL P00042 V=0091.3459282  +MOVL P00102 V=0091.3459282
MOVL P00043 V=0080.2191268  +MOVL P00103 V=0080.2191268
MOVL P00044 V=0069.7472898  +MOVL P00104 V=0069.7472898
MOVL P00045 V=0060.0395478  +MOVL P00105 V=0060.0395478
MOVL P00046 V=0051.1691447  +MOVL P00106 V=0051.1691447
MOVL P00047 V=0043.1757182  +MOVL P00107 V=0043.1757182
MOVL P00048 V=0036.0687965  +MOVL P00108 V=0036.0687965
MOVL P00049 V=0029.8321393  +MOVL P00109 V=0029.8321393
MOVL P00050 V=0024.4285569  +MOVL P00110 V=0024.4285569
MOVL P00051 V=0019.8048652  +MOVL P00111 V=0019.8048652
MOVL P00052 V=0015.8966875  +MOVL P00112 V=0015.8966875
MOVL P00053 V=0012.6328705  +MOVL P00113 V=0012.6328705
MOVL P00054 V=0009.9393530  +MOVL P00114 V=0009.9393530
MOVL P00055 V=0007.7423865  +MOVL P00115 V=0007.7423865
MOVL P00056 V=0005.9710711  +MOVL P00116 V=0005.9710711
MOVL P00057 V=0004.5592174  +MOVL P00117 V=0004.5592174
MOVL P00058 V=0003.4465852  +MOVL P00118 V=0003.4465852
MOVL P00059 V=0002.5795763  +MOVL P00119 V=0002.5795763
MOVL P00060 V=0002.5795763  +MOVL P00120 V=0002.5795763
DOUT OT#(15) OFF
END
