/JOB
//NAME GAUSSIANMOVING2
//POS
///NPOS 0,0,0,61,0,0
///TOOL 0
///POSTYPE ROBOT
///RECTAN
///RCONF 0,0,0,0,0,0,0,0,0,0,0,0,0,0,0,0,0,0,0,0,0,0,0,0
P00000=10.000,0.000,0.000,0.0000,0.0000,0.0000
///POSTYPE BASE
///TOOL0
P00001=0356.21147744,-0099.39996914,0483.09500000,0000.00000000,0000.00400000,0180.00000000,
P00002=0356.15387646,-0099.33132296,0483.09500000,0000.00000000,0000.00400000,0180.00000000,
P00003=0356.07768064,-0099.24051632,0483.09500000,0000.00000000,0000.00400000,0180.00000000,
P00004=0355.97788925,-0099.12158957,0483.09500000,0000.00000000,0000.00400000,0180.00000000,
P00005=0355.84849479,-0098.96738326,0483.09500000,0000.00000000,0000.00400000,0180.00000000,
P00006=0355.68238357,-0098.76941962,0483.09500000,0000.00000000,0000.00400000,0180.00000000,
P00007=0355.47125700,-0098.51780877,0483.09500000,0000.00000000,0000.00400000,0180.00000000,
P00008=0355.20558397,-0098.20119197,0483.09500000,0000.00000000,0000.00400000,0180.00000000,
P00009=0354.87459559,-0097.80673539,0483.09500000,0000.00000000,0000.00400000,0180.00000000,
P00010=0354.46633388,-0097.32018802,0483.09500000,0000.00000000,0000.00400000,0180.00000000,
P00011=0353.96776491,-0096.72601667,0483.09500000,0000.00000000,0000.00400000,0180.00000000,
P00012=0353.36496595,-0096.00762884,0483.09500000,0000.00000000,0000.00400000,0180.00000000,
P00013=0352.64339271,-0095.14769134,0483.09500000,0000.00000000,0000.00400000,0180.00000000,
P00014=0351.78822952,-0094.12854753,0483.09500000,0000.00000000,0000.00400000,0180.00000000,
P00015=0350.78481990,-0092.93273052,0483.09500000,0000.00000000,0000.00400000,0180.00000000,
P00016=0349.61916987,-0091.54356290,0483.09500000,0000.00000000,0000.00400000,0180.00000000,
P00017=0348.27850949,-0089.94582608,0483.09500000,0000.00000000,0000.00400000,0180.00000000,
P00018=0346.75189268,-0088.12647502,0483.09500000,0000.00000000,0000.00400000,0180.00000000,
P00019=0345.03080907,-0086.07536743,0483.09500000,0000.00000000,0000.00400000,0180.00000000,
P00020=0343.10977717,-0083.78597077,0483.09500000,0000.00000000,0000.00400000,0180.00000000,
P00021=0340.98688542,-0081.25600690,0483.09500000,0000.00000000,0000.00400000,0180.00000000,
P00022=0338.66424598,-0078.48799300,0483.09500000,0000.00000000,0000.00400000,0180.00000000,
P00023=0336.14832837,-0075.48963915,0483.09500000,0000.00000000,0000.00400000,0180.00000000,
P00024=0333.45014348,-0072.27406761,0483.09500000,0000.00000000,0000.00400000,0180.00000000,
P00025=0330.58525535,-0068.85982689,0483.09500000,0000.00000000,0000.00400000,0180.00000000,
P00026=0327.57360670,-0065.27068380,0483.09500000,0000.00000000,0000.00400000,0180.00000000,
P00027=0324.43915479,-0061.53518947,0483.09500000,0000.00000000,0000.00400000,0180.00000000,
P00028=0321.20932532,-0057.68602860,0483.09500000,0000.00000000,0000.00400000,0180.00000000,
P00029=0317.91430387,-0053.75917495,0483.09500000,0000.00000000,0000.00400000,0180.00000000,
P00030=0314.58619463,-0049.79288880,0483.09500000,0000.00000000,0000.00400000,0180.00000000,
P00031=0311.25808539,-0045.82660266,0483.09500000,0000.00000000,0000.00400000,0180.00000000,
P00032=0307.96306394,-0041.89974901,0483.09500000,0000.00000000,0000.00400000,0180.00000000,
P00033=0304.73323447,-0038.05058814,0483.09500000,0000.00000000,0000.00400000,0180.00000000,
P00034=0301.59878256,-0034.31509381,0483.09500000,0000.00000000,0000.00400000,0180.00000000,
P00035=0298.58713391,-0030.72595071,0483.09500000,0000.00000000,0000.00400000,0180.00000000,
P00036=0295.72224578,-0027.31170999,0483.09500000,0000.00000000,0000.00400000,0180.00000000,
P00037=0293.02406089,-0024.09613846,0483.09500000,0000.00000000,0000.00400000,0180.00000000,
P00038=0290.50814328,-0021.09778461,0483.09500000,0000.00000000,0000.00400000,0180.00000000,
P00039=0288.18550384,-0018.32977071,0483.09500000,0000.00000000,0000.00400000,0180.00000000,
P00040=0286.06261209,-0015.79980683,0483.09500000,0000.00000000,0000.00400000,0180.00000000,
P00041=0284.14158019,-0013.51041017,0483.09500000,0000.00000000,0000.00400000,0180.00000000,
P00042=0282.42049658,-0011.45930259,0483.09500000,0000.00000000,0000.00400000,0180.00000000,
P00043=0280.89387977,-0009.63995153,0483.09500000,0000.00000000,0000.00400000,0180.00000000,
P00044=0279.55321939,-0008.04221471,0483.09500000,0000.00000000,0000.00400000,0180.00000000,
P00045=0278.38756936,-0006.65304709,0483.09500000,0000.00000000,0000.00400000,0180.00000000,
P00046=0277.38415974,-0005.45723008,0483.09500000,0000.00000000,0000.00400000,0180.00000000,
P00047=0276.52899655,-0004.43808626,0483.09500000,0000.00000000,0000.00400000,0180.00000000,
P00048=0275.80742331,-0003.57814877,0483.09500000,0000.00000000,0000.00400000,0180.00000000,
P00049=0275.20462435,-0002.85976094,0483.09500000,0000.00000000,0000.00400000,0180.00000000,
P00050=0274.70605538,-0002.26558958,0483.09500000,0000.00000000,0000.00400000,0180.00000000,
P00051=0274.29779366,-0001.77904221,0483.09500000,0000.00000000,0000.00400000,0180.00000000,
P00052=0273.96680529,-0001.38458563,0483.09500000,0000.00000000,0000.00400000,0180.00000000,
P00053=0273.70113226,-0001.06796884,0483.09500000,0000.00000000,0000.00400000,0180.00000000,
P00054=0273.49000569,-0000.81635799,0483.09500000,0000.00000000,0000.00400000,0180.00000000,
P00055=0273.32389447,-0000.61839435,0483.09500000,0000.00000000,0000.00400000,0180.00000000,
P00056=0273.19450001,-0000.46418803,0483.09500000,0000.00000000,0000.00400000,0180.00000000,
P00057=0273.09470861,-0000.34526128,0483.09500000,0000.00000000,0000.00400000,0180.00000000,
P00058=0273.01851280,-0000.25445464,0483.09500000,0000.00000000,0000.00400000,0180.00000000,
P00059=0272.96091182,-0000.18580847,0483.09500000,0000.00000000,0000.00400000,0180.00000000,
P00060=0272.91780070,-0000.13443065,0483.09500000,0000.00000000,0000.00400000,0180.00000000,
//INST
///DATE 2017/03/31 08:11
///ATTR SC,RW
///GROUP1 RB1
NOP
MOVL P00001 V=0005.6007009
MOVL P00002 V=0007.4087282
MOVL P00003 V=0009.7029905
MOVL P00004 V=0012.5813781
MOVL P00005 V=0016.1514486
MOVL P00006 V=0020.5284145
MOVL P00007 V=0025.8321171
MOVL P00008 V=0032.1829060
MOVL P00009 V=0039.6964050
MOVL P00010 V=0048.4772264
MOVL P00011 V=0058.6117943
MOVL P00012 V=0070.1605421
MOVL P00013 V=0083.1498601
MOVL P00014 V=0097.5642653
MOVL P00015 V=0113.3393460
MOVL P00016 V=0130.3560810
MOVL P00017 V=0148.4371333
MOVL P00018 V=0167.3456746
MOVL P00019 V=0186.7871930
MOVL P00020 V=0206.4145802
MOVL P00021 V=0225.8365950
MOVL P00022 V=0244.6295608
MOVL P00023 V=0262.3519074
MOVL P00024 V=0278.5609204
MOVL P00025 V=0292.8308473
MOVL P00026 V=0304.7713453
MOVL P00027 V=0314.0451661
MOVL P00028 V=0320.3839613
MOVL P00029 V=0323.6011779
MOVL P00030 V=0323.6011779
MOVL P00031 V=0320.3839613
MOVL P00032 V=0314.0451661
MOVL P00033 V=0304.7713453
MOVL P00034 V=0292.8308473
MOVL P00035 V=0278.5609204
MOVL P00036 V=0262.3519074
MOVL P00037 V=0244.6295608
MOVL P00038 V=0225.8365950
MOVL P00039 V=0206.4145802
MOVL P00040 V=0186.7871930
MOVL P00041 V=0167.3456746
MOVL P00042 V=0148.4371333
MOVL P00043 V=0130.3560810
MOVL P00044 V=0113.3393460
MOVL P00045 V=0097.5642653
MOVL P00046 V=0083.1498601
MOVL P00047 V=0070.1605421
MOVL P00048 V=0058.6117943
MOVL P00049 V=0048.4772264
MOVL P00050 V=0039.6964050
MOVL P00051 V=0032.1829060
MOVL P00052 V=0025.8321171
MOVL P00053 V=0020.5284145
MOVL P00054 V=0016.1514486
MOVL P00055 V=0012.5813781
MOVL P00056 V=0009.7029905
MOVL P00057 V=0007.4087282
MOVL P00058 V=0005.6007009
MOVL P00059 V=0004.1918116
MOVL P00060 V=0004.1918116
END
