/JOB
//NAME GAUSSIANMOVING2
//POS
///NPOS 0,0,0,121,0,0
///TOOL 0
///POSTYPE ROBOT
///RECTAN
///RCONF 0,0,0,0,0,0,0,0,0,0,0,0,0,0,0,0,0,0,0,0,0,0,0,0
P00000=10.000,0.000,0.000,0.0000,0.0000,0.0000
///POSTYPE BASE
P00001=0368.27652368,0004.08000408,0538.85800000,-0000.57780000,-0000.47430000,-0050.70270000,
P00002=0368.31226734,0004.05936747,0538.85800000,-0000.57780000,-0000.47430000,-0050.70270000,
P00003=0368.36002462,0004.03179479,0538.85800000,-0000.57780000,-0000.47430000,-0050.70270000,
P00004=0368.42319899,0003.99532105,0538.85800000,-0000.57780000,-0000.47430000,-0050.70270000,
P00005=0368.50593658,0003.94755248,0538.85800000,-0000.57780000,-0000.47430000,-0050.70270000,
P00006=0368.61321823,0003.88561339,0538.85800000,-0000.57780000,-0000.47430000,-0050.70270000,
P00007=0368.75094195,0003.80609856,0538.85800000,-0000.57780000,-0000.47430000,-0050.70270000,
P00008=0368.92598814,0003.70503560,0538.85800000,-0000.57780000,-0000.47430000,-0050.70270000,
P00009=0369.14625910,0003.57786210,0538.85800000,-0000.57780000,-0000.47430000,-0050.70270000,
P00010=0369.42068336,0003.41942318,0538.85800000,-0000.57780000,-0000.47430000,-0050.70270000,
P00011=0369.75917538,0003.22399472,0538.85800000,-0000.57780000,-0000.47430000,-0050.70270000,
P00012=0370.17254162,0002.98533761,0538.85800000,-0000.57780000,-0000.47430000,-0050.70270000,
P00013=0370.67232553,0002.69678724,0538.85800000,-0000.57780000,-0000.47430000,-0050.70270000,
P00014=0371.27058583,0002.35138149,0538.85800000,-0000.57780000,-0000.47430000,-0050.70270000,
P00015=0371.97960630,0001.94202833,0538.85800000,-0000.57780000,-0000.47430000,-0050.70270000,
P00016=0372.81153868,0001.46171195,0538.85800000,-0000.57780000,-0000.47430000,-0050.70270000,
P00017=0373.77798547,0000.90373363,0538.85800000,-0000.57780000,-0000.47430000,-0050.70270000,
P00018=0374.88953430,0000.26198062,0538.85800000,-0000.57780000,-0000.47430000,-0050.70270000,
P00019=0376.15526061,-0000.46878681,0538.85800000,-0000.57780000,-0000.47430000,-0050.70270000,
P00020=0377.58222042,-0001.29264244,0538.85800000,-0000.57780000,-0000.47430000,-0050.70270000,
P00021=0379.17495843,-0002.21221016,0538.85800000,-0000.57780000,-0000.47430000,-0050.70270000,
P00022=0380.93505955,-0003.22840501,0538.85800000,-0000.57780000,-0000.47430000,-0050.70270000,
P00023=0382.86077257,-0004.34021594,0538.85800000,-0000.57780000,-0000.47430000,-0050.70270000,
P00024=0384.94673357,-0005.54454609,0538.85800000,-0000.57780000,-0000.47430000,-0050.70270000,
P00025=0387.18381336,-0006.83612471,0538.85800000,-0000.57780000,-0000.47430000,-0050.70270000,
P00026=0389.55910772,-0008.20750155,0538.85800000,-0000.57780000,-0000.47430000,-0050.70270000,
P00027=0392.05608203,-0009.64913034,0538.85800000,-0000.57780000,-0000.47430000,-0050.70270000,
P00028=0394.65487319,-0011.14954311,0538.85800000,-0000.57780000,-0000.47430000,-0050.70270000,
P00029=0397.33274240,-0012.69561162,0538.85800000,-0000.57780000,-0000.47430000,-0050.70270000,
P00030=0400.06466264,-0014.27288651,0538.85800000,-0000.57780000,-0000.47430000,-0050.70270000,
P00031=0402.82401615,-0015.86600000,0538.85800000,-0000.57780000,-0000.47430000,-0050.70270000,
P00032=0405.58336966,-0017.45911349,0538.85800000,-0000.57780000,-0000.47430000,-0050.70270000,
P00033=0408.31528990,-0019.03638838,0538.85800000,-0000.57780000,-0000.47430000,-0050.70270000,
P00034=0410.99315911,-0020.58245689,0538.85800000,-0000.57780000,-0000.47430000,-0050.70270000,
P00035=0413.59195027,-0022.08286966,0538.85800000,-0000.57780000,-0000.47430000,-0050.70270000,
P00036=0416.08892458,-0023.52449845,0538.85800000,-0000.57780000,-0000.47430000,-0050.70270000,
P00037=0418.46421894,-0024.89587529,0538.85800000,-0000.57780000,-0000.47430000,-0050.70270000,
P00038=0420.70129873,-0026.18745391,0538.85800000,-0000.57780000,-0000.47430000,-0050.70270000,
P00039=0422.78725973,-0027.39178406,0538.85800000,-0000.57780000,-0000.47430000,-0050.70270000,
P00040=0424.71297275,-0028.50359499,0538.85800000,-0000.57780000,-0000.47430000,-0050.70270000,
P00041=0426.47307387,-0029.51978984,0538.85800000,-0000.57780000,-0000.47430000,-0050.70270000,
P00042=0428.06581189,-0030.43935756,0538.85800000,-0000.57780000,-0000.47430000,-0050.70270000,
P00043=0429.49277169,-0031.26321319,0538.85800000,-0000.57780000,-0000.47430000,-0050.70270000,
P00044=0430.75849800,-0031.99398062,0538.85800000,-0000.57780000,-0000.47430000,-0050.70270000,
P00045=0431.87004683,-0032.63573363,0538.85800000,-0000.57780000,-0000.47430000,-0050.70270000,
P00046=0432.83649363,-0033.19371195,0538.85800000,-0000.57780000,-0000.47430000,-0050.70270000,
P00047=0433.66842601,-0033.67402833,0538.85800000,-0000.57780000,-0000.47430000,-0050.70270000,
P00048=0434.37744647,-0034.08338149,0538.85800000,-0000.57780000,-0000.47430000,-0050.70270000,
P00049=0434.97570677,-0034.42878724,0538.85800000,-0000.57780000,-0000.47430000,-0050.70270000,
P00050=0435.47549068,-0034.71733761,0538.85800000,-0000.57780000,-0000.47430000,-0050.70270000,
P00051=0435.88885693,-0034.95599472,0538.85800000,-0000.57780000,-0000.47430000,-0050.70270000,
P00052=0436.22734894,-0035.15142318,0538.85800000,-0000.57780000,-0000.47430000,-0050.70270000,
P00053=0436.50177320,-0035.30986210,0538.85800000,-0000.57780000,-0000.47430000,-0050.70270000,
P00054=0436.72204417,-0035.43703560,0538.85800000,-0000.57780000,-0000.47430000,-0050.70270000,
P00055=0436.89709035,-0035.53809856,0538.85800000,-0000.57780000,-0000.47430000,-0050.70270000,
P00056=0437.03481407,-0035.61761339,0538.85800000,-0000.57780000,-0000.47430000,-0050.70270000,
P00057=0437.14209572,-0035.67955248,0538.85800000,-0000.57780000,-0000.47430000,-0050.70270000,
P00058=0437.22483331,-0035.72732105,0538.85800000,-0000.57780000,-0000.47430000,-0050.70270000,
P00059=0437.28800768,-0035.76379479,0538.85800000,-0000.57780000,-0000.47430000,-0050.70270000,
P00060=0437.33576497,-0035.79136747,0538.85800000,-0000.57780000,-0000.47430000,-0050.70270000,
P00061=0303.09047632,0000.67699592,0474.03100000,-0000.22600000,-0000.81470000,-0160.29600000
P00062=0303.05473266,0000.69763253,0474.03100000,-0000.22600000,-0000.81470000,-0160.29600000
P00063=0303.00697538,0000.72520521,0474.03100000,-0000.22600000,-0000.81470000,-0160.29600000
P00064=0302.94380101,0000.76167895,0474.03100000,-0000.22600000,-0000.81470000,-0160.29600000
P00065=0302.86106342,0000.80944752,0474.03100000,-0000.22600000,-0000.81470000,-0160.29600000
P00066=0302.75378177,0000.87138661,0474.03100000,-0000.22600000,-0000.81470000,-0160.29600000
P00067=0302.61605805,0000.95090144,0474.03100000,-0000.22600000,-0000.81470000,-0160.29600000
P00068=0302.44101186,0001.05196440,0474.03100000,-0000.22600000,-0000.81470000,-0160.29600000
P00069=0302.22074090,0001.17913790,0474.03100000,-0000.22600000,-0000.81470000,-0160.29600000
P00070=0301.94631664,0001.33757682,0474.03100000,-0000.22600000,-0000.81470000,-0160.29600000
P00071=0301.60782462,0001.53300528,0474.03100000,-0000.22600000,-0000.81470000,-0160.29600000
P00072=0301.19445838,0001.77166239,0474.03100000,-0000.22600000,-0000.81470000,-0160.29600000
P00073=0300.69467447,0002.06021276,0474.03100000,-0000.22600000,-0000.81470000,-0160.29600000
P00074=0300.09641417,0002.40561851,0474.03100000,-0000.22600000,-0000.81470000,-0160.29600000
P00075=0299.38739370,0002.81497167,0474.03100000,-0000.22600000,-0000.81470000,-0160.29600000
P00076=0298.55546132,0003.29528805,0474.03100000,-0000.22600000,-0000.81470000,-0160.29600000
P00077=0297.58901453,0003.85326637,0474.03100000,-0000.22600000,-0000.81470000,-0160.29600000
P00078=0296.47746570,0004.49501938,0474.03100000,-0000.22600000,-0000.81470000,-0160.29600000
P00079=0295.21173939,0005.22578681,0474.03100000,-0000.22600000,-0000.81470000,-0160.29600000
P00080=0293.78477958,0006.04964244,0474.03100000,-0000.22600000,-0000.81470000,-0160.29600000
P00081=0292.19204157,0006.96921016,0474.03100000,-0000.22600000,-0000.81470000,-0160.29600000
P00082=0290.43194045,0007.98540501,0474.03100000,-0000.22600000,-0000.81470000,-0160.29600000
P00083=0288.50622743,0009.09721594,0474.03100000,-0000.22600000,-0000.81470000,-0160.29600000
P00084=0286.42026643,0010.30154609,0474.03100000,-0000.22600000,-0000.81470000,-0160.29600000
P00085=0284.18318664,0011.59312471,0474.03100000,-0000.22600000,-0000.81470000,-0160.29600000
P00086=0281.80789228,0012.96450155,0474.03100000,-0000.22600000,-0000.81470000,-0160.29600000
P00087=0279.31091797,0014.40613034,0474.03100000,-0000.22600000,-0000.81470000,-0160.29600000
P00088=0276.71212681,0015.90654311,0474.03100000,-0000.22600000,-0000.81470000,-0160.29600000
P00089=0274.03425760,0017.45261162,0474.03100000,-0000.22600000,-0000.81470000,-0160.29600000
P00090=0271.30233736,0019.02988651,0474.03100000,-0000.22600000,-0000.81470000,-0160.29600000
P00091=0268.54298385,0020.62300000,0474.03100000,-0000.22600000,-0000.81470000,-0160.29600000
P00092=0265.78363034,0022.21611349,0474.03100000,-0000.22600000,-0000.81470000,-0160.29600000
P00093=0263.05171010,0023.79338838,0474.03100000,-0000.22600000,-0000.81470000,-0160.29600000
P00094=0260.37384089,0025.33945689,0474.03100000,-0000.22600000,-0000.81470000,-0160.29600000
P00095=0257.77504973,0026.83986966,0474.03100000,-0000.22600000,-0000.81470000,-0160.29600000
P00096=0255.27807542,0028.28149845,0474.03100000,-0000.22600000,-0000.81470000,-0160.29600000
P00097=0252.90278106,0029.65287529,0474.03100000,-0000.22600000,-0000.81470000,-0160.29600000
P00098=0250.66570127,0030.94445391,0474.03100000,-0000.22600000,-0000.81470000,-0160.29600000
P00099=0248.57974027,0032.14878406,0474.03100000,-0000.22600000,-0000.81470000,-0160.29600000
P00100=0246.65402725,0033.26059499,0474.03100000,-0000.22600000,-0000.81470000,-0160.29600000
P00101=0244.89392613,0034.27678984,0474.03100000,-0000.22600000,-0000.81470000,-0160.29600000
P00102=0243.30118811,0035.19635756,0474.03100000,-0000.22600000,-0000.81470000,-0160.29600000
P00103=0241.87422831,0036.02021319,0474.03100000,-0000.22600000,-0000.81470000,-0160.29600000
P00104=0240.60850200,0036.75098062,0474.03100000,-0000.22600000,-0000.81470000,-0160.29600000
P00105=0239.49695317,0037.39273363,0474.03100000,-0000.22600000,-0000.81470000,-0160.29600000
P00106=0238.53050637,0037.95071195,0474.03100000,-0000.22600000,-0000.81470000,-0160.29600000
P00107=0237.69857399,0038.43102833,0474.03100000,-0000.22600000,-0000.81470000,-0160.29600000
P00108=0236.98955353,0038.84038149,0474.03100000,-0000.22600000,-0000.81470000,-0160.29600000
P00109=0236.39129323,0039.18578724,0474.03100000,-0000.22600000,-0000.81470000,-0160.29600000
P00110=0235.89150932,0039.47433761,0474.03100000,-0000.22600000,-0000.81470000,-0160.29600000
P00111=0235.47814307,0039.71299472,0474.03100000,-0000.22600000,-0000.81470000,-0160.29600000
P00112=0235.13965106,0039.90842318,0474.03100000,-0000.22600000,-0000.81470000,-0160.29600000
P00113=0234.86522680,0040.06686210,0474.03100000,-0000.22600000,-0000.81470000,-0160.29600000
P00114=0234.64495583,0040.19403560,0474.03100000,-0000.22600000,-0000.81470000,-0160.29600000
P00115=0234.46990965,0040.29509856,0474.03100000,-0000.22600000,-0000.81470000,-0160.29600000
P00116=0234.33218593,0040.37461339,0474.03100000,-0000.22600000,-0000.81470000,-0160.29600000
P00117=0234.22490428,0040.43655248,0474.03100000,-0000.22600000,-0000.81470000,-0160.29600000
P00118=0234.14216669,0040.48432105,0474.03100000,-0000.22600000,-0000.81470000,-0160.29600000
P00119=0234.07899232,0040.52079479,0474.03100000,-0000.22600000,-0000.81470000,-0160.29600000
P00120=0234.03123503,0040.54836747,0474.03100000,-0000.22600000,-0000.81470000,-0160.29600000
//INST
///DATE 2017/03/31 08:11
///COMM PLAYINGTWOROBOTS
///ATTR SC,RW
///GROUP1 RB1
///GROUP2 RB2
NOP
MOVL P00001 V=0002.5795763  +MOVL P00061 V=0002.5795763
MOVL P00002 V=0003.4465852  +MOVL P00062 V=0003.4465852
MOVL P00003 V=0004.5592174  +MOVL P00063 V=0004.5592174
MOVL P00004 V=0005.9710711  +MOVL P00064 V=0005.9710711
MOVL P00005 V=0007.7423865  +MOVL P00065 V=0007.7423865
MOVL P00006 V=0009.9393530  +MOVL P00066 V=0009.9393530
MOVL P00007 V=0012.6328705  +MOVL P00067 V=0012.6328705
MOVL P00008 V=0015.8966875  +MOVL P00068 V=0015.8966875
MOVL P00009 V=0019.8048652  +MOVL P00069 V=0019.8048652
MOVL P00010 V=0024.4285569  +MOVL P00070 V=0024.4285569
MOVL P00011 V=0029.8321393  +MOVL P00071 V=0029.8321393
MOVL P00012 V=0036.0687965  +MOVL P00072 V=0036.0687965
MOVL P00013 V=0043.1757182  +MOVL P00073 V=0043.1757182
MOVL P00014 V=0051.1691447  +MOVL P00074 V=0051.1691447
MOVL P00015 V=0060.0395478  +MOVL P00075 V=0060.0395478
MOVL P00016 V=0069.7472898  +MOVL P00076 V=0069.7472898
MOVL P00017 V=0080.2191268  +MOVL P00077 V=0080.2191268
MOVL P00018 V=0091.3459282  +MOVL P00078 V=0091.3459282
MOVL P00019 V=0102.9819536  +MOVL P00079 V=0102.9819536
MOVL P00020 V=0114.9459649  +MOVL P00080 V=0114.9459649
MOVL P00021 V=0127.0243571  +MOVL P00081 V=0127.0243571
MOVL P00022 V=0138.9763662  +MOVL P00082 V=0138.9763662
MOVL P00023 V=0150.5412682  +MOVL P00083 V=0150.5412682
MOVL P00024 V=0161.4473276  +MOVL P00084 V=0161.4473276
MOVL P00025 V=0171.4221049  +MOVL P00085 V=0171.4221049
MOVL P00026 V=0180.2035983  +MOVL P00086 V=0180.2035983
MOVL P00027 V=0187.5515971  +MOVL P00087 V=0187.5515971
MOVL P00028 V=0193.2585637  +MOVL P00088 V=0193.2585637
MOVL P00029 V=0197.1593608  +MOVL P00089 V=0197.1593608
MOVL P00030 V=0199.1391864  +MOVL P00090 V=0199.1391864
MOVL P00031 V=0199.1391864  +MOVL P00091 V=0199.1391864
MOVL P00032 V=0197.1593608  +MOVL P00092 V=0197.1593608
MOVL P00033 V=0193.2585637  +MOVL P00093 V=0193.2585637
MOVL P00034 V=0187.5515971  +MOVL P00094 V=0187.5515971
MOVL P00035 V=0180.2035983  +MOVL P00095 V=0180.2035983
MOVL P00036 V=0171.4221049  +MOVL P00096 V=0171.4221049
MOVL P00037 V=0161.4473276  +MOVL P00097 V=0161.4473276
MOVL P00038 V=0150.5412682  +MOVL P00098 V=0150.5412682
MOVL P00039 V=0138.9763662  +MOVL P00099 V=0138.9763662
MOVL P00040 V=0127.0243571  +MOVL P00100 V=0127.0243571
MOVL P00041 V=0114.9459649  +MOVL P00101 V=0114.9459649
MOVL P00042 V=0102.9819536  +MOVL P00102 V=0102.9819536
MOVL P00043 V=0091.3459282  +MOVL P00103 V=0091.3459282
MOVL P00044 V=0080.2191268  +MOVL P00104 V=0080.2191268
MOVL P00045 V=0069.7472898  +MOVL P00105 V=0069.7472898
MOVL P00046 V=0060.0395478  +MOVL P00106 V=0060.0395478
MOVL P00047 V=0051.1691447  +MOVL P00107 V=0051.1691447
MOVL P00048 V=0043.1757182  +MOVL P00108 V=0043.1757182
MOVL P00049 V=0036.0687965  +MOVL P00109 V=0036.0687965
MOVL P00050 V=0029.8321393  +MOVL P00110 V=0029.8321393
MOVL P00051 V=0024.4285569  +MOVL P00111 V=0024.4285569
MOVL P00052 V=0019.8048652  +MOVL P00112 V=0019.8048652
MOVL P00053 V=0015.8966875  +MOVL P00113 V=0015.8966875
MOVL P00054 V=0012.6328705  +MOVL P00114 V=0012.6328705
MOVL P00055 V=0009.9393530  +MOVL P00115 V=0009.9393530
MOVL P00056 V=0007.7423865  +MOVL P00116 V=0007.7423865
MOVL P00057 V=0005.9710711  +MOVL P00117 V=0005.9710711
MOVL P00058 V=0004.5592174  +MOVL P00118 V=0004.5592174
MOVL P00059 V=0003.4465852  +MOVL P00119 V=0003.4465852
MOVL P00060 V=0003.4465852  +MOVL P00120 V=0003.4465852
END
