/JOB
//NAME GAUSSIANMOVING2
//POS
///NPOS 0,0,0,61,0,0
///TOOL 0
///POSTYPE ROBOT
///RECTAN
///RCONF 0,0,0,0,0,0,0,0,0,0,0,0,0,0,0,0,0,0,0,0,0,0,0,0
P00000=10.000,0.000,0.000,0.0000,0.0000,0.0000
///POSTYPE BASE
///TOOL0
P00001=0347.84014638,0027.31055981,0483.09500000,0000.00000000,0000.00400000,0180.00000000,
P00002=0347.78832669,0027.29169898,0483.09500000,0000.00000000,0000.00400000,0180.00000000,
P00003=0347.71977849,0027.26674948,0483.09500000,0000.00000000,0000.00400000,0180.00000000,
P00004=0347.63000294,0027.23407385,0483.09500000,0000.00000000,0000.00400000,0180.00000000,
P00005=0347.51359553,0027.19170502,0483.09500000,0000.00000000,0000.00400000,0180.00000000,
P00006=0347.36415654,0027.13731367,0483.09500000,0000.00000000,0000.00400000,0180.00000000,
P00007=0347.17422030,0027.06818253,0483.09500000,0000.00000000,0000.00400000,0180.00000000,
P00008=0346.93521230,0026.98119074,0483.09500000,0000.00000000,0000.00400000,0180.00000000,
P00009=0346.63744453,0026.87281213,0483.09500000,0000.00000000,0000.00400000,0180.00000000,
P00010=0346.27015917,0026.73913119,0483.09500000,0000.00000000,0000.00400000,0180.00000000,
P00011=0345.82163051,0026.57588011,0483.09500000,0000.00000000,0000.00400000,0180.00000000,
P00012=0345.27933320,0026.37850003,0483.09500000,0000.00000000,0000.00400000,0180.00000000,
P00013=0344.63018274,0026.14222859,0483.09500000,0000.00000000,0000.00400000,0180.00000000,
P00014=0343.86085046,0025.86221454,0483.09500000,0000.00000000,0000.00400000,0180.00000000,
P00015=0342.95815094,0025.53365878,0483.09500000,0000.00000000,0000.00400000,0180.00000000,
P00016=0341.90949472,0025.15197913,0483.09500000,0000.00000000,0000.00400000,0180.00000000,
P00017=0340.70339358,0024.71299422,0483.09500000,0000.00000000,0000.00400000,0180.00000000,
P00018=0339.33000006,0024.21311986,0483.09500000,0000.00000000,0000.00400000,0180.00000000,
P00019=0337.78165795,0023.64956942,0483.09500000,0000.00000000,0000.00400000,0180.00000000,
P00020=0336.05343595,0023.02054805,0483.09500000,0000.00000000,0000.00400000,0180.00000000,
P00021=0334.14361434,0022.32542983,0483.09500000,0000.00000000,0000.00400000,0180.00000000,
P00022=0332.05409329,0021.56490636,0483.09500000,0000.00000000,0000.00400000,0180.00000000,
P00023=0329.79069298,0020.74109603,0483.09500000,0000.00000000,0000.00400000,0180.00000000,
P00024=0327.36331918,0019.85760421,0483.09500000,0000.00000000,0000.00400000,0180.00000000,
P00025=0324.78597379,0018.91952721,0483.09500000,0000.00000000,0000.00400000,0180.00000000,
P00026=0322.07659793,0017.93339504,0483.09500000,0000.00000000,0000.00400000,0180.00000000,
P00027=0319.25674430,0016.90705225,0483.09500000,0000.00000000,0000.00400000,0180.00000000,
P00028=0316.35108596,0015.84947911,0483.09500000,0000.00000000,0000.00400000,0180.00000000,
P00029=0313.38677881,0014.77055954,0483.09500000,0000.00000000,0000.00400000,0180.00000000,
P00030=0310.39270483,0013.68080573,0483.09500000,0000.00000000,0000.00400000,0180.00000000,
P00031=0307.39863085,0012.59105192,0483.09500000,0000.00000000,0000.00400000,0180.00000000,
P00032=0304.43432370,0011.51213236,0483.09500000,0000.00000000,0000.00400000,0180.00000000,
P00033=0301.52866536,0010.45455921,0483.09500000,0000.00000000,0000.00400000,0180.00000000,
P00034=0298.70881174,0009.42821643,0483.09500000,0000.00000000,0000.00400000,0180.00000000,
P00035=0295.99943587,0008.44208426,0483.09500000,0000.00000000,0000.00400000,0180.00000000,
P00036=0293.42209048,0007.50400725,0483.09500000,0000.00000000,0000.00400000,0180.00000000,
P00037=0290.99471668,0006.62051544,0483.09500000,0000.00000000,0000.00400000,0180.00000000,
P00038=0288.73131638,0005.79670510,0483.09500000,0000.00000000,0000.00400000,0180.00000000,
P00039=0286.64179533,0005.03618164,0483.09500000,0000.00000000,0000.00400000,0180.00000000,
P00040=0284.73197371,0004.34106342,0483.09500000,0000.00000000,0000.00400000,0180.00000000,
P00041=0283.00375171,0003.71204205,0483.09500000,0000.00000000,0000.00400000,0180.00000000,
P00042=0281.45540960,0003.14849161,0483.09500000,0000.00000000,0000.00400000,0180.00000000,
P00043=0280.08201608,0002.64861725,0483.09500000,0000.00000000,0000.00400000,0180.00000000,
P00044=0278.87591494,0002.20963233,0483.09500000,0000.00000000,0000.00400000,0180.00000000,
P00045=0277.82725872,0001.82795268,0483.09500000,0000.00000000,0000.00400000,0180.00000000,
P00046=0276.92455920,0001.49939693,0483.09500000,0000.00000000,0000.00400000,0180.00000000,
P00047=0276.15522692,0001.21938288,0483.09500000,0000.00000000,0000.00400000,0180.00000000,
P00048=0275.50607646,0000.98311143,0483.09500000,0000.00000000,0000.00400000,0180.00000000,
P00049=0274.96377915,0000.78573135,0483.09500000,0000.00000000,0000.00400000,0180.00000000,
P00050=0274.51525049,0000.62248027,0483.09500000,0000.00000000,0000.00400000,0180.00000000,
P00051=0274.14796513,0000.48879933,0483.09500000,0000.00000000,0000.00400000,0180.00000000,
P00052=0273.85019736,0000.38042073,0483.09500000,0000.00000000,0000.00400000,0180.00000000,
P00053=0273.61118936,0000.29342893,0483.09500000,0000.00000000,0000.00400000,0180.00000000,
P00054=0273.42125312,0000.22429779,0483.09500000,0000.00000000,0000.00400000,0180.00000000,
P00055=0273.27181413,0000.16990645,0483.09500000,0000.00000000,0000.00400000,0180.00000000,
P00056=0273.15540672,0000.12753762,0483.09500000,0000.00000000,0000.00400000,0180.00000000,
P00057=0273.06563118,0000.09486199,0483.09500000,0000.00000000,0000.00400000,0180.00000000,
P00058=0272.99708297,0000.06991248,0483.09500000,0000.00000000,0000.00400000,0180.00000000,
P00059=0272.94526328,0000.05105166,0483.09500000,0000.00000000,0000.00400000,0180.00000000,
P00060=0272.90647914,0000.03693539,0483.09500000,0000.00000000,0000.00400000,0180.00000000,
//INST
///DATE 2017/03/31 08:11
///ATTR SC,RW
///GROUP1 RB1
NOP
MOVL P00001 V=0003.4465852
MOVL P00002 V=0004.5592174
MOVL P00003 V=0005.9710711
MOVL P00004 V=0007.7423865
MOVL P00005 V=0009.9393530
MOVL P00006 V=0012.6328705
MOVL P00007 V=0015.8966875
MOVL P00008 V=0019.8048652
MOVL P00009 V=0024.4285569
MOVL P00010 V=0029.8321393
MOVL P00011 V=0036.0687965
MOVL P00012 V=0043.1757182
MOVL P00013 V=0051.1691447
MOVL P00014 V=0060.0395478
MOVL P00015 V=0069.7472898
MOVL P00016 V=0080.2191268
MOVL P00017 V=0091.3459282
MOVL P00018 V=0102.9819536
MOVL P00019 V=0114.9459649
MOVL P00020 V=0127.0243571
MOVL P00021 V=0138.9763662
MOVL P00022 V=0150.5412682
MOVL P00023 V=0161.4473276
MOVL P00024 V=0171.4221049
MOVL P00025 V=0180.2035983
MOVL P00026 V=0187.5515971
MOVL P00027 V=0193.2585637
MOVL P00028 V=0197.1593608
MOVL P00029 V=0199.1391864
MOVL P00030 V=0199.1391864
MOVL P00031 V=0197.1593608
MOVL P00032 V=0193.2585637
MOVL P00033 V=0187.5515971
MOVL P00034 V=0180.2035983
MOVL P00035 V=0171.4221049
MOVL P00036 V=0161.4473276
MOVL P00037 V=0150.5412682
MOVL P00038 V=0138.9763662
MOVL P00039 V=0127.0243571
MOVL P00040 V=0114.9459649
MOVL P00041 V=0102.9819536
MOVL P00042 V=0091.3459282
MOVL P00043 V=0080.2191268
MOVL P00044 V=0069.7472898
MOVL P00045 V=0060.0395478
MOVL P00046 V=0051.1691447
MOVL P00047 V=0043.1757182
MOVL P00048 V=0036.0687965
MOVL P00049 V=0029.8321393
MOVL P00050 V=0024.4285569
MOVL P00051 V=0019.8048652
MOVL P00052 V=0015.8966875
MOVL P00053 V=0012.6328705
MOVL P00054 V=0009.9393530
MOVL P00055 V=0007.7423865
MOVL P00056 V=0005.9710711
MOVL P00057 V=0004.5592174
MOVL P00058 V=0003.4465852
MOVL P00059 V=0002.5795763
MOVL P00060 V=0002.5795763
END
