/JOB
//NAME GAUSSIANMOVING2
//POS
///NPOS 0,0,0,121,0,0
///TOOL 0
///POSTYPE ROBOT
///RECTAN
///RCONF 0,0,0,0,0,0,0,0,0,0,0,0,0,0,0,0,0,0,0,0,0,0,0,0
P00000=10.000,0.000,0.000,0.0000,0.0000,0.0000
///POSTYPE BASE
P00001=0132.88231211,-0000.02395035,0578.51100000,0000.01900000,-0000.28450000,0180.00000000
P00002=0132.90077842,-0000.02889838,0578.51100000,0000.01900000,-0000.28450000,0180.00000000
P00003=0132.92217898,-0000.03463264,0578.51100000,0000.01900000,-0000.28450000,0180.00000000
P00004=0132.94691813,-0000.04126148,0578.51100000,0000.01900000,-0000.28450000,0180.00000000
P00005=0132.97544531,-0000.04890531,0578.51100000,0000.01900000,-0000.28450000,0180.00000000
P00006=0133.00825842,-0000.05769756,0578.51100000,0000.01900000,-0000.28450000,0180.00000000
P00007=0133.04590716,-0000.06778551,0578.51100000,0000.01900000,-0000.28450000,0180.00000000
P00008=0133.08899632,-0000.07933121,0578.51100000,0000.01900000,-0000.28450000,0180.00000000
P00009=0133.13818895,-0000.09251234,0578.51100000,0000.01900000,-0000.28450000,0180.00000000
P00010=0133.19420940,-0000.10752297,0578.51100000,0000.01900000,-0000.28450000,0180.00000000
P00011=0133.25784609,-0000.12457437,0578.51100000,0000.01900000,-0000.28450000,0180.00000000
P00012=0133.32995403,-0000.14389564,0578.51100000,0000.01900000,-0000.28450000,0180.00000000
P00013=0133.41145693,-0000.16573427,0578.51100000,0000.01900000,-0000.28450000,0180.00000000
P00014=0133.50334890,-0000.19035665,0578.51100000,0000.01900000,-0000.28450000,0180.00000000
P00015=0133.60669559,-0000.21804831,0578.51100000,0000.01900000,-0000.28450000,0180.00000000
P00016=0133.72263471,-0000.24911411,0578.51100000,0000.01900000,-0000.28450000,0180.00000000
P00017=0133.85237592,-0000.28387816,0578.51100000,0000.01900000,-0000.28450000,0180.00000000
P00018=0133.99719988,-0000.32268362,0578.51100000,0000.01900000,-0000.28450000,0180.00000000
P00019=0134.15845642,-0000.36589218,0578.51100000,0000.01900000,-0000.28450000,0180.00000000
P00020=0134.33756185,-0000.41388334,0578.51100000,0000.01900000,-0000.28450000,0180.00000000
P00021=0134.53599520,-0000.46705339,0578.51100000,0000.01900000,-0000.28450000,0180.00000000
P00022=0134.75529340,-0000.52581417,0578.51100000,0000.01900000,-0000.28450000,0180.00000000
P00023=0134.99704534,-0000.59059141,0578.51100000,0000.01900000,-0000.28450000,0180.00000000
P00024=0135.26288474,-0000.66182286,0578.51100000,0000.01900000,-0000.28450000,0180.00000000
P00025=0135.55448185,-0000.73995607,0578.51100000,0000.01900000,-0000.28450000,0180.00000000
P00026=0135.87353394,-0000.82544582,0578.51100000,0000.01900000,-0000.28450000,0180.00000000
P00027=0136.22175452,-0000.91875124,0578.51100000,0000.01900000,-0000.28450000,0180.00000000
P00028=0136.60086149,-0001.02033265,0578.51100000,0000.01900000,-0000.28450000,0180.00000000
P00029=0137.01256409,-0001.13064803,0578.51100000,0000.01900000,-0000.28450000,0180.00000000
P00030=0137.45854876,-0001.25014926,0578.51100000,0000.01900000,-0000.28450000,0180.00000000
P00031=0137.94046409,-0001.37927808,0578.51100000,0000.01900000,-0000.28450000,0180.00000000
P00032=0138.45990487,-0001.51846182,0578.51100000,0000.01900000,-0000.28450000,0180.00000000
P00033=0139.01839542,-0001.66810891,0578.51100000,0000.01900000,-0000.28450000,0180.00000000
P00034=0139.61737238,-0001.82860431,0578.51100000,0000.01900000,-0000.28450000,0180.00000000
P00035=0140.25816704,-0002.00030472,0578.51100000,0000.01900000,-0000.28450000,0180.00000000
P00036=0140.94198759,-0002.18353388,0578.51100000,0000.01900000,-0000.28450000,0180.00000000
P00037=0141.66990130,-0002.37857777,0578.51100000,0000.01900000,-0000.28450000,0180.00000000
P00038=0142.44281702,-0002.58567992,0578.51100000,0000.01900000,-0000.28450000,0180.00000000
P00039=0143.26146816,-0002.80503683,0578.51100000,0000.01900000,-0000.28450000,0180.00000000
P00040=0144.12639643,-0003.03679366,0578.51100000,0000.01900000,-0000.28450000,0180.00000000
P00041=0145.03793658,-0003.28104011,0578.51100000,0000.01900000,-0000.28450000,0180.00000000
P00042=0145.99620241,-0003.53780666,0578.51100000,0000.01900000,-0000.28450000,0180.00000000
P00043=0147.00107429,-0003.80706127,0578.51100000,0000.01900000,-0000.28450000,0180.00000000
P00044=0148.05218842,-0004.08870645,0578.51100000,0000.01900000,-0000.28450000,0180.00000000
P00045=0149.14892807,-0004.38257696,0578.51100000,0000.01900000,-0000.28450000,0180.00000000
P00046=0150.29041701,-0004.68843799,0578.51100000,0000.01900000,-0000.28450000,0180.00000000
P00047=0151.47551526,-0005.00598411,0578.51100000,0000.01900000,-0000.28450000,0180.00000000
P00048=0152.70281741,-0005.33483873,0578.51100000,0000.01900000,-0000.28450000,0180.00000000
P00049=0153.97065355,-0005.67455440,0578.51100000,0000.01900000,-0000.28450000,0180.00000000
P00050=0155.27709288,-0006.02461377,0578.51100000,0000.01900000,-0000.28450000,0180.00000000
P00051=0156.61995016,-0006.38443129,0578.51100000,0000.01900000,-0000.28450000,0180.00000000
P00052=0157.99679487,-0006.75335572,0578.51100000,0000.01900000,-0000.28450000,0180.00000000
P00053=0159.40496312,-0007.13067326,0578.51100000,0000.01900000,-0000.28450000,0180.00000000
P00054=0160.84157227,-0007.51561153,0578.51100000,0000.01900000,-0000.28450000,0180.00000000
P00055=0162.30353802,-0007.90734407,0578.51100000,0000.01900000,-0000.28450000,0180.00000000
P00056=0163.78759392,-0008.30499565,0578.51100000,0000.01900000,-0000.28450000,0180.00000000
P00057=0165.29031303,-0008.70764802,0578.51100000,0000.01900000,-0000.28450000,0180.00000000
P00058=0166.80813155,-0009.11434627,0578.51100000,0000.01900000,-0000.28450000,0180.00000000
P00059=0168.33737412,-0009.52410558,0578.51100000,0000.01900000,-0000.28450000,0180.00000000
P00060=0169.87428045,-0009.93591839,0578.51100000,0000.01900000,-0000.28450000,0180.00000000
P00061=0171.41503305,-0010.34876180,0578.51100000,0000.01900000,-0000.28450000,0180.00000000
P00062=0172.95578565,-0010.76160522,0578.51100000,0000.01900000,-0000.28450000,0180.00000000
P00063=0174.49269198,-0011.17341803,0578.51100000,0000.01900000,-0000.28450000,0180.00000000
P00064=0176.02193455,-0011.58317734,0578.51100000,0000.01900000,-0000.28450000,0180.00000000
P00065=0177.53975308,-0011.98987559,0578.51100000,0000.01900000,-0000.28450000,0180.00000000
P00066=0179.04247219,-0012.39252796,0578.51100000,0000.01900000,-0000.28450000,0180.00000000
P00067=0180.52652808,-0012.79017954,0578.51100000,0000.01900000,-0000.28450000,0180.00000000
P00068=0181.98849384,-0013.18191208,0578.51100000,0000.01900000,-0000.28450000,0180.00000000
P00069=0183.42510299,-0013.56685034,0578.51100000,0000.01900000,-0000.28450000,0180.00000000
P00070=0184.83327124,-0013.94416789,0578.51100000,0000.01900000,-0000.28450000,0180.00000000
P00071=0186.21011594,-0014.31309232,0578.51100000,0000.01900000,-0000.28450000,0180.00000000
P00072=0187.55297322,-0014.67290984,0578.51100000,0000.01900000,-0000.28450000,0180.00000000
P00073=0188.85941255,-0015.02296920,0578.51100000,0000.01900000,-0000.28450000,0180.00000000
P00074=0190.12724869,-0015.36268487,0578.51100000,0000.01900000,-0000.28450000,0180.00000000
P00075=0191.35455085,-0015.69153949,0578.51100000,0000.01900000,-0000.28450000,0180.00000000
P00076=0192.53964909,-0016.00908561,0578.51100000,0000.01900000,-0000.28450000,0180.00000000
P00077=0193.68113803,-0016.31494665,0578.51100000,0000.01900000,-0000.28450000,0180.00000000
P00078=0194.77787768,-0016.60881716,0578.51100000,0000.01900000,-0000.28450000,0180.00000000
P00079=0195.82899181,-0016.89046234,0578.51100000,0000.01900000,-0000.28450000,0180.00000000
P00080=0196.83386369,-0017.15971695,0578.51100000,0000.01900000,-0000.28450000,0180.00000000
P00081=0197.79212952,-0017.41648350,0578.51100000,0000.01900000,-0000.28450000,0180.00000000
P00082=0198.70366967,-0017.66072995,0578.51100000,0000.01900000,-0000.28450000,0180.00000000
P00083=0199.56859794,-0017.89248678,0578.51100000,0000.01900000,-0000.28450000,0180.00000000
P00084=0200.38724908,-0018.11184369,0578.51100000,0000.01900000,-0000.28450000,0180.00000000
P00085=0201.16016480,-0018.31894583,0578.51100000,0000.01900000,-0000.28450000,0180.00000000
P00086=0201.88807851,-0018.51398973,0578.51100000,0000.01900000,-0000.28450000,0180.00000000
P00087=0202.57189906,-0018.69721889,0578.51100000,0000.01900000,-0000.28450000,0180.00000000
P00088=0203.21269372,-0018.86891930,0578.51100000,0000.01900000,-0000.28450000,0180.00000000
P00089=0203.81167068,-0019.02941469,0578.51100000,0000.01900000,-0000.28450000,0180.00000000
P00090=0204.37016124,-0019.17906179,0578.51100000,0000.01900000,-0000.28450000,0180.00000000
P00091=0204.88960202,-0019.31824553,0578.51100000,0000.01900000,-0000.28450000,0180.00000000
P00092=0205.37151735,-0019.44737435,0578.51100000,0000.01900000,-0000.28450000,0180.00000000
P00093=0205.81750201,-0019.56687558,0578.51100000,0000.01900000,-0000.28450000,0180.00000000
P00094=0206.22920461,-0019.67719096,0578.51100000,0000.01900000,-0000.28450000,0180.00000000
P00095=0206.60831159,-0019.77877237,0578.51100000,0000.01900000,-0000.28450000,0180.00000000
P00096=0206.95653217,-0019.87207779,0578.51100000,0000.01900000,-0000.28450000,0180.00000000
P00097=0207.27558425,-0019.95756754,0578.51100000,0000.01900000,-0000.28450000,0180.00000000
P00098=0207.56718136,-0020.03570075,0578.51100000,0000.01900000,-0000.28450000,0180.00000000
P00099=0207.83302076,-0020.10693220,0578.51100000,0000.01900000,-0000.28450000,0180.00000000
P00100=0208.07477270,-0020.17170944,0578.51100000,0000.01900000,-0000.28450000,0180.00000000
P00101=0208.29407090,-0020.23047021,0578.51100000,0000.01900000,-0000.28450000,0180.00000000
P00102=0208.49250426,-0020.28364027,0578.51100000,0000.01900000,-0000.28450000,0180.00000000
P00103=0208.67160969,-0020.33163143,0578.51100000,0000.01900000,-0000.28450000,0180.00000000
P00104=0208.83286623,-0020.37483999,0578.51100000,0000.01900000,-0000.28450000,0180.00000000
P00105=0208.97769018,-0020.41364545,0578.51100000,0000.01900000,-0000.28450000,0180.00000000
P00106=0209.10743140,-0020.44840950,0578.51100000,0000.01900000,-0000.28450000,0180.00000000
P00107=0209.22337052,-0020.47947529,0578.51100000,0000.01900000,-0000.28450000,0180.00000000
P00108=0209.32671720,-0020.50716696,0578.51100000,0000.01900000,-0000.28450000,0180.00000000
P00109=0209.41860917,-0020.53178933,0578.51100000,0000.01900000,-0000.28450000,0180.00000000
P00110=0209.50011207,-0020.55362797,0578.51100000,0000.01900000,-0000.28450000,0180.00000000
P00111=0209.57222001,-0020.57294924,0578.51100000,0000.01900000,-0000.28450000,0180.00000000
P00112=0209.63585670,-0020.59000064,0578.51100000,0000.01900000,-0000.28450000,0180.00000000
P00113=0209.69187715,-0020.60501127,0578.51100000,0000.01900000,-0000.28450000,0180.00000000
P00114=0209.74106978,-0020.61819240,0578.51100000,0000.01900000,-0000.28450000,0180.00000000
P00115=0209.78415894,-0020.62973810,0578.51100000,0000.01900000,-0000.28450000,0180.00000000
P00116=0209.82180768,-0020.63982605,0578.51100000,0000.01900000,-0000.28450000,0180.00000000
P00117=0209.85462079,-0020.64861830,0578.51100000,0000.01900000,-0000.28450000,0180.00000000
P00118=0209.88314797,-0020.65626213,0578.51100000,0000.01900000,-0000.28450000,0180.00000000
P00119=0209.90788712,-0020.66289097,0578.51100000,0000.01900000,-0000.28450000,0180.00000000
P00120=0209.92928768,-0020.66862523,0578.51100000,0000.01900000,-0000.28450000,0180.00000000
//INST
///DATE 2017/03/31 08:11
///ATTR SC,RW
///GROUP1 RB2
NOP
MOVL P00001 V=0001.1948581
MOVL P00002 V=0001.3847183
MOVL P00003 V=0001.6007408
MOVL P00004 V=0001.8458444
MOVL P00005 V=0002.1231645
MOVL P00006 V=0002.4360528
MOVL P00007 V=0002.7880737
MOVL P00008 V=0003.1829974
MOVL P00009 V=0003.6247897
MOVL P00010 V=0004.1175969
MOVL P00011 V=0004.6657270
MOVL P00012 V=0005.2736259
MOVL P00013 V=0005.9458481
MOVL P00014 V=0006.6870224
MOVL P00015 V=0007.5018132
MOVL P00016 V=0008.3948743
MOVL P00017 V=0009.3707994
MOVL P00018 V=0010.4340659
MOVL P00019 V=0011.5889742
MOVL P00020 V=0012.8395827
MOVL P00021 V=0014.1896379
MOVL P00022 V=0015.6425015
MOVL P00023 V=0017.2010749
MOVL P00024 V=0018.8677216
MOVL P00025 V=0020.6441888
MOVL P00026 V=0022.5315295
MOVL P00027 V=0024.5300264
MOVL P00028 V=0026.6391183
MOVL P00029 V=0028.8573315
MOVL P00030 V=0031.1822163
MOVL P00031 V=0033.6102917
MOVL P00032 V=0036.1369981
MOVL P00033 V=0038.7566610
MOVL P00034 V=0041.4624657
MOVL P00035 V=0044.2464454
MOVL P00036 V=0047.0994828
MOVL P00037 V=0050.0113271
MOVL P00038 V=0052.9706265
MOVL P00039 V=0055.9649771
MOVL P00040 V=0058.9809878
MOVL P00041 V=0062.0043619
MOVL P00042 V=0065.0199952
MOVL P00043 V=0068.0120889
MOVL P00044 V=0070.9642773
MOVL P00045 V=0073.8597690
MOVL P00046 V=0076.6814992
MOVL P00047 V=0079.4122929
MOVL P00048 V=0082.0350347
MOVL P00049 V=0084.5328452
MOVL P00050 V=0086.8892597
MOVL P00051 V=0089.0884078
MOVL P00052 V=0091.1151905
MOVL P00053 V=0092.9554522
MOVL P00054 V=0094.5961449
MOVL P00055 V=0096.0254825
MOVL P00056 V=0097.2330812
MOVL P00057 V=0098.2100853
MOVL P00058 V=0098.9492755
MOVL P00059 V=0099.4451572
MOVL P00060 V=0099.6940292
MOVL P00061 V=0099.6940292
MOVL P00062 V=0099.4451572
MOVL P00063 V=0098.9492755
MOVL P00064 V=0098.2100853
MOVL P00065 V=0097.2330812
MOVL P00066 V=0096.0254825
MOVL P00067 V=0094.5961449
MOVL P00068 V=0092.9554522
MOVL P00069 V=0091.1151905
MOVL P00070 V=0089.0884078
MOVL P00071 V=0086.8892597
MOVL P00072 V=0084.5328452
MOVL P00073 V=0082.0350347
MOVL P00074 V=0079.4122929
MOVL P00075 V=0076.6814992
MOVL P00076 V=0073.8597690
MOVL P00077 V=0070.9642773
MOVL P00078 V=0068.0120889
MOVL P00079 V=0065.0199952
MOVL P00080 V=0062.0043619
MOVL P00081 V=0058.9809878
MOVL P00082 V=0055.9649771
MOVL P00083 V=0052.9706265
MOVL P00084 V=0050.0113271
MOVL P00085 V=0047.0994828
MOVL P00086 V=0044.2464454
MOVL P00087 V=0041.4624657
MOVL P00088 V=0038.7566610
MOVL P00089 V=0036.1369981
MOVL P00090 V=0033.6102917
MOVL P00091 V=0031.1822163
MOVL P00092 V=0028.8573315
MOVL P00093 V=0026.6391183
MOVL P00094 V=0024.5300264
MOVL P00095 V=0022.5315295
MOVL P00096 V=0020.6441888
MOVL P00097 V=0018.8677216
MOVL P00098 V=0017.2010749
MOVL P00099 V=0015.6425015
MOVL P00100 V=0014.1896379
MOVL P00101 V=0012.8395827
MOVL P00102 V=0011.5889742
MOVL P00103 V=0010.4340659
MOVL P00104 V=0009.3707994
MOVL P00105 V=0008.3948743
MOVL P00106 V=0007.5018132
MOVL P00107 V=0006.6870224
MOVL P00108 V=0005.9458481
MOVL P00109 V=0005.2736259
MOVL P00110 V=0004.6657270
MOVL P00111 V=0004.1175969
MOVL P00112 V=0003.6247897
MOVL P00113 V=0003.1829974
MOVL P00114 V=0002.7880737
MOVL P00115 V=0002.4360528
MOVL P00116 V=0002.1231645
MOVL P00117 V=0001.8458444
MOVL P00118 V=0001.6007408
MOVL P00119 V=0001.3847183
MOVL P00120 V=0001.3847183
END
