/JOB
//NAME GAUSSIANMOVING2
//POS
///NPOS 0,0,0,121,0,0
///TOOL 0
///POSTYPE ROBOT
///RECTAN
///RCONF 0,0,0,0,0,0,0,0,0,0,0,0,0,0,0,0,0,0,0,0,0,0,0,0
P00000=10.000,0.000,0.000,0.0000,0.0000,0.0000
///POSTYPE BASE
P00001=0237.45012704,-0002.88646105,273.306,-178.8807,-3.0241,-161.3872
P00002=0237.45723070,-0002.88742782,273.306,-178.8807,-3.0241,-161.3872
P00003=0237.46546312,-0002.88854820,273.306,-178.8807,-3.0241,-161.3872
P00004=0237.47497984,-0002.88984337,273.306,-178.8807,-3.0241,-161.3872
P00005=0237.48595375,-0002.89133685,273.306,-178.8807,-3.0241,-161.3872
P00006=0237.49857637,-0002.89305472,273.306,-178.8807,-3.0241,-161.3872
P00007=0237.51305918,-0002.89502574,273.306,-178.8807,-3.0241,-161.3872
P00008=0237.52963483,-0002.89728159,273.306,-178.8807,-3.0241,-161.3872
P00009=0237.54855837,-0002.89985697,273.306,-178.8807,-3.0241,-161.3872
P00010=0237.57010845,-0002.90278980,273.306,-178.8807,-3.0241,-161.3872
P00011=0237.59458837,-0002.90612137,273.306,-178.8807,-3.0241,-161.3872
P00012=0237.62232703,-0002.90989644,273.306,-178.8807,-3.0241,-161.3872
P00013=0237.65367976,-0002.91416336,273.306,-178.8807,-3.0241,-161.3872
P00014=0237.68902899,-0002.91897418,273.306,-178.8807,-3.0241,-161.3872
P00015=0237.72878465,-0002.92438469,273.306,-178.8807,-3.0241,-161.3872
P00016=0237.77338439,-0002.93045445,273.306,-178.8807,-3.0241,-161.3872
P00017=0237.82329356,-0002.93724678,273.306,-178.8807,-3.0241,-161.3872
P00018=0237.87900479,-0002.94482875,273.306,-178.8807,-3.0241,-161.3872
P00019=0237.94103735,-0002.95327101,273.306,-178.8807,-3.0241,-161.3872
P00020=0238.00993607,-0002.96264772,273.306,-178.8807,-3.0241,-161.3872
P00021=0238.08626990,-0002.97303629,273.306,-178.8807,-3.0241,-161.3872
P00022=0238.17063007,-0002.98451721,273.306,-178.8807,-3.0241,-161.3872
P00023=0238.26362779,-0002.99717364,273.306,-178.8807,-3.0241,-161.3872
P00024=0238.36589155,-0003.01109113,273.306,-178.8807,-3.0241,-161.3872
P00025=0238.47806384,-0003.02635711,273.306,-178.8807,-3.0241,-161.3872
P00026=0238.60079757,-0003.04306044,273.306,-178.8807,-3.0241,-161.3872
P00027=0238.73475192,-0003.06129082,273.306,-178.8807,-3.0241,-161.3872
P00028=0238.88058772,-0003.08113820,273.306,-178.8807,-3.0241,-161.3872
P00029=0239.03896248,-0003.10269206,273.306,-178.8807,-3.0241,-161.3872
P00030=0239.21052495,-0003.12604069,273.306,-178.8807,-3.0241,-161.3872
P00031=0239.39590932,-0003.15127040,273.306,-178.8807,-3.0241,-161.3872
P00032=0239.59572907,-0003.17846467,273.306,-178.8807,-3.0241,-161.3872
P00033=0239.81057059,-0003.20770332,273.306,-178.8807,-3.0241,-161.3872
P00034=0240.04098651,-0003.23906155,273.306,-178.8807,-3.0241,-161.3872
P00035=0240.28748897,-0003.27260906,273.306,-178.8807,-3.0241,-161.3872
P00036=0240.55054273,-0003.30840911,273.306,-178.8807,-3.0241,-161.3872
P00037=0240.83055836,-0003.34651756,273.306,-178.8807,-3.0241,-161.3872
P00038=0241.12788547,-0003.38698201,273.306,-178.8807,-3.0241,-161.3872
P00039=0241.44280620,-0003.42984084,273.306,-178.8807,-3.0241,-161.3872
P00040=0241.77552892,-0003.47512241,273.306,-178.8807,-3.0241,-161.3872
P00041=0242.12618242,-0003.52284426,273.306,-178.8807,-3.0241,-161.3872
P00042=0242.49481046,-0003.57301233,273.306,-178.8807,-3.0241,-161.3872
P00043=0242.88136704,-0003.62562037,273.306,-178.8807,-3.0241,-161.3872
P00044=0243.28571220,-0003.68064933,273.306,-178.8807,-3.0241,-161.3872
P00045=0243.70760869,-0003.73806693,273.306,-178.8807,-3.0241,-161.3872
P00046=0244.14671945,-0003.79782728,273.306,-178.8807,-3.0241,-161.3872
P00047=0244.60260594,-0003.85987071,273.306,-178.8807,-3.0241,-161.3872
P00048=0245.07472754,-0003.92412364,273.306,-178.8807,-3.0241,-161.3872
P00049=0245.56244185,-0003.99049864,273.306,-178.8807,-3.0241,-161.3872
P00050=0246.06500613,-0004.05889464,273.306,-178.8807,-3.0241,-161.3872
P00051=0246.58157976,-0004.12919722,273.306,-178.8807,-3.0241,-161.3872
P00052=0247.11122775,-0004.20127915,273.306,-178.8807,-3.0241,-161.3872
P00053=0247.65292536,-0004.27500096,273.306,-178.8807,-3.0241,-161.3872
P00054=0248.20556368,-0004.35021174,273.306,-178.8807,-3.0241,-161.3872
P00055=0248.76795625,-0004.42675000,273.306,-178.8807,-3.0241,-161.3872
P00056=0249.33884650,-0004.50444476,273.306,-178.8807,-3.0241,-161.3872
P00057=0249.91691617,-0004.58311659,273.306,-178.8807,-3.0241,-161.3872
P00058=0250.50079431,-0004.66257892,273.306,-178.8807,-3.0241,-161.3872
P00059=0251.08906709,-0004.74263933,273.306,-178.8807,-3.0241,-161.3872
P00060=0251.68028798,-0004.82310096,273.306,-178.8807,-3.0241,-161.3872
P00061=0252.27298846,-0004.90376395,273.306,-178.8807,-3.0241,-161.3872
P00062=0252.86568894,-0004.98442695,273.306,-178.8807,-3.0241,-161.3872
P00063=0253.45690983,-0005.06488858,273.306,-178.8807,-3.0241,-161.3872
P00064=0254.04518261,-0005.14494899,273.306,-178.8807,-3.0241,-161.3872
P00065=0254.62906075,-0005.22441132,273.306,-178.8807,-3.0241,-161.3872
P00066=0255.20713042,-0005.30308315,273.306,-178.8807,-3.0241,-161.3872
P00067=0255.77802068,-0005.38077790,273.306,-178.8807,-3.0241,-161.3872
P00068=0256.34041324,-0005.45731617,273.306,-178.8807,-3.0241,-161.3872
P00069=0256.89305157,-0005.53252695,273.306,-178.8807,-3.0241,-161.3872
P00070=0257.43474918,-0005.60624876,273.306,-178.8807,-3.0241,-161.3872
P00071=0257.96439717,-0005.67833068,273.306,-178.8807,-3.0241,-161.3872
P00072=0258.48097079,-0005.74863327,273.306,-178.8807,-3.0241,-161.3872
P00073=0258.98353507,-0005.81702927,273.306,-178.8807,-3.0241,-161.3872
P00074=0259.47124938,-0005.88340427,273.306,-178.8807,-3.0241,-161.3872
P00075=0259.94337098,-0005.94765720,273.306,-178.8807,-3.0241,-161.3872
P00076=0260.39925748,-0006.00970063,273.306,-178.8807,-3.0241,-161.3872
P00077=0260.83836823,-0006.06946098,273.306,-178.8807,-3.0241,-161.3872
P00078=0261.26026473,-0006.12687857,273.306,-178.8807,-3.0241,-161.3872
P00079=0261.66460988,-0006.18190753,273.306,-178.8807,-3.0241,-161.3872
P00080=0262.05116646,-0006.23451558,273.306,-178.8807,-3.0241,-161.3872
P00081=0262.41979450,-0006.28468365,273.306,-178.8807,-3.0241,-161.3872
P00082=0262.77044800,-0006.33240550,273.306,-178.8807,-3.0241,-161.3872
P00083=0263.10317072,-0006.37768707,273.306,-178.8807,-3.0241,-161.3872
P00084=0263.41809145,-0006.42054590,273.306,-178.8807,-3.0241,-161.3872
P00085=0263.71541856,-0006.46101035,273.306,-178.8807,-3.0241,-161.3872
P00086=0263.99543419,-0006.49911880,273.306,-178.8807,-3.0241,-161.3872
P00087=0264.25848795,-0006.53491885,273.306,-178.8807,-3.0241,-161.3872
P00088=0264.50499041,-0006.56846636,273.306,-178.8807,-3.0241,-161.3872
P00089=0264.73540633,-0006.59982459,273.306,-178.8807,-3.0241,-161.3872
P00090=0264.95024785,-0006.62906324,273.306,-178.8807,-3.0241,-161.3872
P00091=0265.15006760,-0006.65625751,273.306,-178.8807,-3.0241,-161.3872
P00092=0265.33545197,-0006.68148722,273.306,-178.8807,-3.0241,-161.3872
P00093=0265.50701444,-0006.70483584,273.306,-178.8807,-3.0241,-161.3872
P00094=0265.66538920,-0006.72638970,273.306,-178.8807,-3.0241,-161.3872
P00095=0265.81122500,-0006.74623708,273.306,-178.8807,-3.0241,-161.3872
P00096=0265.94517935,-0006.76446747,273.306,-178.8807,-3.0241,-161.3872
P00097=0266.06791308,-0006.78117080,273.306,-178.8807,-3.0241,-161.3872
P00098=0266.18008538,-0006.79643678,273.306,-178.8807,-3.0241,-161.3872
P00099=0266.28234913,-0006.81035426,273.306,-178.8807,-3.0241,-161.3872
P00100=0266.37534685,-0006.82301070,273.306,-178.8807,-3.0241,-161.3872
P00101=0266.45970702,-0006.83449161,273.306,-178.8807,-3.0241,-161.3872
P00102=0266.53604085,-0006.84488019,273.306,-178.8807,-3.0241,-161.3872
P00103=0266.60493957,-0006.85425690,273.306,-178.8807,-3.0241,-161.3872
P00104=0266.66697213,-0006.86269916,273.306,-178.8807,-3.0241,-161.3872
P00105=0266.72268336,-0006.87028112,273.306,-178.8807,-3.0241,-161.3872
P00106=0266.77259253,-0006.87707346,273.306,-178.8807,-3.0241,-161.3872
P00107=0266.81719227,-0006.88314322,273.306,-178.8807,-3.0241,-161.3872
P00108=0266.85694793,-0006.88855373,273.306,-178.8807,-3.0241,-161.3872
P00109=0266.89229716,-0006.89336455,273.306,-178.8807,-3.0241,-161.3872
P00110=0266.92364989,-0006.89763147,273.306,-178.8807,-3.0241,-161.3872
P00111=0266.95138855,-0006.90140653,273.306,-178.8807,-3.0241,-161.3872
P00112=0266.97586847,-0006.90473810,273.306,-178.8807,-3.0241,-161.3872
P00113=0266.99741855,-0006.90767094,273.306,-178.8807,-3.0241,-161.3872
P00114=0267.01634210,-0006.91024632,273.306,-178.8807,-3.0241,-161.3872
P00115=0267.03291774,-0006.91250217,273.306,-178.8807,-3.0241,-161.3872
P00116=0267.04740055,-0006.91447319,273.306,-178.8807,-3.0241,-161.3872
P00117=0267.06002318,-0006.91619106,273.306,-178.8807,-3.0241,-161.3872
P00118=0267.07099708,-0006.91768454,273.306,-178.8807,-3.0241,-161.3872
P00119=0267.08051380,-0006.91897971,273.306,-178.8807,-3.0241,-161.3872
P00120=0267.08874622,-0006.92010009,273.306,-178.8807,-3.0241,-161.3872
//INST
///DATE 2017/03/31 08:11
///ATTR SC,RW
///GROUP1 RB1
NOP
MOVL P00001 V=0000.4480718
MOVL P00002 V=0000.5192693
MOVL P00003 V=0000.6002778
MOVL P00004 V=0000.6921916
MOVL P00005 V=0000.7961867
MOVL P00006 V=0000.9135198
MOVL P00007 V=0001.0455276
MOVL P00008 V=0001.1936240
MOVL P00009 V=0001.3592961
MOVL P00010 V=0001.5440988
MOVL P00011 V=0001.7496476
MOVL P00012 V=0001.9776097
MOVL P00013 V=0002.2296930
MOVL P00014 V=0002.5076334
MOVL P00015 V=0002.8131799
MOVL P00016 V=0003.1480779
MOVL P00017 V=0003.5140498
MOVL P00018 V=0003.9127747
MOVL P00019 V=0004.3458653
MOVL P00020 V=0004.8148435
MOVL P00021 V=0005.3211142
MOVL P00022 V=0005.8659381
MOVL P00023 V=0006.4504031
MOVL P00024 V=0007.0753956
MOVL P00025 V=0007.7415708
MOVL P00026 V=0008.4493236
MOVL P00027 V=0009.1987599
MOVL P00028 V=0009.9896694
MOVL P00029 V=0010.8214993
MOVL P00030 V=0011.6933311
MOVL P00031 V=0012.6038594
MOVL P00032 V=0013.5513743
MOVL P00033 V=0014.5337479
MOVL P00034 V=0015.5484247
MOVL P00035 V=0016.5924170
MOVL P00036 V=0017.6623060
MOVL P00037 V=0018.7542477
MOVL P00038 V=0019.8639850
MOVL P00039 V=0020.9868664
MOVL P00040 V=0022.1178704
MOVL P00041 V=0023.2516357
MOVL P00042 V=0024.3824982
MOVL P00043 V=0025.5045333
MOVL P00044 V=0026.6116040
MOVL P00045 V=0027.6974134
MOVL P00046 V=0028.7555622
MOVL P00047 V=0029.7796098
MOVL P00048 V=0030.7631380
MOVL P00049 V=0031.6998169
MOVL P00050 V=0032.5834724
MOVL P00051 V=0033.4081529
MOVL P00052 V=0034.1681964
MOVL P00053 V=0034.8582946
MOVL P00054 V=0035.4735543
MOVL P00055 V=0036.0095559
MOVL P00056 V=0036.4624055
MOVL P00057 V=0036.8287820
MOVL P00058 V=0037.1059783
MOVL P00059 V=0037.2919339
MOVL P00060 V=0037.3852609
MOVL P00061 V=0037.3852609
MOVL P00062 V=0037.2919339
MOVL P00063 V=0037.1059783
MOVL P00064 V=0036.8287820
MOVL P00065 V=0036.4624055
MOVL P00066 V=0036.0095559
MOVL P00067 V=0035.4735543
MOVL P00068 V=0034.8582946
MOVL P00069 V=0034.1681964
MOVL P00070 V=0033.4081529
MOVL P00071 V=0032.5834724
MOVL P00072 V=0031.6998169
MOVL P00073 V=0030.7631380
MOVL P00074 V=0029.7796098
MOVL P00075 V=0028.7555622
MOVL P00076 V=0027.6974134
MOVL P00077 V=0026.6116040
MOVL P00078 V=0025.5045333
MOVL P00079 V=0024.3824982
MOVL P00080 V=0023.2516357
MOVL P00081 V=0022.1178704
MOVL P00082 V=0020.9868664
MOVL P00083 V=0019.8639850
MOVL P00084 V=0018.7542477
MOVL P00085 V=0017.6623060
MOVL P00086 V=0016.5924170
MOVL P00087 V=0015.5484247
MOVL P00088 V=0014.5337479
MOVL P00089 V=0013.5513743
MOVL P00090 V=0012.6038594
MOVL P00091 V=0011.6933311
MOVL P00092 V=0010.8214993
MOVL P00093 V=0009.9896694
MOVL P00094 V=0009.1987599
MOVL P00095 V=0008.4493236
MOVL P00096 V=0007.7415708
MOVL P00097 V=0007.0753956
MOVL P00098 V=0006.4504031
MOVL P00099 V=0005.8659381
MOVL P00100 V=0005.3211142
MOVL P00101 V=0004.8148435
MOVL P00102 V=0004.3458653
MOVL P00103 V=0003.9127747
MOVL P00104 V=0003.5140498
MOVL P00105 V=0003.1480779
MOVL P00106 V=0002.8131799
MOVL P00107 V=0002.5076334
MOVL P00108 V=0002.2296930
MOVL P00109 V=0001.9776097
MOVL P00110 V=0001.7496476
MOVL P00111 V=0001.5440988
MOVL P00112 V=0001.3592961
MOVL P00113 V=0001.1936240
MOVL P00114 V=0001.0455276
MOVL P00115 V=0000.9135198
MOVL P00116 V=0000.7961867
MOVL P00117 V=0000.6921916
MOVL P00118 V=0000.6002778
MOVL P00119 V=0000.5192693
MOVL P00120 V=0000.5192693
END
