/JOB
//NAME GAUSSIANMOVING2
//POS
///NPOS 0,0,0,121,0,0
///TOOL 0
///POSTYPE ROBOT
///RECTAN
///RCONF 0,0,0,0,0,0,0,0,0,0,0,0,0,0,0,0,0,0,0,0,0,0,0,0
P00000=10.000,0.000,0.000,0.0000,0.0000,0.0000
///POSTYPE BASE
///TOOL0
P00001=0606.55137880,-0072.36934287,0523.09500000,0000.00000000,0000.00400000,0180.00000000,
P00002=0606.52807336,-0072.31936420,0523.09500000,0000.00000000,0000.00400000,0180.00000000,
P00003=0606.49724442,-0072.25325133,0523.09500000,0000.00000000,0000.00400000,0180.00000000,
P00004=0606.45686868,-0072.16666528,0523.09500000,0000.00000000,0000.00400000,0180.00000000,
P00005=0606.40451550,-0072.05439352,0523.09500000,0000.00000000,0000.00400000,0180.00000000,
P00006=0606.33730667,-0071.91026371,0523.09500000,0000.00000000,0000.00400000,0180.00000000,
P00007=0606.25188456,-0071.72707541,0523.09500000,0000.00000000,0000.00400000,0180.00000000,
P00008=0606.14439287,-0071.49655874,0523.09500000,0000.00000000,0000.00400000,0180.00000000,
P00009=0606.01047451,-0071.20936989,0523.09500000,0000.00000000,0000.00400000,0180.00000000,
P00010=0605.84529124,-0070.85513322,0523.09500000,0000.00000000,0000.00400000,0180.00000000,
P00011=0605.64356953,-0070.42253962,0523.09500000,0000.00000000,0000.00400000,0180.00000000,
P00012=0605.39967622,-0069.89950872,0523.09500000,0000.00000000,0000.00400000,0180.00000000,
P00013=0605.10772667,-0069.27342089,0523.09500000,0000.00000000,0000.00400000,0180.00000000,
P00014=0604.76172643,-0068.53142098,0523.09500000,0000.00000000,0000.00400000,0180.00000000,
P00015=0604.35574548,-0067.66079202,0523.09500000,0000.00000000,0000.00400000,0180.00000000,
P00016=0603.88412182,-0066.64939183,0523.09500000,0000.00000000,0000.00400000,0180.00000000,
P00017=0603.34168874,-0065.48614033,0523.09500000,0000.00000000,0000.00400000,0180.00000000,
P00018=0602.72401742,-0064.16153991,0523.09500000,0000.00000000,0000.00400000,0180.00000000,
P00019=0602.02766455,-0062.66820637,0523.09500000,0000.00000000,0000.00400000,0180.00000000,
P00020=0601.25041233,-0061.00138360,0523.09500000,0000.00000000,0000.00400000,0180.00000000,
P00021=0600.39148732,-0059.15941297,0523.09500000,0000.00000000,0000.00400000,0180.00000000,
P00022=0599.45174412,-0057.14412717,0523.09500000,0000.00000000,0000.00400000,0180.00000000,
P00023=0598.43380029,-0054.96113959,0523.09500000,0000.00000000,0000.00400000,0180.00000000,
P00024=0597.34211087,-0052.62000406,0523.09500000,0000.00000000,0000.00400000,0180.00000000,
P00025=0596.18297308,-0050.13422505,0523.09500000,0000.00000000,0000.00400000,0180.00000000,
P00026=0594.96445577,-0047.52110626,0523.09500000,0000.00000000,0000.00400000,0180.00000000,
P00027=0593.69625209,-0044.80143469,0523.09500000,0000.00000000,0000.00400000,0180.00000000,
P00028=0592.38945852,-0041.99900683,0523.09500000,0000.00000000,0000.00400000,0180.00000000,
P00029=0591.05628818,-0039.14001381,0523.09500000,0000.00000000,0000.00400000,0180.00000000,
P00030=0589.70973047,-0036.25231148,0523.09500000,0000.00000000,0000.00400000,0180.00000000,
P00031=0588.36317276,-0033.36460916,0523.09500000,0000.00000000,0000.00400000,0180.00000000,
P00032=0587.03000242,-0030.50561613,0523.09500000,0000.00000000,0000.00400000,0180.00000000,
P00033=0585.72320885,-0027.70318827,0523.09500000,0000.00000000,0000.00400000,0180.00000000,
P00034=0584.45500517,-0024.98351671,0523.09500000,0000.00000000,0000.00400000,0180.00000000,
P00035=0583.23648786,-0022.37039792,0523.09500000,0000.00000000,0000.00400000,0180.00000000,
P00036=0582.07735007,-0019.88461890,0523.09500000,0000.00000000,0000.00400000,0180.00000000,
P00037=0580.98566065,-0017.54348338,0523.09500000,0000.00000000,0000.00400000,0180.00000000,
P00038=0579.96771682,-0015.36049580,0523.09500000,0000.00000000,0000.00400000,0180.00000000,
P00039=0579.02797362,-0013.34520999,0523.09500000,0000.00000000,0000.00400000,0180.00000000,
P00040=0578.16904861,-0011.50323937,0523.09500000,0000.00000000,0000.00400000,0180.00000000,
P00041=0577.39179639,-0009.83641660,0523.09500000,0000.00000000,0000.00400000,0180.00000000,
P00042=0576.69544352,-0008.34308305,0523.09500000,0000.00000000,0000.00400000,0180.00000000,
P00043=0576.07777220,-0007.01848264,0523.09500000,0000.00000000,0000.00400000,0180.00000000,
P00044=0575.53533912,-0005.85523113,0523.09500000,0000.00000000,0000.00400000,0180.00000000,
P00045=0575.06371546,-0004.84383094,0523.09500000,0000.00000000,0000.00400000,0180.00000000,
P00046=0574.65773451,-0003.97320198,0523.09500000,0000.00000000,0000.00400000,0180.00000000,
P00047=0574.31173427,-0003.23120207,0523.09500000,0000.00000000,0000.00400000,0180.00000000,
P00048=0574.01978472,-0002.60511424,0523.09500000,0000.00000000,0000.00400000,0180.00000000,
P00049=0573.77589141,-0002.08208334,0523.09500000,0000.00000000,0000.00400000,0180.00000000,
P00050=0573.57416970,-0001.64948974,0523.09500000,0000.00000000,0000.00400000,0180.00000000,
P00051=0573.40898643,-0001.29525308,0523.09500000,0000.00000000,0000.00400000,0180.00000000,
P00052=0573.27506807,-0001.00806422,0523.09500000,0000.00000000,0000.00400000,0180.00000000,
P00053=0573.16757638,-0000.77754755,0523.09500000,0000.00000000,0000.00400000,0180.00000000,
P00054=0573.08215427,-0000.59435925,0523.09500000,0000.00000000,0000.00400000,0180.00000000,
P00055=0573.01494544,-0000.45022944,0523.09500000,0000.00000000,0000.00400000,0180.00000000,
P00056=0572.96259225,-0000.33795768,0523.09500000,0000.00000000,0000.00400000,0180.00000000,
P00057=0572.92221652,-0000.25137163,0523.09500000,0000.00000000,0000.00400000,0180.00000000,
P00058=0572.89138758,-0000.18525876,0523.09500000,0000.00000000,0000.00400000,0180.00000000,
P00059=0572.86808214,-0000.13528009,0523.09500000,0000.00000000,0000.00400000,0180.00000000,
P00060=0572.85063932,-0000.09787385,0523.09500000,0000.00000000,0000.00400000,0180.00000000,
///TOOL1
P00061=0668.65486748,-0003.74287220,0908.48000000,0180.00000000,0000.00000000,0000.00000000
P00062=0668.65892488,-0003.74028736,0908.48000000,0180.00000000,0000.00000000,0000.00000000
P00063=0668.66429210,-0003.73686806,0908.48000000,0180.00000000,0000.00000000,0000.00000000
P00064=0668.67132138,-0003.73238992,0908.48000000,0180.00000000,0000.00000000,0000.00000000
P00065=0668.68043590,-0003.72658333,0908.48000000,0180.00000000,0000.00000000,0000.00000000
P00066=0668.69213673,-0003.71912908,0908.48000000,0180.00000000,0000.00000000,0000.00000000
P00067=0668.70700844,-0003.70965475,0908.48000000,0180.00000000,0000.00000000,0000.00000000
P00068=0668.72572238,-0003.69773266,0908.48000000,0180.00000000,0000.00000000,0000.00000000
P00069=0668.74903712,-0003.68287953,0908.48000000,0180.00000000,0000.00000000,0000.00000000
P00070=0668.77779498,-0003.66455875,0908.48000000,0180.00000000,0000.00000000,0000.00000000
P00071=0668.81291406,-0003.64218543,0908.48000000,0180.00000000,0000.00000000,0000.00000000
P00072=0668.85537508,-0003.61513478,0908.48000000,0180.00000000,0000.00000000,0000.00000000
P00073=0668.90620253,-0003.58275412,0908.48000000,0180.00000000,0000.00000000,0000.00000000
P00074=0668.96644002,-0003.54437861,0908.48000000,0180.00000000,0000.00000000,0000.00000000
P00075=0669.03711996,-0003.49935052,0908.48000000,0180.00000000,0000.00000000,0000.00000000
P00076=0669.11922807,-0003.44704189,0908.48000000,0180.00000000,0000.00000000,0000.00000000
P00077=0669.21366387,-0003.38687965,0908.48000000,0180.00000000,0000.00000000,0000.00000000
P00078=0669.32119839,-0003.31837260,0908.48000000,0180.00000000,0000.00000000,0000.00000000
P00079=0669.44243112,-0003.24113884,0908.48000000,0180.00000000,0000.00000000,0000.00000000
P00080=0669.57774815,-0003.15493238,0908.48000000,0180.00000000,0000.00000000,0000.00000000
P00081=0669.72728414,-0003.05966745,0908.48000000,0180.00000000,0000.00000000,0000.00000000
P00082=0669.89089031,-0002.95543882,0908.48000000,0180.00000000,0000.00000000,0000.00000000
P00083=0670.06811095,-0002.84253682,0908.48000000,0180.00000000,0000.00000000,0000.00000000
P00084=0670.25817046,-0002.72145556,0908.48000000,0180.00000000,0000.00000000,0000.00000000
P00085=0670.45997250,-0002.59289348,0908.48000000,0180.00000000,0000.00000000,0000.00000000
P00086=0670.67211232,-0002.45774551,0908.48000000,0180.00000000,0000.00000000,0000.00000000
P00087=0670.89290237,-0002.31708674,0908.48000000,0180.00000000,0000.00000000,0000.00000000
P00088=0671.12041079,-0002.17214789,0908.48000000,0180.00000000,0000.00000000,0000.00000000
P00089=0671.35251132,-0002.02428354,0908.48000000,0180.00000000,0000.00000000,0000.00000000
P00090=0671.58694255,-0001.87493438,0908.48000000,0180.00000000,0000.00000000,0000.00000000
P00091=0671.82137377,-0001.72558522,0908.48000000,0180.00000000,0000.00000000,0000.00000000
P00092=0672.05347430,-0001.57772087,0908.48000000,0180.00000000,0000.00000000,0000.00000000
P00093=0672.28098273,-0001.43278202,0908.48000000,0180.00000000,0000.00000000,0000.00000000
P00094=0672.50177278,-0001.29212325,0908.48000000,0180.00000000,0000.00000000,0000.00000000
P00095=0672.71391259,-0001.15697528,0908.48000000,0180.00000000,0000.00000000,0000.00000000
P00096=0672.91571464,-0001.02841320,0908.48000000,0180.00000000,0000.00000000,0000.00000000
P00097=0673.10577414,-0000.90733194,0908.48000000,0180.00000000,0000.00000000,0000.00000000
P00098=0673.28299478,-0000.79442994,0908.48000000,0180.00000000,0000.00000000,0000.00000000
P00099=0673.44660095,-0000.69020131,0908.48000000,0180.00000000,0000.00000000,0000.00000000
P00100=0673.59613694,-0000.59493638,0908.48000000,0180.00000000,0000.00000000,0000.00000000
P00101=0673.73145398,-0000.50872992,0908.48000000,0180.00000000,0000.00000000,0000.00000000
P00102=0673.85268670,-0000.43149616,0908.48000000,0180.00000000,0000.00000000,0000.00000000
P00103=0673.96022122,-0000.36298911,0908.48000000,0180.00000000,0000.00000000,0000.00000000
P00104=0674.05465702,-0000.30282687,0908.48000000,0180.00000000,0000.00000000,0000.00000000
P00105=0674.13676514,-0000.25051824,0908.48000000,0180.00000000,0000.00000000,0000.00000000
P00106=0674.20744507,-0000.20549015,0908.48000000,0180.00000000,0000.00000000,0000.00000000
P00107=0674.26768257,-0000.16711464,0908.48000000,0180.00000000,0000.00000000,0000.00000000
P00108=0674.31851001,-0000.13473398,0908.48000000,0180.00000000,0000.00000000,0000.00000000
P00109=0674.36097103,-0000.10768333,0908.48000000,0180.00000000,0000.00000000,0000.00000000
P00110=0674.39609011,-0000.08531001,0908.48000000,0180.00000000,0000.00000000,0000.00000000
P00111=0674.42484797,-0000.06698923,0908.48000000,0180.00000000,0000.00000000,0000.00000000
P00112=0674.44816271,-0000.05213610,0908.48000000,0180.00000000,0000.00000000,0000.00000000
P00113=0674.46687666,-0000.04021401,0908.48000000,0180.00000000,0000.00000000,0000.00000000
P00114=0674.48174836,-0000.03073968,0908.48000000,0180.00000000,0000.00000000,0000.00000000
P00115=0674.49344920,-0000.02328543,0908.48000000,0180.00000000,0000.00000000,0000.00000000
P00116=0674.50256371,-0000.01747884,0908.48000000,0180.00000000,0000.00000000,0000.00000000
P00117=0674.50959299,-0000.01300070,0908.48000000,0180.00000000,0000.00000000,0000.00000000
P00118=0674.51496021,-0000.00958140,0908.48000000,0180.00000000,0000.00000000,0000.00000000
P00119=0674.51901761,-0000.00699656,0908.48000000,0180.00000000,0000.00000000,0000.00000000
P00120=0674.52205435,-0000.00506194,0908.48000000,0180.00000000,0000.00000000,0000.00000000
//INST
///DATE 2017/03/31 08:11
///COMM PLAYINGTWOROBOTS
///ATTR SC,RW
///GROUP1 RB1
///GROUP2 RB2
NOP
DOUT OT#(15) ON
MOVL P00001 V=0003.4465852  +MOVL P00061 V=0000.3006759
MOVL P00002 V=0004.5592174  +MOVL P00062 V=0000.3977405
MOVL P00003 V=0005.9710711  +MOVL P00063 V=0000.5209089
MOVL P00004 V=0007.7423865  +MOVL P00064 V=0000.6754363
MOVL P00005 V=0009.9393530  +MOVL P00065 V=0000.8670970
MOVL P00006 V=0012.6328705  +MOVL P00066 V=0001.1020761
MOVL P00007 V=0015.8966875  +MOVL P00067 V=0001.3868075
MOVL P00008 V=0019.8048652  +MOVL P00068 V=0001.7277522
MOVL P00009 V=0024.4285569  +MOVL P00069 V=0002.1311174
MOVL P00010 V=0029.8321393  +MOVL P00070 V=0002.6025193
MOVL P00011 V=0036.0687965  +MOVL P00071 V=0003.1465976
MOVL P00012 V=0043.1757182  +MOVL P00072 V=0003.7665968
MOVL P00013 V=0051.1691447  +MOVL P00073 V=0004.4639335
MOVL P00014 V=0060.0395478  +MOVL P00074 V=0005.2377766
MOVL P00015 V=0069.7472898  +MOVL P00075 V=0006.0846681
MOVL P00016 V=0080.2191268  +MOVL P00076 V=0006.9982183
MOVL P00017 V=0091.3459282  +MOVL P00077 V=0007.9689069
MOVL P00018 V=0102.9819536  +MOVL P00078 V=0008.9840195
MOVL P00019 V=0114.9459649  +MOVL P00079 V=0010.0277451
MOVL P00020 V=0127.0243571  +MOVL P00080 V=0011.0814493
MOVL P00021 V=0138.9763662  +MOVL P00081 V=0012.1241279
MOVL P00022 V=0150.5412682  +MOVL P00082 V=0013.1330358
MOVL P00023 V=0161.4473276  +MOVL P00083 V=0014.0844670
MOVL P00024 V=0171.4221049  +MOVL P00084 V=0014.9546544
MOVL P00025 V=0180.2035983  +MOVL P00085 V=0015.7207411
MOVL P00026 V=0187.5515971  +MOVL P00086 V=0016.3617715
MOVL P00027 V=0193.2585637  +MOVL P00087 V=0016.8596403
MOVL P00028 V=0197.1593608  +MOVL P00088 V=0017.1999411
MOVL P00029 V=0199.1391864  +MOVL P00089 V=0017.3726586
MOVL P00030 V=0199.1391864  +MOVL P00090 V=0017.3726586
MOVL P00031 V=0197.1593608  +MOVL P00091 V=0017.1999411
MOVL P00032 V=0193.2585637  +MOVL P00092 V=0016.8596403
MOVL P00033 V=0187.5515971  +MOVL P00093 V=0016.3617715
MOVL P00034 V=0180.2035983  +MOVL P00094 V=0015.7207411
MOVL P00035 V=0171.4221049  +MOVL P00095 V=0014.9546544
MOVL P00036 V=0161.4473276  +MOVL P00096 V=0014.0844670
MOVL P00037 V=0150.5412682  +MOVL P00097 V=0013.1330358
MOVL P00038 V=0138.9763662  +MOVL P00098 V=0012.1241279
MOVL P00039 V=0127.0243571  +MOVL P00099 V=0011.0814493
MOVL P00040 V=0114.9459649  +MOVL P00100 V=0010.0277451
MOVL P00041 V=0102.9819536  +MOVL P00101 V=0008.9840195
MOVL P00042 V=0091.3459282  +MOVL P00102 V=0007.9689069
MOVL P00043 V=0080.2191268  +MOVL P00103 V=0006.9982183
MOVL P00044 V=0069.7472898  +MOVL P00104 V=0006.0846681
MOVL P00045 V=0060.0395478  +MOVL P00105 V=0005.2377766
MOVL P00046 V=0051.1691447  +MOVL P00106 V=0004.4639335
MOVL P00047 V=0043.1757182  +MOVL P00107 V=0003.7665968
MOVL P00048 V=0036.0687965  +MOVL P00108 V=0003.1465976
MOVL P00049 V=0029.8321393  +MOVL P00109 V=0002.6025193
MOVL P00050 V=0024.4285569  +MOVL P00110 V=0002.1311174
MOVL P00051 V=0019.8048652  +MOVL P00111 V=0001.7277522
MOVL P00052 V=0015.8966875  +MOVL P00112 V=0001.3868075
MOVL P00053 V=0012.6328705  +MOVL P00113 V=0001.1020761
MOVL P00054 V=0009.9393530  +MOVL P00114 V=0000.8670970
MOVL P00055 V=0007.7423865  +MOVL P00115 V=0000.6754363
MOVL P00056 V=0005.9710711  +MOVL P00116 V=0000.5209089
MOVL P00057 V=0004.5592174  +MOVL P00117 V=0000.3977405
MOVL P00058 V=0003.4465852  +MOVL P00118 V=0000.3006759
MOVL P00059 V=0002.5795763  +MOVL P00119 V=0000.2250391
MOVL P00060 V=0002.5795763  +MOVL P00120 V=0000.2250391
DOUT OT#(15) OFF
END
