/JOB
//NAME GAUSSIANMOVING2
//POS
///NPOS 0,0,0,61,0,0
///TOOL 0
///POSTYPE ROBOT
///RECTAN
///RCONF 0,0,0,0,0,0,0,0,0,0,0,0,0,0,0,0,0,0,0,0,0,0,0,0
P00000=10.000,0.000,0.000,0.0000,0.0000,0.0000
///POSTYPE BASE
///TOOL1
P00001=0674.53000000,0000.00000000,0858.57329067,0180.00000000,0000.00000000,0000.00000000
P00002=0674.53000000,0000.00000000,0858.60775652,0180.00000000,0000.00000000,0000.00000000
P00003=0674.53000000,0000.00000000,0858.65334869,0180.00000000,0000.00000000,0000.00000000
P00004=0674.53000000,0000.00000000,0858.71305940,0180.00000000,0000.00000000,0000.00000000
P00005=0674.53000000,0000.00000000,0858.79048327,0180.00000000,0000.00000000,0000.00000000
P00006=0674.53000000,0000.00000000,0858.88987680,0180.00000000,0000.00000000,0000.00000000
P00007=0674.53000000,0000.00000000,0859.01620550,0180.00000000,0000.00000000,0000.00000000
P00008=0674.53000000,0000.00000000,0859.17517238,0180.00000000,0000.00000000,0000.00000000
P00009=0674.53000000,0000.00000000,0859.37322103,0180.00000000,0000.00000000,0000.00000000
P00010=0674.53000000,0000.00000000,0859.61750660,0180.00000000,0000.00000000,0000.00000000
P00011=0674.53000000,0000.00000000,0859.91582799,0180.00000000,0000.00000000,0000.00000000
P00012=0674.53000000,0000.00000000,0860.27651596,0180.00000000,0000.00000000,0000.00000000
P00013=0674.53000000,0000.00000000,0860.70827314,0180.00000000,0000.00000000,0000.00000000
P00014=0674.53000000,0000.00000000,0861.21996458,0180.00000000,0000.00000000,0000.00000000
P00015=0674.53000000,0000.00000000,0861.82036006,0180.00000000,0000.00000000,0000.00000000
P00016=0674.53000000,0000.00000000,0862.51783296,0180.00000000,0000.00000000,0000.00000000
P00017=0674.53000000,0000.00000000,0863.32002423,0180.00000000,0000.00000000,0000.00000000
P00018=0674.53000000,0000.00000000,0864.23348351,0180.00000000,0000.00000000,0000.00000000
P00019=0674.53000000,0000.00000000,0865.26330305,0180.00000000,0000.00000000,0000.00000000
P00020=0674.53000000,0000.00000000,0866.41276270,0180.00000000,0000.00000000,0000.00000000
P00021=0674.53000000,0000.00000000,0867.68300627,0180.00000000,0000.00000000,0000.00000000
P00022=0674.53000000,0000.00000000,0869.07276993,0180.00000000,0000.00000000,0000.00000000
P00023=0674.53000000,0000.00000000,0870.57818261,0180.00000000,0000.00000000,0000.00000000
P00024=0674.53000000,0000.00000000,0872.19265589,0180.00000000,0000.00000000,0000.00000000
P00025=0674.53000000,0000.00000000,0873.90687694,0180.00000000,0000.00000000,0000.00000000
P00026=0674.53000000,0000.00000000,0875.70891292,0180.00000000,0000.00000000,0000.00000000
P00027=0674.53000000,0000.00000000,0877.58442889,0180.00000000,0000.00000000,0000.00000000
P00028=0674.53000000,0000.00000000,0879.51701453,0180.00000000,0000.00000000,0000.00000000
P00029=0674.53000000,0000.00000000,0881.48860814,0180.00000000,0000.00000000,0000.00000000
P00030=0674.53000000,0000.00000000,0883.48000000,0180.00000000,0000.00000000,0000.00000000
P00031=0674.53000000,0000.00000000,0885.47139186,0180.00000000,0000.00000000,0000.00000000
P00032=0674.53000000,0000.00000000,0887.44298547,0180.00000000,0000.00000000,0000.00000000
P00033=0674.53000000,0000.00000000,0889.37557111,0180.00000000,0000.00000000,0000.00000000
P00034=0674.53000000,0000.00000000,0891.25108708,0180.00000000,0000.00000000,0000.00000000
P00035=0674.53000000,0000.00000000,0893.05312306,0180.00000000,0000.00000000,0000.00000000
P00036=0674.53000000,0000.00000000,0894.76734411,0180.00000000,0000.00000000,0000.00000000
P00037=0674.53000000,0000.00000000,0896.38181739,0180.00000000,0000.00000000,0000.00000000
P00038=0674.53000000,0000.00000000,0897.88723007,0180.00000000,0000.00000000,0000.00000000
P00039=0674.53000000,0000.00000000,0899.27699373,0180.00000000,0000.00000000,0000.00000000
P00040=0674.53000000,0000.00000000,0900.54723730,0180.00000000,0000.00000000,0000.00000000
P00041=0674.53000000,0000.00000000,0901.69669695,0180.00000000,0000.00000000,0000.00000000
P00042=0674.53000000,0000.00000000,0902.72651649,0180.00000000,0000.00000000,0000.00000000
P00043=0674.53000000,0000.00000000,0903.63997577,0180.00000000,0000.00000000,0000.00000000
P00044=0674.53000000,0000.00000000,0904.44216704,0180.00000000,0000.00000000,0000.00000000
P00045=0674.53000000,0000.00000000,0905.13963994,0180.00000000,0000.00000000,0000.00000000
P00046=0674.53000000,0000.00000000,0905.74003542,0180.00000000,0000.00000000,0000.00000000
P00047=0674.53000000,0000.00000000,0906.25172686,0180.00000000,0000.00000000,0000.00000000
P00048=0674.53000000,0000.00000000,0906.68348404,0180.00000000,0000.00000000,0000.00000000
P00049=0674.53000000,0000.00000000,0907.04417201,0180.00000000,0000.00000000,0000.00000000
P00050=0674.53000000,0000.00000000,0907.34249340,0180.00000000,0000.00000000,0000.00000000
P00051=0674.53000000,0000.00000000,0907.58677897,0180.00000000,0000.00000000,0000.00000000
P00052=0674.53000000,0000.00000000,0907.78482762,0180.00000000,0000.00000000,0000.00000000
P00053=0674.53000000,0000.00000000,0907.94379450,0180.00000000,0000.00000000,0000.00000000
P00054=0674.53000000,0000.00000000,0908.07012320,0180.00000000,0000.00000000,0000.00000000
P00055=0674.53000000,0000.00000000,0908.16951673,0180.00000000,0000.00000000,0000.00000000
P00056=0674.53000000,0000.00000000,0908.24694060,0180.00000000,0000.00000000,0000.00000000
P00057=0674.53000000,0000.00000000,0908.30665131,0180.00000000,0000.00000000,0000.00000000
P00058=0674.53000000,0000.00000000,0908.35224348,0180.00000000,0000.00000000,0000.00000000
P00059=0674.53000000,0000.00000000,0908.38670933,0180.00000000,0000.00000000,0000.00000000
P00060=0674.53000000,0000.00000000,0908.41250510,0180.00000000,0000.00000000,0000.00000000
//INST
///DATE 2017/03/31 08:11
///ATTR SC,RW
///GROUP1 RB2
NOP
DOUT OT#(15) ON
MOVL P00001 V=0002.1541157
MOVL P00002 V=0002.8495109
MOVL P00003 V=0003.7319194
MOVL P00004 V=0004.8389916
MOVL P00005 V=0006.2120956
MOVL P00006 V=0007.8955441
MOVL P00007 V=0009.9354297
MOVL P00008 V=0012.3780408
MOVL P00009 V=0015.2678481
MOVL P00010 V=0018.6450871
MOVL P00011 V=0022.5429978
MOVL P00012 V=0026.9848239
MOVL P00013 V=0031.9807154
MOVL P00014 V=0037.5247174
MOVL P00015 V=0043.5920561
MOVL P00016 V=0050.1369542
MOVL P00017 V=0057.0912051
MOVL P00018 V=0064.3637210
MOVL P00019 V=0071.8412281
MOVL P00020 V=0079.3902232
MOVL P00021 V=0086.8602289
MOVL P00022 V=0094.0882926
MOVL P00023 V=0100.9045798
MOVL P00024 V=0107.1388155
MOVL P00025 V=0112.6272489
MOVL P00026 V=0117.2197482
MOVL P00027 V=0120.7866023
MOVL P00028 V=0123.2246005
MOVL P00029 V=0124.4619915
MOVL P00030 V=0124.4619915
MOVL P00031 V=0123.2246005
MOVL P00032 V=0120.7866023
MOVL P00033 V=0117.2197482
MOVL P00034 V=0112.6272489
MOVL P00035 V=0107.1388155
MOVL P00036 V=0100.9045798
MOVL P00037 V=0094.0882926
MOVL P00038 V=0086.8602289
MOVL P00039 V=0079.3902232
MOVL P00040 V=0071.8412281
MOVL P00041 V=0064.3637210
MOVL P00042 V=0057.0912051
MOVL P00043 V=0050.1369542
MOVL P00044 V=0043.5920561
MOVL P00045 V=0037.5247174
MOVL P00046 V=0031.9807154
MOVL P00047 V=0026.9848239
MOVL P00048 V=0022.5429978
MOVL P00049 V=0018.6450871
MOVL P00050 V=0015.2678481
MOVL P00051 V=0012.3780408
MOVL P00052 V=0009.9354297
MOVL P00053 V=0007.8955441
MOVL P00054 V=0006.2120956
MOVL P00055 V=0004.8389916
MOVL P00056 V=0003.7319194
MOVL P00057 V=0002.8495109
MOVL P00058 V=0002.1541157
MOVL P00059 V=0001.6122352
MOVL P00060 V=0001.6122352
DOUT OT#(15) OFF
END
