/JOB
//NAME GAUSSIANMOVING2
//POS
///NPOS 0,0,0,121,0,0
///TOOL 0
///POSTYPE ROBOT
///RECTAN
///RCONF 0,0,0,0,0,0,0,0,0,0,0,0,0,0,0,0,0,0,0,0,0,0,0,0
P00000=10.000,0.000,0.000,0.0000,0.0000,0.0000
///POSTYPE BASE
///TOOL0
P00001=0648.95999944,-0024.01157909,0523.09500000,0000.00000000,0000.00400000,0180.00000000,
P00002=0648.90740637,-0023.99499656,0523.09500000,0000.00000000,0000.00400000,0180.00000000,
P00003=0648.83783513,-0023.97306083,0523.09500000,0000.00000000,0000.00400000,0180.00000000,
P00004=0648.74671974,-0023.94433226,0523.09500000,0000.00000000,0000.00400000,0180.00000000,
P00005=0648.62857501,-0023.90708137,0523.09500000,0000.00000000,0000.00400000,0180.00000000,
P00006=0648.47690574,-0023.85926023,0523.09500000,0000.00000000,0000.00400000,0180.00000000,
P00007=0648.28413482,-0023.79847979,0523.09500000,0000.00000000,0000.00400000,0180.00000000,
P00008=0648.04155977,-0023.72199618,0523.09500000,0000.00000000,0000.00400000,0180.00000000,
P00009=0647.73934800,-0023.62670917,0523.09500000,0000.00000000,0000.00400000,0180.00000000,
P00010=0647.36658114,-0023.50917623,0523.09500000,0000.00000000,0000.00400000,0180.00000000,
P00011=0646.91135847,-0023.36564507,0523.09500000,0000.00000000,0000.00400000,0180.00000000,
P00012=0646.36096771,-0023.19210753,0523.09500000,0000.00000000,0000.00400000,0180.00000000,
P00013=0645.70212908,-0022.98437651,0523.09500000,0000.00000000,0000.00400000,0180.00000000,
P00014=0644.92131499,-0022.73818677,0523.09500000,0000.00000000,0000.00400000,0180.00000000,
P00015=0644.00514324,-0022.44931893,0523.09500000,0000.00000000,0000.00400000,0180.00000000,
P00016=0642.94083648,-0022.11374430,0523.09500000,0000.00000000,0000.00400000,0180.00000000,
P00017=0641.71673502,-0021.72778659,0523.09500000,0000.00000000,0000.00400000,0180.00000000,
P00018=0640.32284446,-0021.28829459,0523.09500000,0000.00000000,0000.00400000,0180.00000000,
P00019=0638.75139430,-0020.79281825,0523.09500000,0000.00000000,0000.00400000,0180.00000000,
P00020=0636.99737966,-0020.23977956,0523.09500000,0000.00000000,0000.00400000,0180.00000000,
P00021=0635.05905514,-0019.62862819,0523.09500000,0000.00000000,0000.00400000,0180.00000000,
P00022=0632.93834928,-0018.95997220,0523.09500000,0000.00000000,0000.00400000,0180.00000000,
P00023=0630.64116913,-0018.23567408,0523.09500000,0000.00000000,0000.00400000,0180.00000000,
P00024=0628.17756828,-0017.45890372,0523.09500000,0000.00000000,0000.00400000,0180.00000000,
P00025=0625.56175761,-0016.63414178,0523.09500000,0000.00000000,0000.00400000,0180.00000000,
P00026=0622.81194599,-0015.76712951,0523.09500000,0000.00000000,0000.00400000,0180.00000000,
P00027=0619.95000779,-0014.86476386,0523.09500000,0000.00000000,0000.00400000,0180.00000000,
P00028=0617.00098430,-0013.93494032,0523.09500000,0000.00000000,0000.00400000,0180.00000000,
P00029=0613.99243671,-0012.98634891,0523.09500000,0000.00000000,0000.00400000,0180.00000000,
P00030=0610.95367803,-0012.02823198,0523.09500000,0000.00000000,0000.00400000,0180.00000000,
P00031=0607.91491935,-0011.07011505,0523.09500000,0000.00000000,0000.00400000,0180.00000000,
P00032=0604.90637176,-0010.12152364,0523.09500000,0000.00000000,0000.00400000,0180.00000000,
P00033=0601.95734827,-0009.19170010,0523.09500000,0000.00000000,0000.00400000,0180.00000000,
P00034=0599.09541007,-0008.28933445,0523.09500000,0000.00000000,0000.00400000,0180.00000000,
P00035=0596.34559845,-0007.42232218,0523.09500000,0000.00000000,0000.00400000,0180.00000000,
P00036=0593.72978778,-0006.59756024,0523.09500000,0000.00000000,0000.00400000,0180.00000000,
P00037=0591.26618693,-0005.82078988,0523.09500000,0000.00000000,0000.00400000,0180.00000000,
P00038=0588.96900678,-0005.09649176,0523.09500000,0000.00000000,0000.00400000,0180.00000000,
P00039=0586.84830092,-0004.42783577,0523.09500000,0000.00000000,0000.00400000,0180.00000000,
P00040=0584.90997640,-0003.81668440,0523.09500000,0000.00000000,0000.00400000,0180.00000000,
P00041=0583.15596176,-0003.26364571,0523.09500000,0000.00000000,0000.00400000,0180.00000000,
P00042=0581.58451160,-0002.76816937,0523.09500000,0000.00000000,0000.00400000,0180.00000000,
P00043=0580.19062104,-0002.32867737,0523.09500000,0000.00000000,0000.00400000,0180.00000000,
P00044=0578.96651958,-0001.94271966,0523.09500000,0000.00000000,0000.00400000,0180.00000000,
P00045=0577.90221282,-0001.60714503,0523.09500000,0000.00000000,0000.00400000,0180.00000000,
P00046=0576.98604107,-0001.31827719,0523.09500000,0000.00000000,0000.00400000,0180.00000000,
P00047=0576.20522698,-0001.07208745,0523.09500000,0000.00000000,0000.00400000,0180.00000000,
P00048=0575.54638835,-0000.86435643,0523.09500000,0000.00000000,0000.00400000,0180.00000000,
P00049=0574.99599759,-0000.69081889,0523.09500000,0000.00000000,0000.00400000,0180.00000000,
P00050=0574.54077492,-0000.54728773,0523.09500000,0000.00000000,0000.00400000,0180.00000000,
P00051=0574.16800806,-0000.42975479,0523.09500000,0000.00000000,0000.00400000,0180.00000000,
P00052=0573.86579629,-0000.33446778,0523.09500000,0000.00000000,0000.00400000,0180.00000000,
P00053=0573.62322124,-0000.25798417,0523.09500000,0000.00000000,0000.00400000,0180.00000000,
P00054=0573.43045032,-0000.19720373,0523.09500000,0000.00000000,0000.00400000,0180.00000000,
P00055=0573.27878105,-0000.14938259,0523.09500000,0000.00000000,0000.00400000,0180.00000000,
P00056=0573.16063632,-0000.11213170,0523.09500000,0000.00000000,0000.00400000,0180.00000000,
P00057=0573.06952093,-0000.08340313,0523.09500000,0000.00000000,0000.00400000,0180.00000000,
P00058=0572.99994969,-0000.06146740,0523.09500000,0000.00000000,0000.00400000,0180.00000000,
P00059=0572.94735662,-0000.04488487,0523.09500000,0000.00000000,0000.00400000,0180.00000000,
P00060=0572.90799365,-0000.03247377,0523.09500000,0000.00000000,0000.00400000,0180.00000000,
///TOOL1
P00061=0678.14973529,0027.49461923,0908.48000000,0180.00000000,0000.00000000,0000.00000000
P00062=0678.14723548,0027.47563129,0908.48000000,0180.00000000,0000.00000000,0000.00000000
P00063=0678.14392868,0027.45051364,0908.48000000,0180.00000000,0000.00000000,0000.00000000
P00064=0678.13959786,0027.41761779,0908.48000000,0180.00000000,0000.00000000,0000.00000000
P00065=0678.13398231,0027.37496342,0908.48000000,0180.00000000,0000.00000000,0000.00000000
P00066=0678.12677329,0027.32020550,0908.48000000,0180.00000000,0000.00000000,0000.00000000
P00067=0678.11761066,0027.25060845,0908.48000000,0180.00000000,0000.00000000,0000.00000000
P00068=0678.10608079,0027.16303038,0908.48000000,0180.00000000,0000.00000000,0000.00000000
P00069=0678.09171632,0027.05392135,0908.48000000,0180.00000000,0000.00000000,0000.00000000
P00070=0678.07399828,0026.91933947,0908.48000000,0180.00000000,0000.00000000,0000.00000000
P00071=0678.05236101,0026.75498816,0908.48000000,0180.00000000,0000.00000000,0000.00000000
P00072=0678.02620030,0026.55627784,0908.48000000,0180.00000000,0000.00000000,0000.00000000
P00073=0677.99488494,0026.31841405,0908.48000000,0180.00000000,0000.00000000,0000.00000000
P00074=0677.95777194,0026.03651284,0908.48000000,0180.00000000,0000.00000000,0000.00000000
P00075=0677.91422524,0025.70574278,0908.48000000,0180.00000000,0000.00000000,0000.00000000
P00076=0677.86363751,0025.32149081,0908.48000000,0180.00000000,0000.00000000,0000.00000000
P00077=0677.80545455,0024.87954735,0908.48000000,0180.00000000,0000.00000000,0000.00000000
P00078=0677.73920132,0024.37630409,0908.48000000,0180.00000000,0000.00000000,0000.00000000
P00079=0677.66450847,0023.80895561,0908.48000000,0180.00000000,0000.00000000,0000.00000000
P00080=0677.58113812,0023.17569495,0908.48000000,0180.00000000,0000.00000000,0000.00000000
P00081=0677.48900732,0022.47589199,0908.48000000,0180.00000000,0000.00000000,0000.00000000
P00082=0677.38820771,0021.71024297,0908.48000000,0180.00000000,0000.00000000,0000.00000000
P00083=0677.27902008,0020.88088057,0908.48000000,0180.00000000,0000.00000000,0000.00000000
P00084=0677.16192228,0019.99143447,0908.48000000,0180.00000000,0000.00000000,0000.00000000
P00085=0677.03758977,0019.04703530,0908.48000000,0180.00000000,0000.00000000,0000.00000000
P00086=0676.90688804,0018.05425709,0908.48000000,0180.00000000,0000.00000000,0000.00000000
P00087=0676.77085680,0017.02099727,0908.48000000,0180.00000000,0000.00000000,0000.00000000
P00088=0676.63068630,0015.95629662,0908.48000000,0180.00000000,0000.00000000,0000.00000000
P00089=0676.48768655,0014.87010568,0908.48000000,0180.00000000,0000.00000000,0000.00000000
P00090=0676.34325083,0013.77300747,0908.48000000,0180.00000000,0000.00000000,0000.00000000
P00091=0676.19881512,0012.67590927,0908.48000000,0180.00000000,0000.00000000,0000.00000000
P00092=0676.05581536,0011.58971833,0908.48000000,0180.00000000,0000.00000000,0000.00000000
P00093=0675.91564486,0010.52501768,0908.48000000,0180.00000000,0000.00000000,0000.00000000
P00094=0675.77961363,0009.49175786,0908.48000000,0180.00000000,0000.00000000,0000.00000000
P00095=0675.64891190,0008.49897965,0908.48000000,0180.00000000,0000.00000000,0000.00000000
P00096=0675.52457939,0007.55458048,0908.48000000,0180.00000000,0000.00000000,0000.00000000
P00097=0675.40748159,0006.66513438,0908.48000000,0180.00000000,0000.00000000,0000.00000000
P00098=0675.29829396,0005.83577198,0908.48000000,0180.00000000,0000.00000000,0000.00000000
P00099=0675.19749435,0005.07012296,0908.48000000,0180.00000000,0000.00000000,0000.00000000
P00100=0675.10536354,0004.37032000,0908.48000000,0180.00000000,0000.00000000,0000.00000000
P00101=0675.02199320,0003.73705934,0908.48000000,0180.00000000,0000.00000000,0000.00000000
P00102=0674.94730035,0003.16971086,0908.48000000,0180.00000000,0000.00000000,0000.00000000
P00103=0674.88104712,0002.66646760,0908.48000000,0180.00000000,0000.00000000,0000.00000000
P00104=0674.82286416,0002.22452414,0908.48000000,0180.00000000,0000.00000000,0000.00000000
P00105=0674.77227643,0001.84027216,0908.48000000,0180.00000000,0000.00000000,0000.00000000
P00106=0674.72872972,0001.50950211,0908.48000000,0180.00000000,0000.00000000,0000.00000000
P00107=0674.69161672,0001.22760090,0908.48000000,0180.00000000,0000.00000000,0000.00000000
P00108=0674.66030136,0000.98973711,0908.48000000,0180.00000000,0000.00000000,0000.00000000
P00109=0674.63414065,0000.79102679,0908.48000000,0180.00000000,0000.00000000,0000.00000000
P00110=0674.61250339,0000.62667547,0908.48000000,0180.00000000,0000.00000000,0000.00000000
P00111=0674.59478535,0000.49209360,0908.48000000,0180.00000000,0000.00000000,0000.00000000
P00112=0674.58042088,0000.38298457,0908.48000000,0180.00000000,0000.00000000,0000.00000000
P00113=0674.56889100,0000.29540649,0908.48000000,0180.00000000,0000.00000000,0000.00000000
P00114=0674.55972838,0000.22580945,0908.48000000,0180.00000000,0000.00000000,0000.00000000
P00115=0674.55251936,0000.17105153,0908.48000000,0180.00000000,0000.00000000,0000.00000000
P00116=0674.54690381,0000.12839715,0908.48000000,0180.00000000,0000.00000000,0000.00000000
P00117=0674.54257299,0000.09550131,0908.48000000,0180.00000000,0000.00000000,0000.00000000
P00118=0674.53926618,0000.07038366,0908.48000000,0180.00000000,0000.00000000,0000.00000000
P00119=0674.53676638,0000.05139572,0908.48000000,0180.00000000,0000.00000000,0000.00000000
P00120=0674.53489541,0000.03718431,0908.48000000,0180.00000000,0000.00000000,0000.00000000
//INST
///DATE 2017/03/31 08:11
///COMM PLAYINGTWOROBOTS
///ATTR SC,RW
///GROUP1 RB1
///GROUP2 RB2
NOP
DOUT OT#(16) OFF
DOUT OT#(15) ON
DOUT OT#(16) ON
MOVL P00001 V=0003.4465852  +MOVL P00061 V=0001.1969865
MOVL P00002 V=0004.5592174  +MOVL P00062 V=0001.5833996
MOVL P00003 V=0005.9710711  +MOVL P00063 V=0002.0737312
MOVL P00004 V=0007.7423865  +MOVL P00064 V=0002.6889026
MOVL P00005 V=0009.9393530  +MOVL P00065 V=0003.4519011
MOVL P00006 V=0012.6328705  +MOVL P00066 V=0004.3873499
MOVL P00007 V=0015.8966875  +MOVL P00067 V=0005.5208616
MOVL P00008 V=0019.8048652  +MOVL P00068 V=0006.8781575
MOVL P00009 V=0024.4285569  +MOVL P00069 V=0008.4839488
MOVL P00010 V=0029.8321393  +MOVL P00070 V=0010.3605933
MOVL P00011 V=0036.0687965  +MOVL P00071 V=0012.5265616
MOVL P00012 V=0043.1757182  +MOVL P00072 V=0014.9947696
MOVL P00013 V=0051.1691447  +MOVL P00073 V=0017.7708575
MOVL P00014 V=0060.0395478  +MOVL P00074 V=0020.8515161
MOVL P00015 V=0069.7472898  +MOVL P00075 V=0024.2229796
MOVL P00016 V=0080.2191268  +MOVL P00076 V=0027.8598104
MOVL P00017 V=0091.3459282  +MOVL P00077 V=0031.7241079
MOVL P00018 V=0102.9819536  +MOVL P00078 V=0035.7652572
MOVL P00019 V=0114.9459649  +MOVL P00079 V=0039.9203147
MOVL P00020 V=0127.0243571  +MOVL P00080 V=0044.1150963
MOVL P00021 V=0138.9763662  +MOVL P00081 V=0048.2659855
MOVL P00022 V=0150.5412682  +MOVL P00082 V=0052.2824338
MOVL P00023 V=0161.4473276  +MOVL P00083 V=0056.0700685
MOVL P00024 V=0171.4221049  +MOVL P00084 V=0059.5342722
MOVL P00025 V=0180.2035983  +MOVL P00085 V=0062.5840529
MOVL P00026 V=0187.5515971  +MOVL P00086 V=0065.1359861
MOVL P00027 V=0193.2585637  +MOVL P00087 V=0067.1179948
MOVL P00028 V=0197.1593608  +MOVL P00088 V=0068.4727274
MOVL P00029 V=0199.1391864  +MOVL P00089 V=0069.1603136
MOVL P00030 V=0199.1391864  +MOVL P00090 V=0069.1603136
MOVL P00031 V=0197.1593608  +MOVL P00091 V=0068.4727274
MOVL P00032 V=0193.2585637  +MOVL P00092 V=0067.1179948
MOVL P00033 V=0187.5515971  +MOVL P00093 V=0065.1359861
MOVL P00034 V=0180.2035983  +MOVL P00094 V=0062.5840529
MOVL P00035 V=0171.4221049  +MOVL P00095 V=0059.5342722
MOVL P00036 V=0161.4473276  +MOVL P00096 V=0056.0700685
MOVL P00037 V=0150.5412682  +MOVL P00097 V=0052.2824338
MOVL P00038 V=0138.9763662  +MOVL P00098 V=0048.2659855
MOVL P00039 V=0127.0243571  +MOVL P00099 V=0044.1150963
MOVL P00040 V=0114.9459649  +MOVL P00100 V=0039.9203147
MOVL P00041 V=0102.9819536  +MOVL P00101 V=0035.7652572
MOVL P00042 V=0091.3459282  +MOVL P00102 V=0031.7241079
MOVL P00043 V=0080.2191268  +MOVL P00103 V=0027.8598104
MOVL P00044 V=0069.7472898  +MOVL P00104 V=0024.2229796
MOVL P00045 V=0060.0395478  +MOVL P00105 V=0020.8515161
MOVL P00046 V=0051.1691447  +MOVL P00106 V=0017.7708575
MOVL P00047 V=0043.1757182  +MOVL P00107 V=0014.9947696
MOVL P00048 V=0036.0687965  +MOVL P00108 V=0012.5265616
MOVL P00049 V=0029.8321393  +MOVL P00109 V=0010.3605933
MOVL P00050 V=0024.4285569  +MOVL P00110 V=0008.4839488
MOVL P00051 V=0019.8048652  +MOVL P00111 V=0006.8781575
MOVL P00052 V=0015.8966875  +MOVL P00112 V=0005.5208616
MOVL P00053 V=0012.6328705  +MOVL P00113 V=0004.3873499
MOVL P00054 V=0009.9393530  +MOVL P00114 V=0003.4519011
MOVL P00055 V=0007.7423865  +MOVL P00115 V=0002.6889026
MOVL P00056 V=0005.9710711  +MOVL P00116 V=0002.0737312
MOVL P00057 V=0004.5592174  +MOVL P00117 V=0001.5833996
MOVL P00058 V=0003.4465852  +MOVL P00118 V=0001.1969865
MOVL P00059 V=0002.5795763  +MOVL P00119 V=0000.8958775
MOVL P00060 V=0002.5795763  +MOVL P00120 V=0000.8958775
DOUT OT#(16) OFF
DOUT OT#(15) OFF
DOUT OT#(16) ON
END
