/JOB
//NAME GAUSSIANMOVING2
//POS
///NPOS 0,0,0,61,0,0
///TOOL 0
///POSTYPE ROBOT
///RECTAN
///RCONF 0,0,0,0,0,0,0,0,0,0,0,0,0,0,0,0,0,0,0,0,0,0,0,0
P00000=10.000,0.000,0.000,0.0000,0.0000,0.0000
///POSTYPE BASE
P00001=0352.65573494,0000.00000000,0483.09500000,0000.00000000,0000.00400000,0180.00000000,
P00002=0352.60058957,0000.00000000,0483.09500000,0000.00000000,0000.00400000,0180.00000000,
P00003=0352.52764210,0000.00000000,0483.09500000,0000.00000000,0000.00400000,0180.00000000,
P00004=0352.43210496,0000.00000000,0483.09500000,0000.00000000,0000.00400000,0180.00000000,
P00005=0352.30822677,0000.00000000,0483.09500000,0000.00000000,0000.00400000,0180.00000000,
P00006=0352.14919713,0000.00000000,0483.09500000,0000.00000000,0000.00400000,0180.00000000,
P00007=0351.94707120,0000.00000000,0483.09500000,0000.00000000,0000.00400000,0180.00000000,
P00008=0351.69272420,0000.00000000,0483.09500000,0000.00000000,0000.00400000,0180.00000000,
P00009=0351.37584635,0000.00000000,0483.09500000,0000.00000000,0000.00400000,0180.00000000,
P00010=0350.98498944,0000.00000000,0483.09500000,0000.00000000,0000.00400000,0180.00000000,
P00011=0350.50767521,0000.00000000,0483.09500000,0000.00000000,0000.00400000,0180.00000000,
P00012=0349.93057447,0000.00000000,0483.09500000,0000.00000000,0000.00400000,0180.00000000,
P00013=0349.23976298,0000.00000000,0483.09500000,0000.00000000,0000.00400000,0180.00000000,
P00014=0348.42105666,0000.00000000,0483.09500000,0000.00000000,0000.00400000,0180.00000000,
P00015=0347.46042390,0000.00000000,0483.09500000,0000.00000000,0000.00400000,0180.00000000,
P00016=0346.34446726,0000.00000000,0483.09500000,0000.00000000,0000.00400000,0180.00000000,
P00017=0345.06096123,0000.00000000,0483.09500000,0000.00000000,0000.00400000,0180.00000000,
P00018=0343.59942638,0000.00000000,0483.09500000,0000.00000000,0000.00400000,0180.00000000,
P00019=0341.95171512,0000.00000000,0483.09500000,0000.00000000,0000.00400000,0180.00000000,
P00020=0340.11257969,0000.00000000,0483.09500000,0000.00000000,0000.00400000,0180.00000000,
P00021=0338.08018997,0000.00000000,0483.09500000,0000.00000000,0000.00400000,0180.00000000,
P00022=0335.85656811,0000.00000000,0483.09500000,0000.00000000,0000.00400000,0180.00000000,
P00023=0333.44790782,0000.00000000,0483.09500000,0000.00000000,0000.00400000,0180.00000000,
P00024=0330.86475058,0000.00000000,0483.09500000,0000.00000000,0000.00400000,0180.00000000,
P00025=0328.12199690,0000.00000000,0483.09500000,0000.00000000,0000.00400000,0180.00000000,
P00026=0325.23873933,0000.00000000,0483.09500000,0000.00000000,0000.00400000,0180.00000000,
P00027=0322.23791378,0000.00000000,0483.09500000,0000.00000000,0000.00400000,0180.00000000,
P00028=0319.14577676,0000.00000000,0483.09500000,0000.00000000,0000.00400000,0180.00000000,
P00029=0315.99122698,0000.00000000,0483.09500000,0000.00000000,0000.00400000,0180.00000000,
P00030=0312.80500000,0000.00000000,0483.09500000,0000.00000000,0000.00400000,0180.00000000,
P00031=0309.61877302,0000.00000000,0483.09500000,0000.00000000,0000.00400000,0180.00000000,
P00032=0306.46422324,0000.00000000,0483.09500000,0000.00000000,0000.00400000,0180.00000000,
P00033=0303.37208622,0000.00000000,0483.09500000,0000.00000000,0000.00400000,0180.00000000,
P00034=0300.37126067,0000.00000000,0483.09500000,0000.00000000,0000.00400000,0180.00000000,
P00035=0297.48800310,0000.00000000,0483.09500000,0000.00000000,0000.00400000,0180.00000000,
P00036=0294.74524942,0000.00000000,0483.09500000,0000.00000000,0000.00400000,0180.00000000,
P00037=0292.16209218,0000.00000000,0483.09500000,0000.00000000,0000.00400000,0180.00000000,
P00038=0289.75343189,0000.00000000,0483.09500000,0000.00000000,0000.00400000,0180.00000000,
P00039=0287.52981003,0000.00000000,0483.09500000,0000.00000000,0000.00400000,0180.00000000,
P00040=0285.49742031,0000.00000000,0483.09500000,0000.00000000,0000.00400000,0180.00000000,
P00041=0283.65828488,0000.00000000,0483.09500000,0000.00000000,0000.00400000,0180.00000000,
P00042=0282.01057362,0000.00000000,0483.09500000,0000.00000000,0000.00400000,0180.00000000,
P00043=0280.54903877,0000.00000000,0483.09500000,0000.00000000,0000.00400000,0180.00000000,
P00044=0279.26553274,0000.00000000,0483.09500000,0000.00000000,0000.00400000,0180.00000000,
P00045=0278.14957610,0000.00000000,0483.09500000,0000.00000000,0000.00400000,0180.00000000,
P00046=0277.18894334,0000.00000000,0483.09500000,0000.00000000,0000.00400000,0180.00000000,
P00047=0276.37023702,0000.00000000,0483.09500000,0000.00000000,0000.00400000,0180.00000000,
P00048=0275.67942553,0000.00000000,0483.09500000,0000.00000000,0000.00400000,0180.00000000,
P00049=0275.10232479,0000.00000000,0483.09500000,0000.00000000,0000.00400000,0180.00000000,
P00050=0274.62501056,0000.00000000,0483.09500000,0000.00000000,0000.00400000,0180.00000000,
P00051=0274.23415365,0000.00000000,0483.09500000,0000.00000000,0000.00400000,0180.00000000,
P00052=0273.91727580,0000.00000000,0483.09500000,0000.00000000,0000.00400000,0180.00000000,
P00053=0273.66292880,0000.00000000,0483.09500000,0000.00000000,0000.00400000,0180.00000000,
P00054=0273.46080287,0000.00000000,0483.09500000,0000.00000000,0000.00400000,0180.00000000,
P00055=0273.30177323,0000.00000000,0483.09500000,0000.00000000,0000.00400000,0180.00000000,
P00056=0273.17789504,0000.00000000,0483.09500000,0000.00000000,0000.00400000,0180.00000000,
P00057=0273.08235790,0000.00000000,0483.09500000,0000.00000000,0000.00400000,0180.00000000,
P00058=0273.00941043,0000.00000000,0483.09500000,0000.00000000,0000.00400000,0180.00000000,
P00059=0272.95426506,0000.00000000,0483.09500000,0000.00000000,0000.00400000,0180.00000000,
P00060=0272.91299184,0000.00000000,0483.09500000,0000.00000000,0000.00400000,0180.00000000,
//INST
///DATE 2017/03/31 08:11
///ATTR SC,RW
///GROUP1 RB1
NOP
MOVL P00001 V=0003.4465852
MOVL P00002 V=0004.5592174
MOVL P00003 V=0005.9710711
MOVL P00004 V=0007.7423865
MOVL P00005 V=0009.9393530
MOVL P00006 V=0012.6328705
MOVL P00007 V=0015.8966875
MOVL P00008 V=0019.8048652
MOVL P00009 V=0024.4285569
MOVL P00010 V=0029.8321393
MOVL P00011 V=0036.0687965
MOVL P00012 V=0043.1757182
MOVL P00013 V=0051.1691447
MOVL P00014 V=0060.0395478
MOVL P00015 V=0069.7472898
MOVL P00016 V=0080.2191268
MOVL P00017 V=0091.3459282
MOVL P00018 V=0102.9819536
MOVL P00019 V=0114.9459649
MOVL P00020 V=0127.0243571
MOVL P00021 V=0138.9763662
MOVL P00022 V=0150.5412682
MOVL P00023 V=0161.4473276
MOVL P00024 V=0171.4221049
MOVL P00025 V=0180.2035983
MOVL P00026 V=0187.5515971
MOVL P00027 V=0193.2585637
MOVL P00028 V=0197.1593608
MOVL P00029 V=0199.1391864
MOVL P00030 V=0199.1391864
MOVL P00031 V=0197.1593608
MOVL P00032 V=0193.2585637
MOVL P00033 V=0187.5515971
MOVL P00034 V=0180.2035983
MOVL P00035 V=0171.4221049
MOVL P00036 V=0161.4473276
MOVL P00037 V=0150.5412682
MOVL P00038 V=0138.9763662
MOVL P00039 V=0127.0243571
MOVL P00040 V=0114.9459649
MOVL P00041 V=0102.9819536
MOVL P00042 V=0091.3459282
MOVL P00043 V=0080.2191268
MOVL P00044 V=0069.7472898
MOVL P00045 V=0060.0395478
MOVL P00046 V=0051.1691447
MOVL P00047 V=0043.1757182
MOVL P00048 V=0036.0687965
MOVL P00049 V=0029.8321393
MOVL P00050 V=0024.4285569
MOVL P00051 V=0019.8048652
MOVL P00052 V=0015.8966875
MOVL P00053 V=0012.6328705
MOVL P00054 V=0009.9393530
MOVL P00055 V=0007.7423865
MOVL P00056 V=0005.9710711
MOVL P00057 V=0004.5592174
MOVL P00058 V=0003.4465852
MOVL P00059 V=0002.5795763
MOVL P00060 V=0002.5795763
END
