/JOB
//NAME GAUSSIANMOVING2
//POS
///NPOS 0,0,0,61,0,0
///TOOL 0
///POSTYPE ROBOT
///RECTAN
///RCONF 0,0,0,0,0,0,0,0,0,0,0,0,0,0,0,0,0,0,0,0,0,0,0,0
P00000=10.000,0.000,0.000,0.0000,0.0000,0.0000
///POSTYPE BASE
P00001=0240.29199184,0000.00000000,0593.16200000,0000.00000000,-0001.44330000,-0179.99820000,
P00002=0240.33326506,0000.00000000,0593.16200000,0000.00000000,-0001.44330000,-0179.99820000,
P00003=0240.38841043,0000.00000000,0593.16200000,0000.00000000,-0001.44330000,-0179.99820000,
P00004=0240.46135790,0000.00000000,0593.16200000,0000.00000000,-0001.44330000,-0179.99820000,
P00005=0240.55689504,0000.00000000,0593.16200000,0000.00000000,-0001.44330000,-0179.99820000,
P00006=0240.68077323,0000.00000000,0593.16200000,0000.00000000,-0001.44330000,-0179.99820000,
P00007=0240.83980287,0000.00000000,0593.16200000,0000.00000000,-0001.44330000,-0179.99820000,
P00008=0241.04192880,0000.00000000,0593.16200000,0000.00000000,-0001.44330000,-0179.99820000,
P00009=0241.29627580,0000.00000000,0593.16200000,0000.00000000,-0001.44330000,-0179.99820000,
P00010=0241.61315365,0000.00000000,0593.16200000,0000.00000000,-0001.44330000,-0179.99820000,
P00011=0242.00401056,0000.00000000,0593.16200000,0000.00000000,-0001.44330000,-0179.99820000,
P00012=0242.48132479,0000.00000000,0593.16200000,0000.00000000,-0001.44330000,-0179.99820000,
P00013=0243.05842553,0000.00000000,0593.16200000,0000.00000000,-0001.44330000,-0179.99820000,
P00014=0243.74923702,0000.00000000,0593.16200000,0000.00000000,-0001.44330000,-0179.99820000,
P00015=0244.56794334,0000.00000000,0593.16200000,0000.00000000,-0001.44330000,-0179.99820000,
P00016=0245.52857610,0000.00000000,0593.16200000,0000.00000000,-0001.44330000,-0179.99820000,
P00017=0246.64453274,0000.00000000,0593.16200000,0000.00000000,-0001.44330000,-0179.99820000,
P00018=0247.92803877,0000.00000000,0593.16200000,0000.00000000,-0001.44330000,-0179.99820000,
P00019=0249.38957362,0000.00000000,0593.16200000,0000.00000000,-0001.44330000,-0179.99820000,
P00020=0251.03728488,0000.00000000,0593.16200000,0000.00000000,-0001.44330000,-0179.99820000,
P00021=0252.87642031,0000.00000000,0593.16200000,0000.00000000,-0001.44330000,-0179.99820000,
P00022=0254.90881003,0000.00000000,0593.16200000,0000.00000000,-0001.44330000,-0179.99820000,
P00023=0257.13243189,0000.00000000,0593.16200000,0000.00000000,-0001.44330000,-0179.99820000,
P00024=0259.54109218,0000.00000000,0593.16200000,0000.00000000,-0001.44330000,-0179.99820000,
P00025=0262.12424942,0000.00000000,0593.16200000,0000.00000000,-0001.44330000,-0179.99820000,
P00026=0264.86700310,0000.00000000,0593.16200000,0000.00000000,-0001.44330000,-0179.99820000,
P00027=0267.75026067,0000.00000000,0593.16200000,0000.00000000,-0001.44330000,-0179.99820000,
P00028=0270.75108622,0000.00000000,0593.16200000,0000.00000000,-0001.44330000,-0179.99820000,
P00029=0273.84322324,0000.00000000,0593.16200000,0000.00000000,-0001.44330000,-0179.99820000,
P00030=0276.99777302,0000.00000000,0593.16200000,0000.00000000,-0001.44330000,-0179.99820000,
P00031=0280.18400000,0000.00000000,0593.16200000,0000.00000000,-0001.44330000,-0179.99820000,
P00032=0283.37022698,0000.00000000,0593.16200000,0000.00000000,-0001.44330000,-0179.99820000,
P00033=0286.52477676,0000.00000000,0593.16200000,0000.00000000,-0001.44330000,-0179.99820000,
P00034=0289.61691378,0000.00000000,0593.16200000,0000.00000000,-0001.44330000,-0179.99820000,
P00035=0292.61773933,0000.00000000,0593.16200000,0000.00000000,-0001.44330000,-0179.99820000,
P00036=0295.50099690,0000.00000000,0593.16200000,0000.00000000,-0001.44330000,-0179.99820000,
P00037=0298.24375058,0000.00000000,0593.16200000,0000.00000000,-0001.44330000,-0179.99820000,
P00038=0300.82690782,0000.00000000,0593.16200000,0000.00000000,-0001.44330000,-0179.99820000,
P00039=0303.23556811,0000.00000000,0593.16200000,0000.00000000,-0001.44330000,-0179.99820000,
P00040=0305.45918997,0000.00000000,0593.16200000,0000.00000000,-0001.44330000,-0179.99820000,
P00041=0307.49157969,0000.00000000,0593.16200000,0000.00000000,-0001.44330000,-0179.99820000,
P00042=0309.33071512,0000.00000000,0593.16200000,0000.00000000,-0001.44330000,-0179.99820000,
P00043=0310.97842638,0000.00000000,0593.16200000,0000.00000000,-0001.44330000,-0179.99820000,
P00044=0312.43996123,0000.00000000,0593.16200000,0000.00000000,-0001.44330000,-0179.99820000,
P00045=0313.72346726,0000.00000000,0593.16200000,0000.00000000,-0001.44330000,-0179.99820000,
P00046=0314.83942390,0000.00000000,0593.16200000,0000.00000000,-0001.44330000,-0179.99820000,
P00047=0315.80005666,0000.00000000,0593.16200000,0000.00000000,-0001.44330000,-0179.99820000,
P00048=0316.61876298,0000.00000000,0593.16200000,0000.00000000,-0001.44330000,-0179.99820000,
P00049=0317.30957447,0000.00000000,0593.16200000,0000.00000000,-0001.44330000,-0179.99820000,
P00050=0317.88667521,0000.00000000,0593.16200000,0000.00000000,-0001.44330000,-0179.99820000,
P00051=0318.36398944,0000.00000000,0593.16200000,0000.00000000,-0001.44330000,-0179.99820000,
P00052=0318.75484635,0000.00000000,0593.16200000,0000.00000000,-0001.44330000,-0179.99820000,
P00053=0319.07172420,0000.00000000,0593.16200000,0000.00000000,-0001.44330000,-0179.99820000,
P00054=0319.32607120,0000.00000000,0593.16200000,0000.00000000,-0001.44330000,-0179.99820000,
P00055=0319.52819713,0000.00000000,0593.16200000,0000.00000000,-0001.44330000,-0179.99820000,
P00056=0319.68722677,0000.00000000,0593.16200000,0000.00000000,-0001.44330000,-0179.99820000,
P00057=0319.81110496,0000.00000000,0593.16200000,0000.00000000,-0001.44330000,-0179.99820000,
P00058=0319.90664210,0000.00000000,0593.16200000,0000.00000000,-0001.44330000,-0179.99820000,
P00059=0319.97958957,0000.00000000,0593.16200000,0000.00000000,-0001.44330000,-0179.99820000,
P00060=0320.03473494,0000.00000000,0593.16200000,0000.00000000,-0001.44330000,-0179.99820000,
//INST
///DATE 2017/03/31 08:11
///ATTR SC,RW
///GROUP1 RB1
NOP
MOVL P00001 V=0002.5795763
MOVL P00002 V=0003.4465852
MOVL P00003 V=0004.5592174
MOVL P00004 V=0005.9710711
MOVL P00005 V=0007.7423865
MOVL P00006 V=0009.9393530
MOVL P00007 V=0012.6328705
MOVL P00008 V=0015.8966875
MOVL P00009 V=0019.8048652
MOVL P00010 V=0024.4285569
MOVL P00011 V=0029.8321393
MOVL P00012 V=0036.0687965
MOVL P00013 V=0043.1757182
MOVL P00014 V=0051.1691447
MOVL P00015 V=0060.0395478
MOVL P00016 V=0069.7472898
MOVL P00017 V=0080.2191268
MOVL P00018 V=0091.3459282
MOVL P00019 V=0102.9819536
MOVL P00020 V=0114.9459649
MOVL P00021 V=0127.0243571
MOVL P00022 V=0138.9763662
MOVL P00023 V=0150.5412682
MOVL P00024 V=0161.4473276
MOVL P00025 V=0171.4221049
MOVL P00026 V=0180.2035983
MOVL P00027 V=0187.5515971
MOVL P00028 V=0193.2585637
MOVL P00029 V=0197.1593608
MOVL P00030 V=0199.1391864
MOVL P00031 V=0199.1391864
MOVL P00032 V=0197.1593608
MOVL P00033 V=0193.2585637
MOVL P00034 V=0187.5515971
MOVL P00035 V=0180.2035983
MOVL P00036 V=0171.4221049
MOVL P00037 V=0161.4473276
MOVL P00038 V=0150.5412682
MOVL P00039 V=0138.9763662
MOVL P00040 V=0127.0243571
MOVL P00041 V=0114.9459649
MOVL P00042 V=0102.9819536
MOVL P00043 V=0091.3459282
MOVL P00044 V=0080.2191268
MOVL P00045 V=0069.7472898
MOVL P00046 V=0060.0395478
MOVL P00047 V=0051.1691447
MOVL P00048 V=0043.1757182
MOVL P00049 V=0036.0687965
MOVL P00050 V=0029.8321393
MOVL P00051 V=0024.4285569
MOVL P00052 V=0019.8048652
MOVL P00053 V=0015.8966875
MOVL P00054 V=0012.6328705
MOVL P00055 V=0009.9393530
MOVL P00056 V=0007.7423865
MOVL P00057 V=0005.9710711
MOVL P00058 V=0004.5592174
MOVL P00059 V=0003.4465852
MOVL P00060 V=0003.4465852
END
