/JOB
//NAME GAUSSIANMOVING2
//POS
///NPOS 0,0,0,61,0,0
///TOOL 0
///POSTYPE ROBOT
///RECTAN
///RCONF 0,0,0,0,0,0,0,0,0,0,0,0,0,0,0,0,0,0,0,0,0,0,0,0
P00000=10.000,0.000,0.000,0.0000,0.0000,0.0000
///POSTYPE BASE
///TOOL1
P00001=0751.65988712,-0020.66689097,0908.48000000,0180.00000000,0000.00000000,0000.00000000
P00002=0751.60662079,-0020.65261830,0908.48000000,0180.00000000,0000.00000000,0000.00000000
P00003=0751.53615894,-0020.63373810,0908.48000000,0180.00000000,0000.00000000,0000.00000000
P00004=0751.44387715,-0020.60901127,0908.48000000,0180.00000000,0000.00000000,0000.00000000
P00005=0751.32422001,-0020.57694924,0908.48000000,0180.00000000,0000.00000000,0000.00000000
P00006=0751.17060917,-0020.53578933,0908.48000000,0180.00000000,0000.00000000,0000.00000000
P00007=0750.97537052,-0020.48347529,0908.48000000,0180.00000000,0000.00000000,0000.00000000
P00008=0750.72969018,-0020.41764545,0908.48000000,0180.00000000,0000.00000000,0000.00000000
P00009=0750.42360969,-0020.33563143,0908.48000000,0180.00000000,0000.00000000,0000.00000000
P00010=0750.04607090,-0020.23447021,0908.48000000,0180.00000000,0000.00000000,0000.00000000
P00011=0749.58502076,-0020.11093220,0908.48000000,0180.00000000,0000.00000000,0000.00000000
P00012=0749.02758425,-0019.96156754,0908.48000000,0180.00000000,0000.00000000,0000.00000000
P00013=0748.36031159,-0019.78277237,0908.48000000,0180.00000000,0000.00000000,0000.00000000
P00014=0747.56950201,-0019.57087558,0908.48000000,0180.00000000,0000.00000000,0000.00000000
P00015=0746.64160202,-0019.32224553,0908.48000000,0180.00000000,0000.00000000,0000.00000000
P00016=0745.56367068,-0019.03341469,0908.48000000,0180.00000000,0000.00000000,0000.00000000
P00017=0744.32389906,-0018.70121889,0908.48000000,0180.00000000,0000.00000000,0000.00000000
P00018=0742.91216480,-0018.32294583,0908.48000000,0180.00000000,0000.00000000,0000.00000000
P00019=0741.32059794,-0017.89648678,0908.48000000,0180.00000000,0000.00000000,0000.00000000
P00020=0739.54412952,-0017.42048350,0908.48000000,0180.00000000,0000.00000000,0000.00000000
P00021=0737.58099181,-0016.89446234,0908.48000000,0180.00000000,0000.00000000,0000.00000000
P00022=0735.43313803,-0016.31894665,0908.48000000,0180.00000000,0000.00000000,0000.00000000
P00023=0733.10655085,-0015.69553949,0908.48000000,0180.00000000,0000.00000000,0000.00000000
P00024=0730.61141255,-0015.02696920,0908.48000000,0180.00000000,0000.00000000,0000.00000000
P00025=0727.96211594,-0014.31709232,0908.48000000,0180.00000000,0000.00000000,0000.00000000
P00026=0725.17710299,-0013.57085034,0908.48000000,0180.00000000,0000.00000000,0000.00000000
P00027=0722.27852808,-0012.79417954,0908.48000000,0180.00000000,0000.00000000,0000.00000000
P00028=0719.29175308,-0011.99387559,0908.48000000,0180.00000000,0000.00000000,0000.00000000
P00029=0716.24469198,-0011.17741803,0908.48000000,0180.00000000,0000.00000000,0000.00000000
P00030=0713.16703305,-0010.35276180,0908.48000000,0180.00000000,0000.00000000,0000.00000000
P00031=0710.08937412,-0009.52810558,0908.48000000,0180.00000000,0000.00000000,0000.00000000
P00032=0707.04231303,-0008.71164802,0908.48000000,0180.00000000,0000.00000000,0000.00000000
P00033=0704.05553802,-0007.91134407,0908.48000000,0180.00000000,0000.00000000,0000.00000000
P00034=0701.15696312,-0007.13467326,0908.48000000,0180.00000000,0000.00000000,0000.00000000
P00035=0698.37195016,-0006.38843129,0908.48000000,0180.00000000,0000.00000000,0000.00000000
P00036=0695.72265355,-0005.67855440,0908.48000000,0180.00000000,0000.00000000,0000.00000000
P00037=0693.22751526,-0005.00998411,0908.48000000,0180.00000000,0000.00000000,0000.00000000
P00038=0690.90092807,-0004.38657696,0908.48000000,0180.00000000,0000.00000000,0000.00000000
P00039=0688.75307429,-0003.81106127,0908.48000000,0180.00000000,0000.00000000,0000.00000000
P00040=0686.78993658,-0003.28504011,0908.48000000,0180.00000000,0000.00000000,0000.00000000
P00041=0685.01346816,-0002.80903683,0908.48000000,0180.00000000,0000.00000000,0000.00000000
P00042=0683.42190130,-0002.38257777,0908.48000000,0180.00000000,0000.00000000,0000.00000000
P00043=0682.01016704,-0002.00430472,0908.48000000,0180.00000000,0000.00000000,0000.00000000
P00044=0680.77039542,-0001.67210891,0908.48000000,0180.00000000,0000.00000000,0000.00000000
P00045=0679.69246409,-0001.38327808,0908.48000000,0180.00000000,0000.00000000,0000.00000000
P00046=0678.76456409,-0001.13464803,0908.48000000,0180.00000000,0000.00000000,0000.00000000
P00047=0677.97375452,-0000.92275124,0908.48000000,0180.00000000,0000.00000000,0000.00000000
P00048=0677.30648185,-0000.74395607,0908.48000000,0180.00000000,0000.00000000,0000.00000000
P00049=0676.74904534,-0000.59459141,0908.48000000,0180.00000000,0000.00000000,0000.00000000
P00050=0676.28799520,-0000.47105339,0908.48000000,0180.00000000,0000.00000000,0000.00000000
P00051=0675.91045642,-0000.36989218,0908.48000000,0180.00000000,0000.00000000,0000.00000000
P00052=0675.60437592,-0000.28787816,0908.48000000,0180.00000000,0000.00000000,0000.00000000
P00053=0675.35869559,-0000.22204831,0908.48000000,0180.00000000,0000.00000000,0000.00000000
P00054=0675.16345693,-0000.16973427,0908.48000000,0180.00000000,0000.00000000,0000.00000000
P00055=0675.00984609,-0000.12857437,0908.48000000,0180.00000000,0000.00000000,0000.00000000
P00056=0674.89018895,-0000.09651234,0908.48000000,0180.00000000,0000.00000000,0000.00000000
P00057=0674.79790716,-0000.07178551,0908.48000000,0180.00000000,0000.00000000,0000.00000000
P00058=0674.72744531,-0000.05290531,0908.48000000,0180.00000000,0000.00000000,0000.00000000
P00059=0674.67417898,-0000.03863264,0908.48000000,0180.00000000,0000.00000000,0000.00000000
P00060=0674.63431211,-0000.02795035,0908.48000000,0180.00000000,0000.00000000,0000.00000000
//INST
///DATE 2017/03/31 08:11
///ATTR SC,RW
///GROUP1 RB2
NOP
DOUT OT#(15) ON
MOVL P00001 V=0003.4465852
MOVL P00002 V=0004.5592174
MOVL P00003 V=0005.9710711
MOVL P00004 V=0007.7423865
MOVL P00005 V=0009.9393530
MOVL P00006 V=0012.6328705
MOVL P00007 V=0015.8966875
MOVL P00008 V=0019.8048652
MOVL P00009 V=0024.4285569
MOVL P00010 V=0029.8321393
MOVL P00011 V=0036.0687965
MOVL P00012 V=0043.1757182
MOVL P00013 V=0051.1691447
MOVL P00014 V=0060.0395478
MOVL P00015 V=0069.7472898
MOVL P00016 V=0080.2191268
MOVL P00017 V=0091.3459282
MOVL P00018 V=0102.9819536
MOVL P00019 V=0114.9459649
MOVL P00020 V=0127.0243571
MOVL P00021 V=0138.9763662
MOVL P00022 V=0150.5412682
MOVL P00023 V=0161.4473276
MOVL P00024 V=0171.4221049
MOVL P00025 V=0180.2035983
MOVL P00026 V=0187.5515971
MOVL P00027 V=0193.2585637
MOVL P00028 V=0197.1593608
MOVL P00029 V=0199.1391864
MOVL P00030 V=0199.1391864
MOVL P00031 V=0197.1593608
MOVL P00032 V=0193.2585637
MOVL P00033 V=0187.5515971
MOVL P00034 V=0180.2035983
MOVL P00035 V=0171.4221049
MOVL P00036 V=0161.4473276
MOVL P00037 V=0150.5412682
MOVL P00038 V=0138.9763662
MOVL P00039 V=0127.0243571
MOVL P00040 V=0114.9459649
MOVL P00041 V=0102.9819536
MOVL P00042 V=0091.3459282
MOVL P00043 V=0080.2191268
MOVL P00044 V=0069.7472898
MOVL P00045 V=0060.0395478
MOVL P00046 V=0051.1691447
MOVL P00047 V=0043.1757182
MOVL P00048 V=0036.0687965
MOVL P00049 V=0029.8321393
MOVL P00050 V=0024.4285569
MOVL P00051 V=0019.8048652
MOVL P00052 V=0015.8966875
MOVL P00053 V=0012.6328705
MOVL P00054 V=0009.9393530
MOVL P00055 V=0007.7423865
MOVL P00056 V=0005.9710711
MOVL P00057 V=0004.5592174
MOVL P00058 V=0003.4465852
MOVL P00059 V=0002.5795763
MOVL P00060 V=0002.5795763
DOUT OT#(15) OFF
END
