/JOB
//NAME GAUSSIANMOVING2
//POS
///NPOS 0,0,0,61,0,0
///TOOL 0
///POSTYPE ROBOT
///RECTAN
///RCONF 0,0,0,0,0,0,0,0,0,0,0,0,0,0,0,0,0,0,0,0,0,0,0,0
P00000=10.000,0.000,0.000,0.0000,0.0000,0.0000
///POSTYPE BASE
P00001=0272.88136176,0000.07636176,0483.09500000,0000.00000000,0000.00400000,0180.00000000,
P00002=0272.91054634,0000.10554634,0483.09500000,0000.00000000,0000.00400000,0180.00000000,
P00003=0272.94954000,0000.14454000,0483.09500000,0000.00000000,0000.00400000,0180.00000000,
P00004=0273.00112165,0000.19612165,0483.09500000,0000.00000000,0000.00400000,0180.00000000,
P00005=0273.06867661,0000.26367661,0483.09500000,0000.00000000,0000.00400000,0180.00000000,
P00006=0273.15627172,0000.35127172,0483.09500000,0000.00000000,0000.00400000,0180.00000000,
P00007=0273.26872266,0000.46372266,0483.09500000,0000.00000000,0000.00400000,0180.00000000,
P00008=0273.41164727,0000.60664727,0483.09500000,0000.00000000,0000.00400000,0180.00000000,
P00009=0273.59149776,0000.78649776,0483.09500000,0000.00000000,0000.00400000,0180.00000000,
P00010=0273.81556423,0001.01056423,0483.09500000,0000.00000000,0000.00400000,0180.00000000,
P00011=0274.09194181,0001.28694181,0483.09500000,0000.00000000,0000.00400000,0180.00000000,
P00012=0274.42945393,0001.62445393,0483.09500000,0000.00000000,0000.00400000,0180.00000000,
P00013=0274.83752578,0002.03252578,0483.09500000,0000.00000000,0000.00400000,0180.00000000,
P00014=0275.32600327,0002.52100327,0483.09500000,0000.00000000,0000.00400000,0180.00000000,
P00015=0275.90491606,0003.09991606,0483.09500000,0000.00000000,0000.00400000,0180.00000000,
P00016=0276.58418600,0003.77918600,0483.09500000,0000.00000000,0000.00400000,0180.00000000,
P00017=0277.37328651,0004.56828651,0483.09500000,0000.00000000,0000.00400000,0180.00000000,
P00018=0278.28086233,0005.47586233,0483.09500000,0000.00000000,0000.00400000,0180.00000000,
P00019=0279.31432353,0006.50932353,0483.09500000,0000.00000000,0000.00400000,0180.00000000,
P00020=0280.47943133,0007.67443133,0483.09500000,0000.00000000,0000.00400000,0180.00000000,
P00021=0281.77989647,0008.97489647,0483.09500000,0000.00000000,0000.00400000,0180.00000000,
P00022=0283.21701302,0010.41201302,0483.09500000,0000.00000000,0000.00400000,0180.00000000,
P00023=0284.78935112,0011.98435112,0483.09500000,0000.00000000,0000.00400000,0180.00000000,
P00024=0286.49253114,0013.68753114,0483.09500000,0000.00000000,0000.00400000,0180.00000000,
P00025=0288.31909915,0015.51409915,0483.09500000,0000.00000000,0000.00400000,0180.00000000,
P00026=0290.25851887,0017.45351887,0483.09500000,0000.00000000,0000.00400000,0180.00000000,
P00027=0292.29728985,0019.49228985,0483.09500000,0000.00000000,0000.00400000,0180.00000000,
P00028=0294.41919395,0021.61419395,0483.09500000,0000.00000000,0000.00400000,0180.00000000,
P00029=0296.60566501,0023.80066501,0483.09500000,0000.00000000,0000.00400000,0180.00000000,
P00030=0298.83626854,0026.03126854,0483.09500000,0000.00000000,0000.00400000,0180.00000000,
P00031=0301.08927125,0028.28427125,0483.09500000,0000.00000000,0000.00400000,0180.00000000,
P00032=0303.34227395,0030.53727395,0483.09500000,0000.00000000,0000.00400000,0180.00000000,
P00033=0305.57287749,0032.76787749,0483.09500000,0000.00000000,0000.00400000,0180.00000000,
P00034=0307.75934854,0034.95434854,0483.09500000,0000.00000000,0000.00400000,0180.00000000,
P00035=0309.88125264,0037.07625264,0483.09500000,0000.00000000,0000.00400000,0180.00000000,
P00036=0311.92002362,0039.11502362,0483.09500000,0000.00000000,0000.00400000,0180.00000000,
P00037=0313.85944335,0041.05444335,0483.09500000,0000.00000000,0000.00400000,0180.00000000,
P00038=0315.68601135,0042.88101135,0483.09500000,0000.00000000,0000.00400000,0180.00000000,
P00039=0317.38919138,0044.58419138,0483.09500000,0000.00000000,0000.00400000,0180.00000000,
P00040=0318.96152947,0046.15652947,0483.09500000,0000.00000000,0000.00400000,0180.00000000,
P00041=0320.39864602,0047.59364602,0483.09500000,0000.00000000,0000.00400000,0180.00000000,
P00042=0321.69911116,0048.89411116,0483.09500000,0000.00000000,0000.00400000,0180.00000000,
P00043=0322.86421897,0050.05921897,0483.09500000,0000.00000000,0000.00400000,0180.00000000,
P00044=0323.89768017,0051.09268017,0483.09500000,0000.00000000,0000.00400000,0180.00000000,
P00045=0324.80525599,0052.00025599,0483.09500000,0000.00000000,0000.00400000,0180.00000000,
P00046=0325.59435649,0052.78935649,0483.09500000,0000.00000000,0000.00400000,0180.00000000,
P00047=0326.27362643,0053.46862643,0483.09500000,0000.00000000,0000.00400000,0180.00000000,
P00048=0326.85253922,0054.04753922,0483.09500000,0000.00000000,0000.00400000,0180.00000000,
P00049=0327.34101671,0054.53601671,0483.09500000,0000.00000000,0000.00400000,0180.00000000,
P00050=0327.74908856,0054.94408856,0483.09500000,0000.00000000,0000.00400000,0180.00000000,
P00051=0328.08660069,0055.28160069,0483.09500000,0000.00000000,0000.00400000,0180.00000000,
P00052=0328.36297826,0055.55797826,0483.09500000,0000.00000000,0000.00400000,0180.00000000,
P00053=0328.58704473,0055.78204473,0483.09500000,0000.00000000,0000.00400000,0180.00000000,
P00054=0328.76689522,0055.96189522,0483.09500000,0000.00000000,0000.00400000,0180.00000000,
P00055=0328.90981984,0056.10481984,0483.09500000,0000.00000000,0000.00400000,0180.00000000,
P00056=0329.02227078,0056.21727078,0483.09500000,0000.00000000,0000.00400000,0180.00000000,
P00057=0329.10986588,0056.30486588,0483.09500000,0000.00000000,0000.00400000,0180.00000000,
P00058=0329.17742084,0056.37242084,0483.09500000,0000.00000000,0000.00400000,0180.00000000,
P00059=0329.22900250,0056.42400250,0483.09500000,0000.00000000,0000.00400000,0180.00000000,
P00060=0329.26799616,0056.46299616,0483.09500000,0000.00000000,0000.00400000,0180.00000000,
//INST
///DATE 2017/03/31 08:11
///ATTR SC,RW
///GROUP1 RB1
NOP
MOVL P00001 V=0002.5795763
MOVL P00002 V=0003.4465852
MOVL P00003 V=0004.5592174
MOVL P00004 V=0005.9710711
MOVL P00005 V=0007.7423865
MOVL P00006 V=0009.9393530
MOVL P00007 V=0012.6328705
MOVL P00008 V=0015.8966875
MOVL P00009 V=0019.8048652
MOVL P00010 V=0024.4285569
MOVL P00011 V=0029.8321393
MOVL P00012 V=0036.0687965
MOVL P00013 V=0043.1757182
MOVL P00014 V=0051.1691447
MOVL P00015 V=0060.0395478
MOVL P00016 V=0069.7472898
MOVL P00017 V=0080.2191268
MOVL P00018 V=0091.3459282
MOVL P00019 V=0102.9819536
MOVL P00020 V=0114.9459649
MOVL P00021 V=0127.0243571
MOVL P00022 V=0138.9763662
MOVL P00023 V=0150.5412682
MOVL P00024 V=0161.4473276
MOVL P00025 V=0171.4221049
MOVL P00026 V=0180.2035983
MOVL P00027 V=0187.5515971
MOVL P00028 V=0193.2585637
MOVL P00029 V=0197.1593608
MOVL P00030 V=0199.1391864
MOVL P00031 V=0199.1391864
MOVL P00032 V=0197.1593608
MOVL P00033 V=0193.2585637
MOVL P00034 V=0187.5515971
MOVL P00035 V=0180.2035983
MOVL P00036 V=0171.4221049
MOVL P00037 V=0161.4473276
MOVL P00038 V=0150.5412682
MOVL P00039 V=0138.9763662
MOVL P00040 V=0127.0243571
MOVL P00041 V=0114.9459649
MOVL P00042 V=0102.9819536
MOVL P00043 V=0091.3459282
MOVL P00044 V=0080.2191268
MOVL P00045 V=0069.7472898
MOVL P00046 V=0060.0395478
MOVL P00047 V=0051.1691447
MOVL P00048 V=0043.1757182
MOVL P00049 V=0036.0687965
MOVL P00050 V=0029.8321393
MOVL P00051 V=0024.4285569
MOVL P00052 V=0019.8048652
MOVL P00053 V=0015.8966875
MOVL P00054 V=0012.6328705
MOVL P00055 V=0009.9393530
MOVL P00056 V=0007.7423865
MOVL P00057 V=0005.9710711
MOVL P00058 V=0004.5592174
MOVL P00059 V=0003.4465852
MOVL P00060 V=0003.4465852
END
