/JOB
//NAME GAUSSIANMOVING2
//POS
///NPOS 0,0,0,61,0,0
///TOOL 0
///POSTYPE ROBOT
///RECTAN
///RCONF 0,0,0,0,0,0,0,0,0,0,0,0,0,0,0,0,0,0,0,0,0,0,0,0
P00000=10.000,0.000,0.000,0.0000,0.0000,0.0000
///POSTYPE BASE
P00001=0368.25936176,0004.21036176,0538.85800000,-0000.57780000,-0000.47430000,-0050.70270000,
P00002=0368.28854634,0004.23954634,0538.85800000,-0000.57780000,-0000.47430000,-0050.70270000,
P00003=0368.32754000,0004.27854000,0538.85800000,-0000.57780000,-0000.47430000,-0050.70270000,
P00004=0368.37912165,0004.33012165,0538.85800000,-0000.57780000,-0000.47430000,-0050.70270000,
P00005=0368.44667661,0004.39767661,0538.85800000,-0000.57780000,-0000.47430000,-0050.70270000,
P00006=0368.53427172,0004.48527172,0538.85800000,-0000.57780000,-0000.47430000,-0050.70270000,
P00007=0368.64672266,0004.59772266,0538.85800000,-0000.57780000,-0000.47430000,-0050.70270000,
P00008=0368.78964727,0004.74064727,0538.85800000,-0000.57780000,-0000.47430000,-0050.70270000,
P00009=0368.96949776,0004.92049776,0538.85800000,-0000.57780000,-0000.47430000,-0050.70270000,
P00010=0369.19356423,0005.14456423,0538.85800000,-0000.57780000,-0000.47430000,-0050.70270000,
P00011=0369.46994181,0005.42094181,0538.85800000,-0000.57780000,-0000.47430000,-0050.70270000,
P00012=0369.80745393,0005.75845393,0538.85800000,-0000.57780000,-0000.47430000,-0050.70270000,
P00013=0370.21552578,0006.16652578,0538.85800000,-0000.57780000,-0000.47430000,-0050.70270000,
P00014=0370.70400327,0006.65500327,0538.85800000,-0000.57780000,-0000.47430000,-0050.70270000,
P00015=0371.28291606,0007.23391606,0538.85800000,-0000.57780000,-0000.47430000,-0050.70270000,
P00016=0371.96218600,0007.91318600,0538.85800000,-0000.57780000,-0000.47430000,-0050.70270000,
P00017=0372.75128651,0008.70228651,0538.85800000,-0000.57780000,-0000.47430000,-0050.70270000,
P00018=0373.65886233,0009.60986233,0538.85800000,-0000.57780000,-0000.47430000,-0050.70270000,
P00019=0374.69232353,0010.64332353,0538.85800000,-0000.57780000,-0000.47430000,-0050.70270000,
P00020=0375.85743133,0011.80843133,0538.85800000,-0000.57780000,-0000.47430000,-0050.70270000,
P00021=0377.15789647,0013.10889647,0538.85800000,-0000.57780000,-0000.47430000,-0050.70270000,
P00022=0378.59501302,0014.54601302,0538.85800000,-0000.57780000,-0000.47430000,-0050.70270000,
P00023=0380.16735112,0016.11835112,0538.85800000,-0000.57780000,-0000.47430000,-0050.70270000,
P00024=0381.87053114,0017.82153114,0538.85800000,-0000.57780000,-0000.47430000,-0050.70270000,
P00025=0383.69709915,0019.64809915,0538.85800000,-0000.57780000,-0000.47430000,-0050.70270000,
P00026=0385.63651887,0021.58751887,0538.85800000,-0000.57780000,-0000.47430000,-0050.70270000,
P00027=0387.67528985,0023.62628985,0538.85800000,-0000.57780000,-0000.47430000,-0050.70270000,
P00028=0389.79719395,0025.74819395,0538.85800000,-0000.57780000,-0000.47430000,-0050.70270000,
P00029=0391.98366501,0027.93466501,0538.85800000,-0000.57780000,-0000.47430000,-0050.70270000,
P00030=0394.21426854,0030.16526854,0538.85800000,-0000.57780000,-0000.47430000,-0050.70270000,
P00031=0396.46727125,0032.41827125,0538.85800000,-0000.57780000,-0000.47430000,-0050.70270000,
P00032=0398.72027395,0034.67127395,0538.85800000,-0000.57780000,-0000.47430000,-0050.70270000,
P00033=0400.95087749,0036.90187749,0538.85800000,-0000.57780000,-0000.47430000,-0050.70270000,
P00034=0403.13734854,0039.08834854,0538.85800000,-0000.57780000,-0000.47430000,-0050.70270000,
P00035=0405.25925264,0041.21025264,0538.85800000,-0000.57780000,-0000.47430000,-0050.70270000,
P00036=0407.29802362,0043.24902362,0538.85800000,-0000.57780000,-0000.47430000,-0050.70270000,
P00037=0409.23744335,0045.18844335,0538.85800000,-0000.57780000,-0000.47430000,-0050.70270000,
P00038=0411.06401135,0047.01501135,0538.85800000,-0000.57780000,-0000.47430000,-0050.70270000,
P00039=0412.76719138,0048.71819138,0538.85800000,-0000.57780000,-0000.47430000,-0050.70270000,
P00040=0414.33952947,0050.29052947,0538.85800000,-0000.57780000,-0000.47430000,-0050.70270000,
P00041=0415.77664602,0051.72764602,0538.85800000,-0000.57780000,-0000.47430000,-0050.70270000,
P00042=0417.07711116,0053.02811116,0538.85800000,-0000.57780000,-0000.47430000,-0050.70270000,
P00043=0418.24221897,0054.19321897,0538.85800000,-0000.57780000,-0000.47430000,-0050.70270000,
P00044=0419.27568017,0055.22668017,0538.85800000,-0000.57780000,-0000.47430000,-0050.70270000,
P00045=0420.18325599,0056.13425599,0538.85800000,-0000.57780000,-0000.47430000,-0050.70270000,
P00046=0420.97235649,0056.92335649,0538.85800000,-0000.57780000,-0000.47430000,-0050.70270000,
P00047=0421.65162643,0057.60262643,0538.85800000,-0000.57780000,-0000.47430000,-0050.70270000,
P00048=0422.23053922,0058.18153922,0538.85800000,-0000.57780000,-0000.47430000,-0050.70270000,
P00049=0422.71901671,0058.67001671,0538.85800000,-0000.57780000,-0000.47430000,-0050.70270000,
P00050=0423.12708856,0059.07808856,0538.85800000,-0000.57780000,-0000.47430000,-0050.70270000,
P00051=0423.46460069,0059.41560069,0538.85800000,-0000.57780000,-0000.47430000,-0050.70270000,
P00052=0423.74097826,0059.69197826,0538.85800000,-0000.57780000,-0000.47430000,-0050.70270000,
P00053=0423.96504473,0059.91604473,0538.85800000,-0000.57780000,-0000.47430000,-0050.70270000,
P00054=0424.14489522,0060.09589522,0538.85800000,-0000.57780000,-0000.47430000,-0050.70270000,
P00055=0424.28781984,0060.23881984,0538.85800000,-0000.57780000,-0000.47430000,-0050.70270000,
P00056=0424.40027078,0060.35127078,0538.85800000,-0000.57780000,-0000.47430000,-0050.70270000,
P00057=0424.48786588,0060.43886588,0538.85800000,-0000.57780000,-0000.47430000,-0050.70270000,
P00058=0424.55542084,0060.50642084,0538.85800000,-0000.57780000,-0000.47430000,-0050.70270000,
P00059=0424.60700250,0060.55800250,0538.85800000,-0000.57780000,-0000.47430000,-0050.70270000,
P00060=0424.64599616,0060.59699616,0538.85800000,-0000.57780000,-0000.47430000,-0050.70270000,
//INST
///DATE 2017/03/31 08:11
///ATTR SC,RW
///GROUP1 RB1
NOP
MOVL P00001 V=0002.5795763
MOVL P00002 V=0003.4465852
MOVL P00003 V=0004.5592174
MOVL P00004 V=0005.9710711
MOVL P00005 V=0007.7423865
MOVL P00006 V=0009.9393530
MOVL P00007 V=0012.6328705
MOVL P00008 V=0015.8966875
MOVL P00009 V=0019.8048652
MOVL P00010 V=0024.4285569
MOVL P00011 V=0029.8321393
MOVL P00012 V=0036.0687965
MOVL P00013 V=0043.1757182
MOVL P00014 V=0051.1691447
MOVL P00015 V=0060.0395478
MOVL P00016 V=0069.7472898
MOVL P00017 V=0080.2191268
MOVL P00018 V=0091.3459282
MOVL P00019 V=0102.9819536
MOVL P00020 V=0114.9459649
MOVL P00021 V=0127.0243571
MOVL P00022 V=0138.9763662
MOVL P00023 V=0150.5412682
MOVL P00024 V=0161.4473276
MOVL P00025 V=0171.4221049
MOVL P00026 V=0180.2035983
MOVL P00027 V=0187.5515971
MOVL P00028 V=0193.2585637
MOVL P00029 V=0197.1593608
MOVL P00030 V=0199.1391864
MOVL P00031 V=0199.1391864
MOVL P00032 V=0197.1593608
MOVL P00033 V=0193.2585637
MOVL P00034 V=0187.5515971
MOVL P00035 V=0180.2035983
MOVL P00036 V=0171.4221049
MOVL P00037 V=0161.4473276
MOVL P00038 V=0150.5412682
MOVL P00039 V=0138.9763662
MOVL P00040 V=0127.0243571
MOVL P00041 V=0114.9459649
MOVL P00042 V=0102.9819536
MOVL P00043 V=0091.3459282
MOVL P00044 V=0080.2191268
MOVL P00045 V=0069.7472898
MOVL P00046 V=0060.0395478
MOVL P00047 V=0051.1691447
MOVL P00048 V=0043.1757182
MOVL P00049 V=0036.0687965
MOVL P00050 V=0029.8321393
MOVL P00051 V=0024.4285569
MOVL P00052 V=0019.8048652
MOVL P00053 V=0015.8966875
MOVL P00054 V=0012.6328705
MOVL P00055 V=0009.9393530
MOVL P00056 V=0007.7423865
MOVL P00057 V=0005.9710711
MOVL P00058 V=0004.5592174
MOVL P00059 V=0003.4465852
MOVL P00060 V=0003.4465852
END
