/JOB
//NAME GAUSSIANMOVING2
//POS
///NPOS 0,0,0,121,0,0
///TOOL 0
///POSTYPE ROBOT
///RECTAN
///RCONF 0,0,0,0,0,0,0,0,0,0,0,0,0,0,0,0,0,0,0,0,0,0,0,0
P00000=10.000,0.000,0.000,0.0000,0.0000,0.0000
///POSTYPE BASE
P00001=0249.04049694,0016.20000000,273.300,-179.4000,-0.79,-160.6000
P00002=0249.04766609,0016.20000000,273.300,-179.4000,-0.79,-160.6000
P00003=0249.05597440,0016.20000000,273.300,-179.4000,-0.79,-160.6000
P00004=0249.06557884,0016.20000000,273.300,-179.4000,-0.79,-160.6000
P00005=0249.07665391,0016.20000000,273.300,-179.4000,-0.79,-160.6000
P00006=0249.08939290,0016.20000000,273.300,-179.4000,-0.79,-160.6000
P00007=0249.10400921,0016.20000000,273.300,-179.4000,-0.79,-160.6000
P00008=0249.12073766,0016.20000000,273.300,-179.4000,-0.79,-160.6000
P00009=0249.13983564,0016.20000000,273.300,-179.4000,-0.79,-160.6000
P00010=0249.16158438,0016.20000000,273.300,-179.4000,-0.79,-160.6000
P00011=0249.18628996,0016.20000000,273.300,-179.4000,-0.79,-160.6000
P00012=0249.21428432,0016.20000000,273.300,-179.4000,-0.79,-160.6000
P00013=0249.24592608,0016.20000000,273.300,-179.4000,-0.79,-160.6000
P00014=0249.28160117,0016.20000000,273.300,-179.4000,-0.79,-160.6000
P00015=0249.32172330,0016.20000000,273.300,-179.4000,-0.79,-160.6000
P00016=0249.36673418,0016.20000000,273.300,-179.4000,-0.79,-160.6000
P00017=0249.41710343,0016.20000000,273.300,-179.4000,-0.79,-160.6000
P00018=0249.47332822,0016.20000000,273.300,-179.4000,-0.79,-160.6000
P00019=0249.53593262,0016.20000000,273.300,-179.4000,-0.79,-160.6000
P00020=0249.60546646,0016.20000000,273.300,-179.4000,-0.79,-160.6000
P00021=0249.68250396,0016.20000000,273.300,-179.4000,-0.79,-160.6000
P00022=0249.76764179,0016.20000000,273.300,-179.4000,-0.79,-160.6000
P00023=0249.86149679,0016.20000000,273.300,-179.4000,-0.79,-160.6000
P00024=0249.96470324,0016.20000000,273.300,-179.4000,-0.79,-160.6000
P00025=0250.07790957,0016.20000000,273.300,-179.4000,-0.79,-160.6000
P00026=0250.20177471,0016.20000000,273.300,-179.4000,-0.79,-160.6000
P00027=0250.33696388,0016.20000000,273.300,-179.4000,-0.79,-160.6000
P00028=0250.48414404,0016.20000000,273.300,-179.4000,-0.79,-160.6000
P00029=0250.64397875,0016.20000000,273.300,-179.4000,-0.79,-160.6000
P00030=0250.81712274,0016.20000000,273.300,-179.4000,-0.79,-160.6000
P00031=0251.00421604,0016.20000000,273.300,-179.4000,-0.79,-160.6000
P00032=0251.20587779,0016.20000000,273.300,-179.4000,-0.79,-160.6000
P00033=0251.42269978,0016.20000000,273.300,-179.4000,-0.79,-160.6000
P00034=0251.65523974,0016.20000000,273.300,-179.4000,-0.79,-160.6000
P00035=0251.90401454,0016.20000000,273.300,-179.4000,-0.79,-160.6000
P00036=0252.16949321,0016.20000000,273.300,-179.4000,-0.79,-160.6000
P00037=0252.45209011,0016.20000000,273.300,-179.4000,-0.79,-160.6000
P00038=0252.75215807,0016.20000000,273.300,-179.4000,-0.79,-160.6000
P00039=0253.06998183,0016.20000000,273.300,-179.4000,-0.79,-160.6000
P00040=0253.40577169,0016.20000000,273.300,-179.4000,-0.79,-160.6000
P00041=0253.75965762,0016.20000000,273.300,-179.4000,-0.79,-160.6000
P00042=0254.13168379,0016.20000000,273.300,-179.4000,-0.79,-160.6000
P00043=0254.52180376,0016.20000000,273.300,-179.4000,-0.79,-160.6000
P00044=0254.92987629,0016.20000000,273.300,-179.4000,-0.79,-160.6000
P00045=0255.35566196,0016.20000000,273.300,-179.4000,-0.79,-160.6000
P00046=0255.79882057,0016.20000000,273.300,-179.4000,-0.79,-160.6000
P00047=0256.25890957,0016.20000000,273.300,-179.4000,-0.79,-160.6000
P00048=0256.73538332,0016.20000000,273.300,-179.4000,-0.79,-160.6000
P00049=0257.22759353,0016.20000000,273.300,-179.4000,-0.79,-160.6000
P00050=0257.73479060,0016.20000000,273.300,-179.4000,-0.79,-160.6000
P00051=0258.25612616,0016.20000000,273.300,-179.4000,-0.79,-160.6000
P00052=0258.79065661,0016.20000000,273.300,-179.4000,-0.79,-160.6000
P00053=0259.33734775,0016.20000000,273.300,-179.4000,-0.79,-160.6000
P00054=0259.89508046,0016.20000000,273.300,-179.4000,-0.79,-160.6000
P00055=0260.46265733,0016.20000000,273.300,-179.4000,-0.79,-160.6000
P00056=0261.03881023,0016.20000000,273.300,-179.4000,-0.79,-160.6000
P00057=0261.62220872,0016.20000000,273.300,-179.4000,-0.79,-160.6000
P00058=0262.21146923,0016.20000000,273.300,-179.4000,-0.79,-160.6000
P00059=0262.80516488,0016.20000000,273.300,-179.4000,-0.79,-160.6000
P00060=0263.40183582,0016.20000000,273.300,-179.4000,-0.79,-160.6000
P00061=0264.00000000,0016.20000000,273.300,-179.4000,-0.79,-160.6000
P00062=0264.59816418,0016.20000000,273.300,-179.4000,-0.79,-160.6000
P00063=0265.19483512,0016.20000000,273.300,-179.4000,-0.79,-160.6000
P00064=0265.78853077,0016.20000000,273.300,-179.4000,-0.79,-160.6000
P00065=0266.37779128,0016.20000000,273.300,-179.4000,-0.79,-160.6000
P00066=0266.96118977,0016.20000000,273.300,-179.4000,-0.79,-160.6000
P00067=0267.53734267,0016.20000000,273.300,-179.4000,-0.79,-160.6000
P00068=0268.10491954,0016.20000000,273.300,-179.4000,-0.79,-160.6000
P00069=0268.66265225,0016.20000000,273.300,-179.4000,-0.79,-160.6000
P00070=0269.20934339,0016.20000000,273.300,-179.4000,-0.79,-160.6000
P00071=0269.74387384,0016.20000000,273.300,-179.4000,-0.79,-160.6000
P00072=0270.26520940,0016.20000000,273.300,-179.4000,-0.79,-160.6000
P00073=0270.77240647,0016.20000000,273.300,-179.4000,-0.79,-160.6000
P00074=0271.26461668,0016.20000000,273.300,-179.4000,-0.79,-160.6000
P00075=0271.74109043,0016.20000000,273.300,-179.4000,-0.79,-160.6000
P00076=0272.20117943,0016.20000000,273.300,-179.4000,-0.79,-160.6000
P00077=0272.64433804,0016.20000000,273.300,-179.4000,-0.79,-160.6000
P00078=0273.07012371,0016.20000000,273.300,-179.4000,-0.79,-160.6000
P00079=0273.47819624,0016.20000000,273.300,-179.4000,-0.79,-160.6000
P00080=0273.86831621,0016.20000000,273.300,-179.4000,-0.79,-160.6000
P00081=0274.24034238,0016.20000000,273.300,-179.4000,-0.79,-160.6000
P00082=0274.59422831,0016.20000000,273.300,-179.4000,-0.79,-160.6000
P00083=0274.93001817,0016.20000000,273.300,-179.4000,-0.79,-160.6000
P00084=0275.24784193,0016.20000000,273.300,-179.4000,-0.79,-160.6000
P00085=0275.54790989,0016.20000000,273.300,-179.4000,-0.79,-160.6000
P00086=0275.83050679,0016.20000000,273.300,-179.4000,-0.79,-160.6000
P00087=0276.09598546,0016.20000000,273.300,-179.4000,-0.79,-160.6000
P00088=0276.34476026,0016.20000000,273.300,-179.4000,-0.79,-160.6000
P00089=0276.57730022,0016.20000000,273.300,-179.4000,-0.79,-160.6000
P00090=0276.79412221,0016.20000000,273.300,-179.4000,-0.79,-160.6000
P00091=0276.99578396,0016.20000000,273.300,-179.4000,-0.79,-160.6000
P00092=0277.18287726,0016.20000000,273.300,-179.4000,-0.79,-160.6000
P00093=0277.35602125,0016.20000000,273.300,-179.4000,-0.79,-160.6000
P00094=0277.51585596,0016.20000000,273.300,-179.4000,-0.79,-160.6000
P00095=0277.66303612,0016.20000000,273.300,-179.4000,-0.79,-160.6000
P00096=0277.79822529,0016.20000000,273.300,-179.4000,-0.79,-160.6000
P00097=0277.92209043,0016.20000000,273.300,-179.4000,-0.79,-160.6000
P00098=0278.03529676,0016.20000000,273.300,-179.4000,-0.79,-160.6000
P00099=0278.13850321,0016.20000000,273.300,-179.4000,-0.79,-160.6000
P00100=0278.23235821,0016.20000000,273.300,-179.4000,-0.79,-160.6000
P00101=0278.31749604,0016.20000000,273.300,-179.4000,-0.79,-160.6000
P00102=0278.39453354,0016.20000000,273.300,-179.4000,-0.79,-160.6000
P00103=0278.46406738,0016.20000000,273.300,-179.4000,-0.79,-160.6000
P00104=0278.52667178,0016.20000000,273.300,-179.4000,-0.79,-160.6000
P00105=0278.58289657,0016.20000000,273.300,-179.4000,-0.79,-160.6000
P00106=0278.63326582,0016.20000000,273.300,-179.4000,-0.79,-160.6000
P00107=0278.67827670,0016.20000000,273.300,-179.4000,-0.79,-160.6000
P00108=0278.71839883,0016.20000000,273.300,-179.4000,-0.79,-160.6000
P00109=0278.75407392,0016.20000000,273.300,-179.4000,-0.79,-160.6000
P00110=0278.78571568,0016.20000000,273.300,-179.4000,-0.79,-160.6000
P00111=0278.81371004,0016.20000000,273.300,-179.4000,-0.79,-160.6000
P00112=0278.83841562,0016.20000000,273.300,-179.4000,-0.79,-160.6000
P00113=0278.86016436,0016.20000000,273.300,-179.4000,-0.79,-160.6000
P00114=0278.87926234,0016.20000000,273.300,-179.4000,-0.79,-160.6000
P00115=0278.89599079,0016.20000000,273.300,-179.4000,-0.79,-160.6000
P00116=0278.91060710,0016.20000000,273.300,-179.4000,-0.79,-160.6000
P00117=0278.92334609,0016.20000000,273.300,-179.4000,-0.79,-160.6000
P00118=0278.93442116,0016.20000000,273.300,-179.4000,-0.79,-160.6000
P00119=0278.94402560,0016.20000000,273.300,-179.4000,-0.79,-160.6000
P00120=0278.95233391,0016.20000000,273.300,-179.4000,-0.79,-160.6000
//INST
///DATE 2017/03/31 08:11
///ATTR SC,RW
///GROUP1 RB1
NOP
MOVL P00001 V=0000.4480718
MOVL P00002 V=0000.5192693
MOVL P00003 V=0000.6002778
MOVL P00004 V=0000.6921916
MOVL P00005 V=0000.7961867
MOVL P00006 V=0000.9135198
MOVL P00007 V=0001.0455276
MOVL P00008 V=0001.1936240
MOVL P00009 V=0001.3592961
MOVL P00010 V=0001.5440988
MOVL P00011 V=0001.7496476
MOVL P00012 V=0001.9776097
MOVL P00013 V=0002.2296930
MOVL P00014 V=0002.5076334
MOVL P00015 V=0002.8131799
MOVL P00016 V=0003.1480779
MOVL P00017 V=0003.5140498
MOVL P00018 V=0003.9127747
MOVL P00019 V=0004.3458653
MOVL P00020 V=0004.8148435
MOVL P00021 V=0005.3211142
MOVL P00022 V=0005.8659381
MOVL P00023 V=0006.4504031
MOVL P00024 V=0007.0753956
MOVL P00025 V=0007.7415708
MOVL P00026 V=0008.4493236
MOVL P00027 V=0009.1987599
MOVL P00028 V=0009.9896694
MOVL P00029 V=0010.8214993
MOVL P00030 V=0011.6933311
MOVL P00031 V=0012.6038594
MOVL P00032 V=0013.5513743
MOVL P00033 V=0014.5337479
MOVL P00034 V=0015.5484247
MOVL P00035 V=0016.5924170
MOVL P00036 V=0017.6623060
MOVL P00037 V=0018.7542477
MOVL P00038 V=0019.8639850
MOVL P00039 V=0020.9868664
MOVL P00040 V=0022.1178704
MOVL P00041 V=0023.2516357
MOVL P00042 V=0024.3824982
MOVL P00043 V=0025.5045333
MOVL P00044 V=0026.6116040
MOVL P00045 V=0027.6974134
MOVL P00046 V=0028.7555622
MOVL P00047 V=0029.7796098
MOVL P00048 V=0030.7631380
MOVL P00049 V=0031.6998169
MOVL P00050 V=0032.5834724
MOVL P00051 V=0033.4081529
MOVL P00052 V=0034.1681964
MOVL P00053 V=0034.8582946
MOVL P00054 V=0035.4735543
MOVL P00055 V=0036.0095559
MOVL P00056 V=0036.4624055
MOVL P00057 V=0036.8287820
MOVL P00058 V=0037.1059783
MOVL P00059 V=0037.2919339
MOVL P00060 V=0037.3852609
MOVL P00061 V=0037.3852609
MOVL P00062 V=0037.2919339
MOVL P00063 V=0037.1059783
MOVL P00064 V=0036.8287820
MOVL P00065 V=0036.4624055
MOVL P00066 V=0036.0095559
MOVL P00067 V=0035.4735543
MOVL P00068 V=0034.8582946
MOVL P00069 V=0034.1681964
MOVL P00070 V=0033.4081529
MOVL P00071 V=0032.5834724
MOVL P00072 V=0031.6998169
MOVL P00073 V=0030.7631380
MOVL P00074 V=0029.7796098
MOVL P00075 V=0028.7555622
MOVL P00076 V=0027.6974134
MOVL P00077 V=0026.6116040
MOVL P00078 V=0025.5045333
MOVL P00079 V=0024.3824982
MOVL P00080 V=0023.2516357
MOVL P00081 V=0022.1178704
MOVL P00082 V=0020.9868664
MOVL P00083 V=0019.8639850
MOVL P00084 V=0018.7542477
MOVL P00085 V=0017.6623060
MOVL P00086 V=0016.5924170
MOVL P00087 V=0015.5484247
MOVL P00088 V=0014.5337479
MOVL P00089 V=0013.5513743
MOVL P00090 V=0012.6038594
MOVL P00091 V=0011.6933311
MOVL P00092 V=0010.8214993
MOVL P00093 V=0009.9896694
MOVL P00094 V=0009.1987599
MOVL P00095 V=0008.4493236
MOVL P00096 V=0007.7415708
MOVL P00097 V=0007.0753956
MOVL P00098 V=0006.4504031
MOVL P00099 V=0005.8659381
MOVL P00100 V=0005.3211142
MOVL P00101 V=0004.8148435
MOVL P00102 V=0004.3458653
MOVL P00103 V=0003.9127747
MOVL P00104 V=0003.5140498
MOVL P00105 V=0003.1480779
MOVL P00106 V=0002.8131799
MOVL P00107 V=0002.5076334
MOVL P00108 V=0002.2296930
MOVL P00109 V=0001.9776097
MOVL P00110 V=0001.7496476
MOVL P00111 V=0001.5440988
MOVL P00112 V=0001.3592961
MOVL P00113 V=0001.1936240
MOVL P00114 V=0001.0455276
MOVL P00115 V=0000.9135198
MOVL P00116 V=0000.7961867
MOVL P00117 V=0000.6921916
MOVL P00118 V=0000.6002778
MOVL P00119 V=0000.5192693
MOVL P00120 V=0000.5192693
END
