/JOB
//NAME GAUSSIANMOVING2
//POS
///NPOS 0,0,0,121,0,0
///TOOL 0
///POSTYPE ROBOT
///RECTAN
///RCONF 0,0,0,0,0,0,0,0,0,0,0,0,0,0,0,0,0,0,0,0,0,0,0,0
P00000=10.000,0.000,0.000,0.0000,0.0000,0.0000
///POSTYPE BASE
///TOOL0
P00001=0572.90931211,-0000.02795035,0523.09500000,0000.00000000,0000.00400000,0180.00000000,
P00002=0572.94917898,-0000.03863264,0523.09500000,0000.00000000,0000.00400000,0180.00000000,
P00003=0573.00244531,-0000.05290531,0523.09500000,0000.00000000,0000.00400000,0180.00000000,
P00004=0573.07290716,-0000.07178551,0523.09500000,0000.00000000,0000.00400000,0180.00000000,
P00005=0573.16518895,-0000.09651234,0523.09500000,0000.00000000,0000.00400000,0180.00000000,
P00006=0573.28484609,-0000.12857437,0523.09500000,0000.00000000,0000.00400000,0180.00000000,
P00007=0573.43845693,-0000.16973427,0523.09500000,0000.00000000,0000.00400000,0180.00000000,
P00008=0573.63369559,-0000.22204831,0523.09500000,0000.00000000,0000.00400000,0180.00000000,
P00009=0573.87937592,-0000.28787816,0523.09500000,0000.00000000,0000.00400000,0180.00000000,
P00010=0574.18545642,-0000.36989218,0523.09500000,0000.00000000,0000.00400000,0180.00000000,
P00011=0574.56299520,-0000.47105339,0523.09500000,0000.00000000,0000.00400000,0180.00000000,
P00012=0575.02404534,-0000.59459141,0523.09500000,0000.00000000,0000.00400000,0180.00000000,
P00013=0575.58148185,-0000.74395607,0523.09500000,0000.00000000,0000.00400000,0180.00000000,
P00014=0576.24875452,-0000.92275124,0523.09500000,0000.00000000,0000.00400000,0180.00000000,
P00015=0577.03956409,-0001.13464803,0523.09500000,0000.00000000,0000.00400000,0180.00000000,
P00016=0577.96746409,-0001.38327808,0523.09500000,0000.00000000,0000.00400000,0180.00000000,
P00017=0579.04539542,-0001.67210891,0523.09500000,0000.00000000,0000.00400000,0180.00000000,
P00018=0580.28516704,-0002.00430472,0523.09500000,0000.00000000,0000.00400000,0180.00000000,
P00019=0581.69690130,-0002.38257777,0523.09500000,0000.00000000,0000.00400000,0180.00000000,
P00020=0583.28846816,-0002.80903683,0523.09500000,0000.00000000,0000.00400000,0180.00000000,
P00021=0585.06493658,-0003.28504011,0523.09500000,0000.00000000,0000.00400000,0180.00000000,
P00022=0587.02807429,-0003.81106127,0523.09500000,0000.00000000,0000.00400000,0180.00000000,
P00023=0589.17592807,-0004.38657696,0523.09500000,0000.00000000,0000.00400000,0180.00000000,
P00024=0591.50251526,-0005.00998411,0523.09500000,0000.00000000,0000.00400000,0180.00000000,
P00025=0593.99765355,-0005.67855440,0523.09500000,0000.00000000,0000.00400000,0180.00000000,
P00026=0596.64695016,-0006.38843129,0523.09500000,0000.00000000,0000.00400000,0180.00000000,
P00027=0599.43196312,-0007.13467326,0523.09500000,0000.00000000,0000.00400000,0180.00000000,
P00028=0602.33053802,-0007.91134407,0523.09500000,0000.00000000,0000.00400000,0180.00000000,
P00029=0605.31731303,-0008.71164802,0523.09500000,0000.00000000,0000.00400000,0180.00000000,
P00030=0608.36437412,-0009.52810558,0523.09500000,0000.00000000,0000.00400000,0180.00000000,
P00031=0611.44203305,-0010.35276180,0523.09500000,0000.00000000,0000.00400000,0180.00000000,
P00032=0614.51969198,-0011.17741803,0523.09500000,0000.00000000,0000.00400000,0180.00000000,
P00033=0617.56675308,-0011.99387559,0523.09500000,0000.00000000,0000.00400000,0180.00000000,
P00034=0620.55352808,-0012.79417954,0523.09500000,0000.00000000,0000.00400000,0180.00000000,
P00035=0623.45210299,-0013.57085034,0523.09500000,0000.00000000,0000.00400000,0180.00000000,
P00036=0626.23711594,-0014.31709232,0523.09500000,0000.00000000,0000.00400000,0180.00000000,
P00037=0628.88641255,-0015.02696920,0523.09500000,0000.00000000,0000.00400000,0180.00000000,
P00038=0631.38155085,-0015.69553949,0523.09500000,0000.00000000,0000.00400000,0180.00000000,
P00039=0633.70813803,-0016.31894665,0523.09500000,0000.00000000,0000.00400000,0180.00000000,
P00040=0635.85599181,-0016.89446234,0523.09500000,0000.00000000,0000.00400000,0180.00000000,
P00041=0637.81912952,-0017.42048350,0523.09500000,0000.00000000,0000.00400000,0180.00000000,
P00042=0639.59559794,-0017.89648678,0523.09500000,0000.00000000,0000.00400000,0180.00000000,
P00043=0641.18716480,-0018.32294583,0523.09500000,0000.00000000,0000.00400000,0180.00000000,
P00044=0642.59889906,-0018.70121889,0523.09500000,0000.00000000,0000.00400000,0180.00000000,
P00045=0643.83867068,-0019.03341469,0523.09500000,0000.00000000,0000.00400000,0180.00000000,
P00046=0644.91660202,-0019.32224553,0523.09500000,0000.00000000,0000.00400000,0180.00000000,
P00047=0645.84450201,-0019.57087558,0523.09500000,0000.00000000,0000.00400000,0180.00000000,
P00048=0646.63531159,-0019.78277237,0523.09500000,0000.00000000,0000.00400000,0180.00000000,
P00049=0647.30258425,-0019.96156754,0523.09500000,0000.00000000,0000.00400000,0180.00000000,
P00050=0647.86002076,-0020.11093220,0523.09500000,0000.00000000,0000.00400000,0180.00000000,
P00051=0648.32107090,-0020.23447021,0523.09500000,0000.00000000,0000.00400000,0180.00000000,
P00052=0648.69860969,-0020.33563143,0523.09500000,0000.00000000,0000.00400000,0180.00000000,
P00053=0649.00469018,-0020.41764545,0523.09500000,0000.00000000,0000.00400000,0180.00000000,
P00054=0649.25037052,-0020.48347529,0523.09500000,0000.00000000,0000.00400000,0180.00000000,
P00055=0649.44560917,-0020.53578933,0523.09500000,0000.00000000,0000.00400000,0180.00000000,
P00056=0649.59922001,-0020.57694924,0523.09500000,0000.00000000,0000.00400000,0180.00000000,
P00057=0649.71887715,-0020.60901127,0523.09500000,0000.00000000,0000.00400000,0180.00000000,
P00058=0649.81115894,-0020.63373810,0523.09500000,0000.00000000,0000.00400000,0180.00000000,
P00059=0649.88162079,-0020.65261830,0523.09500000,0000.00000000,0000.00400000,0180.00000000,
P00060=0649.93488712,-0020.66689097,0523.09500000,0000.00000000,0000.00400000,0180.00000000,
///TOOL1
P00061=0674.42568789,0000.02795035,0908.48000000,0180.00000000,0000.00000000,0000.00000000
P00062=0674.38582102,0000.03863264,0908.48000000,0180.00000000,0000.00000000,0000.00000000
P00063=0674.33255469,0000.05290531,0908.48000000,0180.00000000,0000.00000000,0000.00000000
P00064=0674.26209284,0000.07178551,0908.48000000,0180.00000000,0000.00000000,0000.00000000
P00065=0674.16981105,0000.09651234,0908.48000000,0180.00000000,0000.00000000,0000.00000000
P00066=0674.05015391,0000.12857437,0908.48000000,0180.00000000,0000.00000000,0000.00000000
P00067=0673.89654307,0000.16973427,0908.48000000,0180.00000000,0000.00000000,0000.00000000
P00068=0673.70130441,0000.22204831,0908.48000000,0180.00000000,0000.00000000,0000.00000000
P00069=0673.45562408,0000.28787816,0908.48000000,0180.00000000,0000.00000000,0000.00000000
P00070=0673.14954358,0000.36989218,0908.48000000,0180.00000000,0000.00000000,0000.00000000
P00071=0672.77200480,0000.47105339,0908.48000000,0180.00000000,0000.00000000,0000.00000000
P00072=0672.31095466,0000.59459141,0908.48000000,0180.00000000,0000.00000000,0000.00000000
P00073=0671.75351815,0000.74395607,0908.48000000,0180.00000000,0000.00000000,0000.00000000
P00074=0671.08624548,0000.92275124,0908.48000000,0180.00000000,0000.00000000,0000.00000000
P00075=0670.29543591,0001.13464803,0908.48000000,0180.00000000,0000.00000000,0000.00000000
P00076=0669.36753591,0001.38327808,0908.48000000,0180.00000000,0000.00000000,0000.00000000
P00077=0668.28960458,0001.67210891,0908.48000000,0180.00000000,0000.00000000,0000.00000000
P00078=0667.04983296,0002.00430472,0908.48000000,0180.00000000,0000.00000000,0000.00000000
P00079=0665.63809870,0002.38257777,0908.48000000,0180.00000000,0000.00000000,0000.00000000
P00080=0664.04653184,0002.80903683,0908.48000000,0180.00000000,0000.00000000,0000.00000000
P00081=0662.27006342,0003.28504011,0908.48000000,0180.00000000,0000.00000000,0000.00000000
P00082=0660.30692571,0003.81106127,0908.48000000,0180.00000000,0000.00000000,0000.00000000
P00083=0658.15907193,0004.38657696,0908.48000000,0180.00000000,0000.00000000,0000.00000000
P00084=0655.83248474,0005.00998411,0908.48000000,0180.00000000,0000.00000000,0000.00000000
P00085=0653.33734645,0005.67855440,0908.48000000,0180.00000000,0000.00000000,0000.00000000
P00086=0650.68804984,0006.38843129,0908.48000000,0180.00000000,0000.00000000,0000.00000000
P00087=0647.90303688,0007.13467326,0908.48000000,0180.00000000,0000.00000000,0000.00000000
P00088=0645.00446198,0007.91134407,0908.48000000,0180.00000000,0000.00000000,0000.00000000
P00089=0642.01768697,0008.71164802,0908.48000000,0180.00000000,0000.00000000,0000.00000000
P00090=0638.97062588,0009.52810558,0908.48000000,0180.00000000,0000.00000000,0000.00000000
P00091=0635.89296695,0010.35276180,0908.48000000,0180.00000000,0000.00000000,0000.00000000
P00092=0632.81530802,0011.17741803,0908.48000000,0180.00000000,0000.00000000,0000.00000000
P00093=0629.76824692,0011.99387559,0908.48000000,0180.00000000,0000.00000000,0000.00000000
P00094=0626.78147192,0012.79417954,0908.48000000,0180.00000000,0000.00000000,0000.00000000
P00095=0623.88289701,0013.57085034,0908.48000000,0180.00000000,0000.00000000,0000.00000000
P00096=0621.09788406,0014.31709232,0908.48000000,0180.00000000,0000.00000000,0000.00000000
P00097=0618.44858745,0015.02696920,0908.48000000,0180.00000000,0000.00000000,0000.00000000
P00098=0615.95344915,0015.69553949,0908.48000000,0180.00000000,0000.00000000,0000.00000000
P00099=0613.62686197,0016.31894665,0908.48000000,0180.00000000,0000.00000000,0000.00000000
P00100=0611.47900819,0016.89446234,0908.48000000,0180.00000000,0000.00000000,0000.00000000
P00101=0609.51587048,0017.42048350,0908.48000000,0180.00000000,0000.00000000,0000.00000000
P00102=0607.73940206,0017.89648678,0908.48000000,0180.00000000,0000.00000000,0000.00000000
P00103=0606.14783520,0018.32294583,0908.48000000,0180.00000000,0000.00000000,0000.00000000
P00104=0604.73610094,0018.70121889,0908.48000000,0180.00000000,0000.00000000,0000.00000000
P00105=0603.49632932,0019.03341469,0908.48000000,0180.00000000,0000.00000000,0000.00000000
P00106=0602.41839798,0019.32224553,0908.48000000,0180.00000000,0000.00000000,0000.00000000
P00107=0601.49049799,0019.57087558,0908.48000000,0180.00000000,0000.00000000,0000.00000000
P00108=0600.69968841,0019.78277237,0908.48000000,0180.00000000,0000.00000000,0000.00000000
P00109=0600.03241575,0019.96156754,0908.48000000,0180.00000000,0000.00000000,0000.00000000
P00110=0599.47497924,0020.11093220,0908.48000000,0180.00000000,0000.00000000,0000.00000000
P00111=0599.01392910,0020.23447021,0908.48000000,0180.00000000,0000.00000000,0000.00000000
P00112=0598.63639031,0020.33563143,0908.48000000,0180.00000000,0000.00000000,0000.00000000
P00113=0598.33030982,0020.41764545,0908.48000000,0180.00000000,0000.00000000,0000.00000000
P00114=0598.08462948,0020.48347529,0908.48000000,0180.00000000,0000.00000000,0000.00000000
P00115=0597.88939083,0020.53578933,0908.48000000,0180.00000000,0000.00000000,0000.00000000
P00116=0597.73577999,0020.57694924,0908.48000000,0180.00000000,0000.00000000,0000.00000000
P00117=0597.61612285,0020.60901127,0908.48000000,0180.00000000,0000.00000000,0000.00000000
P00118=0597.52384106,0020.63373810,0908.48000000,0180.00000000,0000.00000000,0000.00000000
P00119=0597.45337921,0020.65261830,0908.48000000,0180.00000000,0000.00000000,0000.00000000
P00120=0597.40011288,0020.66689097,0908.48000000,0180.00000000,0000.00000000,0000.00000000
//INST
///DATE 2017/03/31 08:11
///COMM PLAYINGTWOROBOTS
///ATTR SC,RW
///GROUP1 RB1
///GROUP2 RB2
NOP
DOUT OT#(1) ON
DOUT OT#(2) OFF
DOUT OT#(3) OFF
DOUT OT#(4) OFF
DOUT OT#(5) OFF
DOUT OT#(6) OFF
DOUT OT#(7) OFF
DOUT OT#(8) OFF
DOUT OT#(09) OFF
DOUT OT#(10) OFF
DOUT OT#(11) OFF
DOUT OT#(12) OFF
DOUT OT#(13) OFF
DOUT OT#(14) ON
DOUT OT#(15) ON
DOUT OT#(16) OFF
MOVL P00001 V=0002.5795763  +MOVL P00061 V=0002.5795763
MOVL P00002 V=0003.4465852  +MOVL P00062 V=0003.4465852
MOVL P00003 V=0004.5592174  +MOVL P00063 V=0004.5592174
MOVL P00004 V=0005.9710711  +MOVL P00064 V=0005.9710711
MOVL P00005 V=0007.7423865  +MOVL P00065 V=0007.7423865
MOVL P00006 V=0009.9393530  +MOVL P00066 V=0009.9393530
MOVL P00007 V=0012.6328705  +MOVL P00067 V=0012.6328705
MOVL P00008 V=0015.8966875  +MOVL P00068 V=0015.8966875
MOVL P00009 V=0019.8048652  +MOVL P00069 V=0019.8048652
MOVL P00010 V=0024.4285569  +MOVL P00070 V=0024.4285569
MOVL P00011 V=0029.8321393  +MOVL P00071 V=0029.8321393
MOVL P00012 V=0036.0687965  +MOVL P00072 V=0036.0687965
MOVL P00013 V=0043.1757182  +MOVL P00073 V=0043.1757182
MOVL P00014 V=0051.1691447  +MOVL P00074 V=0051.1691447
MOVL P00015 V=0060.0395478  +MOVL P00075 V=0060.0395478
MOVL P00016 V=0069.7472898  +MOVL P00076 V=0069.7472898
MOVL P00017 V=0080.2191268  +MOVL P00077 V=0080.2191268
MOVL P00018 V=0091.3459282  +MOVL P00078 V=0091.3459282
MOVL P00019 V=0102.9819536  +MOVL P00079 V=0102.9819536
MOVL P00020 V=0114.9459649  +MOVL P00080 V=0114.9459649
MOVL P00021 V=0127.0243571  +MOVL P00081 V=0127.0243571
MOVL P00022 V=0138.9763662  +MOVL P00082 V=0138.9763662
MOVL P00023 V=0150.5412682  +MOVL P00083 V=0150.5412682
MOVL P00024 V=0161.4473276  +MOVL P00084 V=0161.4473276
MOVL P00025 V=0171.4221049  +MOVL P00085 V=0171.4221049
MOVL P00026 V=0180.2035983  +MOVL P00086 V=0180.2035983
MOVL P00027 V=0187.5515971  +MOVL P00087 V=0187.5515971
MOVL P00028 V=0193.2585637  +MOVL P00088 V=0193.2585637
MOVL P00029 V=0197.1593608  +MOVL P00089 V=0197.1593608
MOVL P00030 V=0199.1391864  +MOVL P00090 V=0199.1391864
MOVL P00031 V=0199.1391864  +MOVL P00091 V=0199.1391864
MOVL P00032 V=0197.1593608  +MOVL P00092 V=0197.1593608
MOVL P00033 V=0193.2585637  +MOVL P00093 V=0193.2585637
MOVL P00034 V=0187.5515971  +MOVL P00094 V=0187.5515971
MOVL P00035 V=0180.2035983  +MOVL P00095 V=0180.2035983
MOVL P00036 V=0171.4221049  +MOVL P00096 V=0171.4221049
MOVL P00037 V=0161.4473276  +MOVL P00097 V=0161.4473276
MOVL P00038 V=0150.5412682  +MOVL P00098 V=0150.5412682
MOVL P00039 V=0138.9763662  +MOVL P00099 V=0138.9763662
MOVL P00040 V=0127.0243571  +MOVL P00100 V=0127.0243571
MOVL P00041 V=0114.9459649  +MOVL P00101 V=0114.9459649
MOVL P00042 V=0102.9819536  +MOVL P00102 V=0102.9819536
MOVL P00043 V=0091.3459282  +MOVL P00103 V=0091.3459282
MOVL P00044 V=0080.2191268  +MOVL P00104 V=0080.2191268
MOVL P00045 V=0069.7472898  +MOVL P00105 V=0069.7472898
MOVL P00046 V=0060.0395478  +MOVL P00106 V=0060.0395478
MOVL P00047 V=0051.1691447  +MOVL P00107 V=0051.1691447
MOVL P00048 V=0043.1757182  +MOVL P00108 V=0043.1757182
MOVL P00049 V=0036.0687965  +MOVL P00109 V=0036.0687965
MOVL P00050 V=0029.8321393  +MOVL P00110 V=0029.8321393
MOVL P00051 V=0024.4285569  +MOVL P00111 V=0024.4285569
MOVL P00052 V=0019.8048652  +MOVL P00112 V=0019.8048652
MOVL P00053 V=0015.8966875  +MOVL P00113 V=0015.8966875
MOVL P00054 V=0012.6328705  +MOVL P00114 V=0012.6328705
MOVL P00055 V=0009.9393530  +MOVL P00115 V=0009.9393530
MOVL P00056 V=0007.7423865  +MOVL P00116 V=0007.7423865
MOVL P00057 V=0005.9710711  +MOVL P00117 V=0005.9710711
MOVL P00058 V=0004.5592174  +MOVL P00118 V=0004.5592174
MOVL P00059 V=0003.4465852  +MOVL P00119 V=0003.4465852
MOVL P00060 V=0003.4465852  +MOVL P00120 V=0003.4465852
DOUT OT#(1) OFF
DOUT OT#(2) OFF
DOUT OT#(3) OFF
DOUT OT#(4) OFF
DOUT OT#(5) OFF
DOUT OT#(6) OFF
DOUT OT#(7) OFF
DOUT OT#(8) OFF
DOUT OT#(09) OFF
DOUT OT#(10) OFF
DOUT OT#(11) OFF
DOUT OT#(12) OFF
DOUT OT#(13) OFF
DOUT OT#(14) OFF
DOUT OT#(15) OFF
DOUT OT#(16) OFF
END
