/JOB
//NAME GAUSSIANMOVING2
//POS
///NPOS 0,0,0,121,0,0
///TOOL 0
///POSTYPE ROBOT
///RECTAN
///RCONF 0,0,0,0,0,0,0,0,0,0,0,0,0,0,0,0,0,0,0,0,0,0,0,0
P00000=10.000,0.000,0.000,0.0000,0.0000,0.0000
///POSTYPE BASE
P00001=0368.29099184,0004.13400000,0538.85800000,-0000.57780000,-0000.47430000,-0050.70270000,
P00002=0368.33226506,0004.13400000,0538.85800000,-0000.57780000,-0000.47430000,-0050.70270000,
P00003=0368.38741043,0004.13400000,0538.85800000,-0000.57780000,-0000.47430000,-0050.70270000,
P00004=0368.46035790,0004.13400000,0538.85800000,-0000.57780000,-0000.47430000,-0050.70270000,
P00005=0368.55589504,0004.13400000,0538.85800000,-0000.57780000,-0000.47430000,-0050.70270000,
P00006=0368.67977323,0004.13400000,0538.85800000,-0000.57780000,-0000.47430000,-0050.70270000,
P00007=0368.83880287,0004.13400000,0538.85800000,-0000.57780000,-0000.47430000,-0050.70270000,
P00008=0369.04092880,0004.13400000,0538.85800000,-0000.57780000,-0000.47430000,-0050.70270000,
P00009=0369.29527580,0004.13400000,0538.85800000,-0000.57780000,-0000.47430000,-0050.70270000,
P00010=0369.61215365,0004.13400000,0538.85800000,-0000.57780000,-0000.47430000,-0050.70270000,
P00011=0370.00301056,0004.13400000,0538.85800000,-0000.57780000,-0000.47430000,-0050.70270000,
P00012=0370.48032479,0004.13400000,0538.85800000,-0000.57780000,-0000.47430000,-0050.70270000,
P00013=0371.05742553,0004.13400000,0538.85800000,-0000.57780000,-0000.47430000,-0050.70270000,
P00014=0371.74823702,0004.13400000,0538.85800000,-0000.57780000,-0000.47430000,-0050.70270000,
P00015=0372.56694334,0004.13400000,0538.85800000,-0000.57780000,-0000.47430000,-0050.70270000,
P00016=0373.52757610,0004.13400000,0538.85800000,-0000.57780000,-0000.47430000,-0050.70270000,
P00017=0374.64353274,0004.13400000,0538.85800000,-0000.57780000,-0000.47430000,-0050.70270000,
P00018=0375.92703877,0004.13400000,0538.85800000,-0000.57780000,-0000.47430000,-0050.70270000,
P00019=0377.38857362,0004.13400000,0538.85800000,-0000.57780000,-0000.47430000,-0050.70270000,
P00020=0379.03628488,0004.13400000,0538.85800000,-0000.57780000,-0000.47430000,-0050.70270000,
P00021=0380.87542031,0004.13400000,0538.85800000,-0000.57780000,-0000.47430000,-0050.70270000,
P00022=0382.90781003,0004.13400000,0538.85800000,-0000.57780000,-0000.47430000,-0050.70270000,
P00023=0385.13143189,0004.13400000,0538.85800000,-0000.57780000,-0000.47430000,-0050.70270000,
P00024=0387.54009218,0004.13400000,0538.85800000,-0000.57780000,-0000.47430000,-0050.70270000,
P00025=0390.12324942,0004.13400000,0538.85800000,-0000.57780000,-0000.47430000,-0050.70270000,
P00026=0392.86600310,0004.13400000,0538.85800000,-0000.57780000,-0000.47430000,-0050.70270000,
P00027=0395.74926067,0004.13400000,0538.85800000,-0000.57780000,-0000.47430000,-0050.70270000,
P00028=0398.75008622,0004.13400000,0538.85800000,-0000.57780000,-0000.47430000,-0050.70270000,
P00029=0401.84222324,0004.13400000,0538.85800000,-0000.57780000,-0000.47430000,-0050.70270000,
P00030=0404.99677302,0004.13400000,0538.85800000,-0000.57780000,-0000.47430000,-0050.70270000,
P00031=0408.18300000,0004.13400000,0538.85800000,-0000.57780000,-0000.47430000,-0050.70270000,
P00032=0411.36922698,0004.13400000,0538.85800000,-0000.57780000,-0000.47430000,-0050.70270000,
P00033=0414.52377676,0004.13400000,0538.85800000,-0000.57780000,-0000.47430000,-0050.70270000,
P00034=0417.61591378,0004.13400000,0538.85800000,-0000.57780000,-0000.47430000,-0050.70270000,
P00035=0420.61673933,0004.13400000,0538.85800000,-0000.57780000,-0000.47430000,-0050.70270000,
P00036=0423.49999690,0004.13400000,0538.85800000,-0000.57780000,-0000.47430000,-0050.70270000,
P00037=0426.24275058,0004.13400000,0538.85800000,-0000.57780000,-0000.47430000,-0050.70270000,
P00038=0428.82590782,0004.13400000,0538.85800000,-0000.57780000,-0000.47430000,-0050.70270000,
P00039=0431.23456811,0004.13400000,0538.85800000,-0000.57780000,-0000.47430000,-0050.70270000,
P00040=0433.45818997,0004.13400000,0538.85800000,-0000.57780000,-0000.47430000,-0050.70270000,
P00041=0435.49057969,0004.13400000,0538.85800000,-0000.57780000,-0000.47430000,-0050.70270000,
P00042=0437.32971512,0004.13400000,0538.85800000,-0000.57780000,-0000.47430000,-0050.70270000,
P00043=0438.97742638,0004.13400000,0538.85800000,-0000.57780000,-0000.47430000,-0050.70270000,
P00044=0440.43896123,0004.13400000,0538.85800000,-0000.57780000,-0000.47430000,-0050.70270000,
P00045=0441.72246726,0004.13400000,0538.85800000,-0000.57780000,-0000.47430000,-0050.70270000,
P00046=0442.83842390,0004.13400000,0538.85800000,-0000.57780000,-0000.47430000,-0050.70270000,
P00047=0443.79905666,0004.13400000,0538.85800000,-0000.57780000,-0000.47430000,-0050.70270000,
P00048=0444.61776298,0004.13400000,0538.85800000,-0000.57780000,-0000.47430000,-0050.70270000,
P00049=0445.30857447,0004.13400000,0538.85800000,-0000.57780000,-0000.47430000,-0050.70270000,
P00050=0445.88567521,0004.13400000,0538.85800000,-0000.57780000,-0000.47430000,-0050.70270000,
P00051=0446.36298944,0004.13400000,0538.85800000,-0000.57780000,-0000.47430000,-0050.70270000,
P00052=0446.75384635,0004.13400000,0538.85800000,-0000.57780000,-0000.47430000,-0050.70270000,
P00053=0447.07072420,0004.13400000,0538.85800000,-0000.57780000,-0000.47430000,-0050.70270000,
P00054=0447.32507120,0004.13400000,0538.85800000,-0000.57780000,-0000.47430000,-0050.70270000,
P00055=0447.52719713,0004.13400000,0538.85800000,-0000.57780000,-0000.47430000,-0050.70270000,
P00056=0447.68622677,0004.13400000,0538.85800000,-0000.57780000,-0000.47430000,-0050.70270000,
P00057=0447.81010496,0004.13400000,0538.85800000,-0000.57780000,-0000.47430000,-0050.70270000,
P00058=0447.90564210,0004.13400000,0538.85800000,-0000.57780000,-0000.47430000,-0050.70270000,
P00059=0447.97858957,0004.13400000,0538.85800000,-0000.57780000,-0000.47430000,-0050.70270000,
P00060=0448.03373494,0004.13400000,0538.85800000,-0000.57780000,-0000.47430000,-0050.70270000,
P00061=0303.07600816,0000.62300000,0474.03100000,-0000.22600000,-0000.81470000,-0160.29600000
P00062=0303.03473494,0000.62300000,0474.03100000,-0000.22600000,-0000.81470000,-0160.29600000
P00063=0302.97958957,0000.62300000,0474.03100000,-0000.22600000,-0000.81470000,-0160.29600000
P00064=0302.90664210,0000.62300000,0474.03100000,-0000.22600000,-0000.81470000,-0160.29600000
P00065=0302.81110496,0000.62300000,0474.03100000,-0000.22600000,-0000.81470000,-0160.29600000
P00066=0302.68722677,0000.62300000,0474.03100000,-0000.22600000,-0000.81470000,-0160.29600000
P00067=0302.52819713,0000.62300000,0474.03100000,-0000.22600000,-0000.81470000,-0160.29600000
P00068=0302.32607120,0000.62300000,0474.03100000,-0000.22600000,-0000.81470000,-0160.29600000
P00069=0302.07172420,0000.62300000,0474.03100000,-0000.22600000,-0000.81470000,-0160.29600000
P00070=0301.75484635,0000.62300000,0474.03100000,-0000.22600000,-0000.81470000,-0160.29600000
P00071=0301.36398944,0000.62300000,0474.03100000,-0000.22600000,-0000.81470000,-0160.29600000
P00072=0300.88667521,0000.62300000,0474.03100000,-0000.22600000,-0000.81470000,-0160.29600000
P00073=0300.30957447,0000.62300000,0474.03100000,-0000.22600000,-0000.81470000,-0160.29600000
P00074=0299.61876298,0000.62300000,0474.03100000,-0000.22600000,-0000.81470000,-0160.29600000
P00075=0298.80005666,0000.62300000,0474.03100000,-0000.22600000,-0000.81470000,-0160.29600000
P00076=0297.83942390,0000.62300000,0474.03100000,-0000.22600000,-0000.81470000,-0160.29600000
P00077=0296.72346726,0000.62300000,0474.03100000,-0000.22600000,-0000.81470000,-0160.29600000
P00078=0295.43996123,0000.62300000,0474.03100000,-0000.22600000,-0000.81470000,-0160.29600000
P00079=0293.97842638,0000.62300000,0474.03100000,-0000.22600000,-0000.81470000,-0160.29600000
P00080=0292.33071512,0000.62300000,0474.03100000,-0000.22600000,-0000.81470000,-0160.29600000
P00081=0290.49157969,0000.62300000,0474.03100000,-0000.22600000,-0000.81470000,-0160.29600000
P00082=0288.45918997,0000.62300000,0474.03100000,-0000.22600000,-0000.81470000,-0160.29600000
P00083=0286.23556811,0000.62300000,0474.03100000,-0000.22600000,-0000.81470000,-0160.29600000
P00084=0283.82690782,0000.62300000,0474.03100000,-0000.22600000,-0000.81470000,-0160.29600000
P00085=0281.24375058,0000.62300000,0474.03100000,-0000.22600000,-0000.81470000,-0160.29600000
P00086=0278.50099690,0000.62300000,0474.03100000,-0000.22600000,-0000.81470000,-0160.29600000
P00087=0275.61773933,0000.62300000,0474.03100000,-0000.22600000,-0000.81470000,-0160.29600000
P00088=0272.61691378,0000.62300000,0474.03100000,-0000.22600000,-0000.81470000,-0160.29600000
P00089=0269.52477676,0000.62300000,0474.03100000,-0000.22600000,-0000.81470000,-0160.29600000
P00090=0266.37022698,0000.62300000,0474.03100000,-0000.22600000,-0000.81470000,-0160.29600000
P00091=0263.18400000,0000.62300000,0474.03100000,-0000.22600000,-0000.81470000,-0160.29600000
P00092=0259.99777302,0000.62300000,0474.03100000,-0000.22600000,-0000.81470000,-0160.29600000
P00093=0256.84322324,0000.62300000,0474.03100000,-0000.22600000,-0000.81470000,-0160.29600000
P00094=0253.75108622,0000.62300000,0474.03100000,-0000.22600000,-0000.81470000,-0160.29600000
P00095=0250.75026067,0000.62300000,0474.03100000,-0000.22600000,-0000.81470000,-0160.29600000
P00096=0247.86700310,0000.62300000,0474.03100000,-0000.22600000,-0000.81470000,-0160.29600000
P00097=0245.12424942,0000.62300000,0474.03100000,-0000.22600000,-0000.81470000,-0160.29600000
P00098=0242.54109218,0000.62300000,0474.03100000,-0000.22600000,-0000.81470000,-0160.29600000
P00099=0240.13243189,0000.62300000,0474.03100000,-0000.22600000,-0000.81470000,-0160.29600000
P00100=0237.90881003,0000.62300000,0474.03100000,-0000.22600000,-0000.81470000,-0160.29600000
P00101=0235.87642031,0000.62300000,0474.03100000,-0000.22600000,-0000.81470000,-0160.29600000
P00102=0234.03728488,0000.62300000,0474.03100000,-0000.22600000,-0000.81470000,-0160.29600000
P00103=0232.38957362,0000.62300000,0474.03100000,-0000.22600000,-0000.81470000,-0160.29600000
P00104=0230.92803877,0000.62300000,0474.03100000,-0000.22600000,-0000.81470000,-0160.29600000
P00105=0229.64453274,0000.62300000,0474.03100000,-0000.22600000,-0000.81470000,-0160.29600000
P00106=0228.52857610,0000.62300000,0474.03100000,-0000.22600000,-0000.81470000,-0160.29600000
P00107=0227.56794334,0000.62300000,0474.03100000,-0000.22600000,-0000.81470000,-0160.29600000
P00108=0226.74923702,0000.62300000,0474.03100000,-0000.22600000,-0000.81470000,-0160.29600000
P00109=0226.05842553,0000.62300000,0474.03100000,-0000.22600000,-0000.81470000,-0160.29600000
P00110=0225.48132479,0000.62300000,0474.03100000,-0000.22600000,-0000.81470000,-0160.29600000
P00111=0225.00401056,0000.62300000,0474.03100000,-0000.22600000,-0000.81470000,-0160.29600000
P00112=0224.61315365,0000.62300000,0474.03100000,-0000.22600000,-0000.81470000,-0160.29600000
P00113=0224.29627580,0000.62300000,0474.03100000,-0000.22600000,-0000.81470000,-0160.29600000
P00114=0224.04192880,0000.62300000,0474.03100000,-0000.22600000,-0000.81470000,-0160.29600000
P00115=0223.83980287,0000.62300000,0474.03100000,-0000.22600000,-0000.81470000,-0160.29600000
P00116=0223.68077323,0000.62300000,0474.03100000,-0000.22600000,-0000.81470000,-0160.29600000
P00117=0223.55689504,0000.62300000,0474.03100000,-0000.22600000,-0000.81470000,-0160.29600000
P00118=0223.46135790,0000.62300000,0474.03100000,-0000.22600000,-0000.81470000,-0160.29600000
P00119=0223.38841043,0000.62300000,0474.03100000,-0000.22600000,-0000.81470000,-0160.29600000
P00120=0223.33326506,0000.62300000,0474.03100000,-0000.22600000,-0000.81470000,-0160.29600000
//INST
///DATE 2017/03/31 08:11
///COMM PLAYINGTWOROBOTS
///ATTR SC,RW
///GROUP1 RB1
///GROUP2 RB2
NOP
MOVL P00001 V=0002.5795763  +MOVL P00061 V=0002.5795763
MOVL P00002 V=0003.4465852  +MOVL P00062 V=0003.4465852
MOVL P00003 V=0004.5592174  +MOVL P00063 V=0004.5592174
MOVL P00004 V=0005.9710711  +MOVL P00064 V=0005.9710711
MOVL P00005 V=0007.7423865  +MOVL P00065 V=0007.7423865
MOVL P00006 V=0009.9393530  +MOVL P00066 V=0009.9393530
MOVL P00007 V=0012.6328705  +MOVL P00067 V=0012.6328705
MOVL P00008 V=0015.8966875  +MOVL P00068 V=0015.8966875
MOVL P00009 V=0019.8048652  +MOVL P00069 V=0019.8048652
MOVL P00010 V=0024.4285569  +MOVL P00070 V=0024.4285569
MOVL P00011 V=0029.8321393  +MOVL P00071 V=0029.8321393
MOVL P00012 V=0036.0687965  +MOVL P00072 V=0036.0687965
MOVL P00013 V=0043.1757182  +MOVL P00073 V=0043.1757182
MOVL P00014 V=0051.1691447  +MOVL P00074 V=0051.1691447
MOVL P00015 V=0060.0395478  +MOVL P00075 V=0060.0395478
MOVL P00016 V=0069.7472898  +MOVL P00076 V=0069.7472898
MOVL P00017 V=0080.2191268  +MOVL P00077 V=0080.2191268
MOVL P00018 V=0091.3459282  +MOVL P00078 V=0091.3459282
MOVL P00019 V=0102.9819536  +MOVL P00079 V=0102.9819536
MOVL P00020 V=0114.9459649  +MOVL P00080 V=0114.9459649
MOVL P00021 V=0127.0243571  +MOVL P00081 V=0127.0243571
MOVL P00022 V=0138.9763662  +MOVL P00082 V=0138.9763662
MOVL P00023 V=0150.5412682  +MOVL P00083 V=0150.5412682
MOVL P00024 V=0161.4473276  +MOVL P00084 V=0161.4473276
MOVL P00025 V=0171.4221049  +MOVL P00085 V=0171.4221049
MOVL P00026 V=0180.2035983  +MOVL P00086 V=0180.2035983
MOVL P00027 V=0187.5515971  +MOVL P00087 V=0187.5515971
MOVL P00028 V=0193.2585637  +MOVL P00088 V=0193.2585637
MOVL P00029 V=0197.1593608  +MOVL P00089 V=0197.1593608
MOVL P00030 V=0199.1391864  +MOVL P00090 V=0199.1391864
MOVL P00031 V=0199.1391864  +MOVL P00091 V=0199.1391864
MOVL P00032 V=0197.1593608  +MOVL P00092 V=0197.1593608
MOVL P00033 V=0193.2585637  +MOVL P00093 V=0193.2585637
MOVL P00034 V=0187.5515971  +MOVL P00094 V=0187.5515971
MOVL P00035 V=0180.2035983  +MOVL P00095 V=0180.2035983
MOVL P00036 V=0171.4221049  +MOVL P00096 V=0171.4221049
MOVL P00037 V=0161.4473276  +MOVL P00097 V=0161.4473276
MOVL P00038 V=0150.5412682  +MOVL P00098 V=0150.5412682
MOVL P00039 V=0138.9763662  +MOVL P00099 V=0138.9763662
MOVL P00040 V=0127.0243571  +MOVL P00100 V=0127.0243571
MOVL P00041 V=0114.9459649  +MOVL P00101 V=0114.9459649
MOVL P00042 V=0102.9819536  +MOVL P00102 V=0102.9819536
MOVL P00043 V=0091.3459282  +MOVL P00103 V=0091.3459282
MOVL P00044 V=0080.2191268  +MOVL P00104 V=0080.2191268
MOVL P00045 V=0069.7472898  +MOVL P00105 V=0069.7472898
MOVL P00046 V=0060.0395478  +MOVL P00106 V=0060.0395478
MOVL P00047 V=0051.1691447  +MOVL P00107 V=0051.1691447
MOVL P00048 V=0043.1757182  +MOVL P00108 V=0043.1757182
MOVL P00049 V=0036.0687965  +MOVL P00109 V=0036.0687965
MOVL P00050 V=0029.8321393  +MOVL P00110 V=0029.8321393
MOVL P00051 V=0024.4285569  +MOVL P00111 V=0024.4285569
MOVL P00052 V=0019.8048652  +MOVL P00112 V=0019.8048652
MOVL P00053 V=0015.8966875  +MOVL P00113 V=0015.8966875
MOVL P00054 V=0012.6328705  +MOVL P00114 V=0012.6328705
MOVL P00055 V=0009.9393530  +MOVL P00115 V=0009.9393530
MOVL P00056 V=0007.7423865  +MOVL P00116 V=0007.7423865
MOVL P00057 V=0005.9710711  +MOVL P00117 V=0005.9710711
MOVL P00058 V=0004.5592174  +MOVL P00118 V=0004.5592174
MOVL P00059 V=0003.4465852  +MOVL P00119 V=0003.4465852
MOVL P00060 V=0003.4465852  +MOVL P00120 V=0003.4465852
END
