/JOB
//NAME GAUSSIANMOVING2
//POS
///NPOS 0,0,0,61,0,0
///TOOL 0
///POSTYPE ROBOT
///RECTAN
///RCONF 0,0,0,0,0,0,0,0,0,0,0,0,0,0,0,0,0,0,0,0,0,0,0,0
P00000=10.000,0.000,0.000,0.0000,0.0000,0.0000
///POSTYPE BASE
P00001=0240.18400000,-0000.13498980,0593.16200000,0000.00000000,-0001.44330000,-0179.99820000,
P00002=0240.18400000,-0000.18658133,0593.16200000,0000.00000000,-0001.44330000,-0179.99820000,
P00003=0240.18400000,-0000.25551303,0593.16200000,0000.00000000,-0001.44330000,-0179.99820000,
P00004=0240.18400000,-0000.34669738,0593.16200000,0000.00000000,-0001.44330000,-0179.99820000,
P00005=0240.18400000,-0000.46611880,0593.16200000,0000.00000000,-0001.44330000,-0179.99820000,
P00006=0240.18400000,-0000.62096653,0593.16200000,0000.00000000,-0001.44330000,-0179.99820000,
P00007=0240.18400000,-0000.81975359,0593.16200000,0000.00000000,-0001.44330000,-0179.99820000,
P00008=0240.18400000,-0001.07241100,0593.16200000,0000.00000000,-0001.44330000,-0179.99820000,
P00009=0240.18400000,-0001.39034475,0593.16200000,0000.00000000,-0001.44330000,-0179.99820000,
P00010=0240.18400000,-0001.78644206,0593.16200000,0000.00000000,-0001.44330000,-0179.99820000,
P00011=0240.18400000,-0002.27501319,0593.16200000,0000.00000000,-0001.44330000,-0179.99820000,
P00012=0240.18400000,-0002.87165598,0593.16200000,0000.00000000,-0001.44330000,-0179.99820000,
P00013=0240.18400000,-0003.59303191,0593.16200000,0000.00000000,-0001.44330000,-0179.99820000,
P00014=0240.18400000,-0004.45654628,0593.16200000,0000.00000000,-0001.44330000,-0179.99820000,
P00015=0240.18400000,-0005.47992917,0593.16200000,0000.00000000,-0001.44330000,-0179.99820000,
P00016=0240.18400000,-0006.68072013,0593.16200000,0000.00000000,-0001.44330000,-0179.99820000,
P00017=0240.18400000,-0008.07566592,0593.16200000,0000.00000000,-0001.44330000,-0179.99820000,
P00018=0240.18400000,-0009.68004846,0593.16200000,0000.00000000,-0001.44330000,-0179.99820000,
P00019=0240.18400000,-0011.50696702,0593.16200000,0000.00000000,-0001.44330000,-0179.99820000,
P00020=0240.18400000,-0013.56660609,0593.16200000,0000.00000000,-0001.44330000,-0179.99820000,
P00021=0240.18400000,-0015.86552539,0593.16200000,0000.00000000,-0001.44330000,-0179.99820000,
P00022=0240.18400000,-0018.40601253,0593.16200000,0000.00000000,-0001.44330000,-0179.99820000,
P00023=0240.18400000,-0021.18553986,0593.16200000,0000.00000000,-0001.44330000,-0179.99820000,
P00024=0240.18400000,-0024.19636522,0593.16200000,0000.00000000,-0001.44330000,-0179.99820000,
P00025=0240.18400000,-0027.42531178,0593.16200000,0000.00000000,-0001.44330000,-0179.99820000,
P00026=0240.18400000,-0030.85375387,0593.16200000,0000.00000000,-0001.44330000,-0179.99820000,
P00027=0240.18400000,-0034.45782584,0593.16200000,0000.00000000,-0001.44330000,-0179.99820000,
P00028=0240.18400000,-0038.20885778,0593.16200000,0000.00000000,-0001.44330000,-0179.99820000,
P00029=0240.18400000,-0042.07402906,0593.16200000,0000.00000000,-0001.44330000,-0179.99820000,
P00030=0240.18400000,-0046.01721627,0593.16200000,0000.00000000,-0001.44330000,-0179.99820000,
P00031=0240.18400000,-0050.00000000,0593.16200000,0000.00000000,-0001.44330000,-0179.99820000,
P00032=0240.18400000,-0053.98278373,0593.16200000,0000.00000000,-0001.44330000,-0179.99820000,
P00033=0240.18400000,-0057.92597094,0593.16200000,0000.00000000,-0001.44330000,-0179.99820000,
P00034=0240.18400000,-0061.79114222,0593.16200000,0000.00000000,-0001.44330000,-0179.99820000,
P00035=0240.18400000,-0065.54217416,0593.16200000,0000.00000000,-0001.44330000,-0179.99820000,
P00036=0240.18400000,-0069.14624613,0593.16200000,0000.00000000,-0001.44330000,-0179.99820000,
P00037=0240.18400000,-0072.57468822,0593.16200000,0000.00000000,-0001.44330000,-0179.99820000,
P00038=0240.18400000,-0075.80363478,0593.16200000,0000.00000000,-0001.44330000,-0179.99820000,
P00039=0240.18400000,-0078.81446014,0593.16200000,0000.00000000,-0001.44330000,-0179.99820000,
P00040=0240.18400000,-0081.59398747,0593.16200000,0000.00000000,-0001.44330000,-0179.99820000,
P00041=0240.18400000,-0084.13447461,0593.16200000,0000.00000000,-0001.44330000,-0179.99820000,
P00042=0240.18400000,-0086.43339391,0593.16200000,0000.00000000,-0001.44330000,-0179.99820000,
P00043=0240.18400000,-0088.49303298,0593.16200000,0000.00000000,-0001.44330000,-0179.99820000,
P00044=0240.18400000,-0090.31995154,0593.16200000,0000.00000000,-0001.44330000,-0179.99820000,
P00045=0240.18400000,-0091.92433408,0593.16200000,0000.00000000,-0001.44330000,-0179.99820000,
P00046=0240.18400000,-0093.31927987,0593.16200000,0000.00000000,-0001.44330000,-0179.99820000,
P00047=0240.18400000,-0094.52007083,0593.16200000,0000.00000000,-0001.44330000,-0179.99820000,
P00048=0240.18400000,-0095.54345372,0593.16200000,0000.00000000,-0001.44330000,-0179.99820000,
P00049=0240.18400000,-0096.40696809,0593.16200000,0000.00000000,-0001.44330000,-0179.99820000,
P00050=0240.18400000,-0097.12834402,0593.16200000,0000.00000000,-0001.44330000,-0179.99820000,
P00051=0240.18400000,-0097.72498681,0593.16200000,0000.00000000,-0001.44330000,-0179.99820000,
P00052=0240.18400000,-0098.21355794,0593.16200000,0000.00000000,-0001.44330000,-0179.99820000,
P00053=0240.18400000,-0098.60965525,0593.16200000,0000.00000000,-0001.44330000,-0179.99820000,
P00054=0240.18400000,-0098.92758900,0593.16200000,0000.00000000,-0001.44330000,-0179.99820000,
P00055=0240.18400000,-0099.18024641,0593.16200000,0000.00000000,-0001.44330000,-0179.99820000,
P00056=0240.18400000,-0099.37903347,0593.16200000,0000.00000000,-0001.44330000,-0179.99820000,
P00057=0240.18400000,-0099.53388120,0593.16200000,0000.00000000,-0001.44330000,-0179.99820000,
P00058=0240.18400000,-0099.65330262,0593.16200000,0000.00000000,-0001.44330000,-0179.99820000,
P00059=0240.18400000,-0099.74448697,0593.16200000,0000.00000000,-0001.44330000,-0179.99820000,
P00060=0240.18400000,-0099.81341867,0593.16200000,0000.00000000,-0001.44330000,-0179.99820000,
//INST
///DATE 2017/03/31 08:11
///ATTR SC,RW
///GROUP1 RB1
NOP
MOVL P00001 V=0003.2244704
MOVL P00002 V=0004.3082314
MOVL P00003 V=0005.6990217
MOVL P00004 V=0007.4638389
MOVL P00005 V=0009.6779831
MOVL P00006 V=0012.4241912
MOVL P00007 V=0015.7910881
MOVL P00008 V=0019.8708593
MOVL P00009 V=0024.7560816
MOVL P00010 V=0030.5356962
MOVL P00011 V=0037.2901742
MOVL P00012 V=0045.0859956
MOVL P00013 V=0053.9696478
MOVL P00014 V=0063.9614309
MOVL P00015 V=0075.0494348
MOVL P00016 V=0087.1841123
MOVL P00017 V=0100.2739084
MOVL P00018 V=0114.1824102
MOVL P00019 V=0128.7274420
MOVL P00020 V=0143.6824562
MOVL P00021 V=0158.7804463
MOVL P00022 V=0173.7204577
MOVL P00023 V=0188.1765852
MOVL P00024 V=0201.8091595
MOVL P00025 V=0214.2776311
MOVL P00026 V=0225.2544979
MOVL P00027 V=0234.4394964
MOVL P00028 V=0241.5732047
MOVL P00029 V=0246.4492010
MOVL P00030 V=0248.9239830
MOVL P00031 V=0248.9239830
MOVL P00032 V=0246.4492010
MOVL P00033 V=0241.5732047
MOVL P00034 V=0234.4394964
MOVL P00035 V=0225.2544979
MOVL P00036 V=0214.2776311
MOVL P00037 V=0201.8091595
MOVL P00038 V=0188.1765852
MOVL P00039 V=0173.7204577
MOVL P00040 V=0158.7804463
MOVL P00041 V=0143.6824562
MOVL P00042 V=0128.7274420
MOVL P00043 V=0114.1824102
MOVL P00044 V=0100.2739084
MOVL P00045 V=0087.1841123
MOVL P00046 V=0075.0494348
MOVL P00047 V=0063.9614309
MOVL P00048 V=0053.9696478
MOVL P00049 V=0045.0859956
MOVL P00050 V=0037.2901742
MOVL P00051 V=0030.5356962
MOVL P00052 V=0024.7560816
MOVL P00053 V=0019.8708593
MOVL P00054 V=0015.7910881
MOVL P00055 V=0012.4241912
MOVL P00056 V=0009.6779831
MOVL P00057 V=0007.4638389
MOVL P00058 V=0005.6990217
MOVL P00059 V=0004.3082314
MOVL P00060 V=0004.3082314
END
