/JOB
//NAME GAUSSIANMOVING2
//POS
///NPOS 0,0,0,61,0,0
///TOOL 0
///POSTYPE ROBOT
///RECTAN
///RCONF 0,0,0,0,0,0,0,0,0,0,0,0,0,0,0,0,0,0,0,0,0,0,0,0
P00000=10.000,0.000,0.000,0.0000,0.0000,0.0000
///POSTYPE BASE
///TOOL0
P00001=0612.73036747,0069.15276497,0523.09500000,0000.00000000,0000.00400000,0180.00000000,
P00002=0612.70279479,0069.10500768,0523.09500000,0000.00000000,0000.00400000,0180.00000000,
P00003=0612.66632105,0069.04183331,0523.09500000,0000.00000000,0000.00400000,0180.00000000,
P00004=0612.61855248,0068.95909572,0523.09500000,0000.00000000,0000.00400000,0180.00000000,
P00005=0612.55661339,0068.85181407,0523.09500000,0000.00000000,0000.00400000,0180.00000000,
P00006=0612.47709856,0068.71409035,0523.09500000,0000.00000000,0000.00400000,0180.00000000,
P00007=0612.37603560,0068.53904417,0523.09500000,0000.00000000,0000.00400000,0180.00000000,
P00008=0612.24886210,0068.31877320,0523.09500000,0000.00000000,0000.00400000,0180.00000000,
P00009=0612.09042318,0068.04434894,0523.09500000,0000.00000000,0000.00400000,0180.00000000,
P00010=0611.89499472,0067.70585693,0523.09500000,0000.00000000,0000.00400000,0180.00000000,
P00011=0611.65633761,0067.29249068,0523.09500000,0000.00000000,0000.00400000,0180.00000000,
P00012=0611.36778724,0066.79270677,0523.09500000,0000.00000000,0000.00400000,0180.00000000,
P00013=0611.02238149,0066.19444647,0523.09500000,0000.00000000,0000.00400000,0180.00000000,
P00014=0610.61302833,0065.48542601,0523.09500000,0000.00000000,0000.00400000,0180.00000000,
P00015=0610.13271195,0064.65349363,0523.09500000,0000.00000000,0000.00400000,0180.00000000,
P00016=0609.57473363,0063.68704683,0523.09500000,0000.00000000,0000.00400000,0180.00000000,
P00017=0608.93298062,0062.57549800,0523.09500000,0000.00000000,0000.00400000,0180.00000000,
P00018=0608.20221319,0061.30977169,0523.09500000,0000.00000000,0000.00400000,0180.00000000,
P00019=0607.37835756,0059.88281189,0523.09500000,0000.00000000,0000.00400000,0180.00000000,
P00020=0606.45878984,0058.29007387,0523.09500000,0000.00000000,0000.00400000,0180.00000000,
P00021=0605.44259499,0056.52997275,0523.09500000,0000.00000000,0000.00400000,0180.00000000,
P00022=0604.33078406,0054.60425973,0523.09500000,0000.00000000,0000.00400000,0180.00000000,
P00023=0603.12645391,0052.51829873,0523.09500000,0000.00000000,0000.00400000,0180.00000000,
P00024=0601.83487529,0050.28121894,0523.09500000,0000.00000000,0000.00400000,0180.00000000,
P00025=0600.46349845,0047.90592458,0523.09500000,0000.00000000,0000.00400000,0180.00000000,
P00026=0599.02186966,0045.40895027,0523.09500000,0000.00000000,0000.00400000,0180.00000000,
P00027=0597.52145689,0042.81015911,0523.09500000,0000.00000000,0000.00400000,0180.00000000,
P00028=0595.97538838,0040.13228990,0523.09500000,0000.00000000,0000.00400000,0180.00000000,
P00029=0594.39811349,0037.40036966,0523.09500000,0000.00000000,0000.00400000,0180.00000000,
P00030=0592.80500000,0034.64101615,0523.09500000,0000.00000000,0000.00400000,0180.00000000,
P00031=0591.21188651,0031.88166264,0523.09500000,0000.00000000,0000.00400000,0180.00000000,
P00032=0589.63461162,0029.14974240,0523.09500000,0000.00000000,0000.00400000,0180.00000000,
P00033=0588.08854311,0026.47187319,0523.09500000,0000.00000000,0000.00400000,0180.00000000,
P00034=0586.58813034,0023.87308203,0523.09500000,0000.00000000,0000.00400000,0180.00000000,
P00035=0585.14650155,0021.37610772,0523.09500000,0000.00000000,0000.00400000,0180.00000000,
P00036=0583.77512471,0019.00081336,0523.09500000,0000.00000000,0000.00400000,0180.00000000,
P00037=0582.48354609,0016.76373357,0523.09500000,0000.00000000,0000.00400000,0180.00000000,
P00038=0581.27921594,0014.67777257,0523.09500000,0000.00000000,0000.00400000,0180.00000000,
P00039=0580.16740501,0012.75205955,0523.09500000,0000.00000000,0000.00400000,0180.00000000,
P00040=0579.15121016,0010.99195843,0523.09500000,0000.00000000,0000.00400000,0180.00000000,
P00041=0578.23164244,0009.39922042,0523.09500000,0000.00000000,0000.00400000,0180.00000000,
P00042=0577.40778681,0007.97226061,0523.09500000,0000.00000000,0000.00400000,0180.00000000,
P00043=0576.67701938,0006.70653430,0523.09500000,0000.00000000,0000.00400000,0180.00000000,
P00044=0576.03526637,0005.59498547,0523.09500000,0000.00000000,0000.00400000,0180.00000000,
P00045=0575.47728805,0004.62853868,0523.09500000,0000.00000000,0000.00400000,0180.00000000,
P00046=0574.99697167,0003.79660630,0523.09500000,0000.00000000,0000.00400000,0180.00000000,
P00047=0574.58761851,0003.08758583,0523.09500000,0000.00000000,0000.00400000,0180.00000000,
P00048=0574.24221276,0002.48932553,0523.09500000,0000.00000000,0000.00400000,0180.00000000,
P00049=0573.95366239,0001.98954162,0523.09500000,0000.00000000,0000.00400000,0180.00000000,
P00050=0573.71500528,0001.57617538,0523.09500000,0000.00000000,0000.00400000,0180.00000000,
P00051=0573.51957682,0001.23768336,0523.09500000,0000.00000000,0000.00400000,0180.00000000,
P00052=0573.36113790,0000.96325910,0523.09500000,0000.00000000,0000.00400000,0180.00000000,
P00053=0573.23396440,0000.74298814,0523.09500000,0000.00000000,0000.00400000,0180.00000000,
P00054=0573.13290144,0000.56794195,0523.09500000,0000.00000000,0000.00400000,0180.00000000,
P00055=0573.05338661,0000.43021823,0523.09500000,0000.00000000,0000.00400000,0180.00000000,
P00056=0572.99144752,0000.32293658,0523.09500000,0000.00000000,0000.00400000,0180.00000000,
P00057=0572.94367895,0000.24019899,0523.09500000,0000.00000000,0000.00400000,0180.00000000,
P00058=0572.90720521,0000.17702462,0523.09500000,0000.00000000,0000.00400000,0180.00000000,
P00059=0572.87963253,0000.12926734,0523.09500000,0000.00000000,0000.00400000,0180.00000000,
P00060=0572.85899592,0000.09352368,0523.09500000,0000.00000000,0000.00400000,0180.00000000,
//INST
///DATE 2017/03/31 08:11
///ATTR SC,RW
///GROUP1 RB1
NOP
DOUT OT#(16) OFF
DOUT OT#(15) ON
DOUT OT#(16) ON
MOVL P00001 V=0003.4465852
MOVL P00002 V=0004.5592174
MOVL P00003 V=0005.9710711
MOVL P00004 V=0007.7423865
MOVL P00005 V=0009.9393530
MOVL P00006 V=0012.6328705
MOVL P00007 V=0015.8966875
MOVL P00008 V=0019.8048652
MOVL P00009 V=0024.4285569
MOVL P00010 V=0029.8321393
MOVL P00011 V=0036.0687965
MOVL P00012 V=0043.1757182
MOVL P00013 V=0051.1691447
MOVL P00014 V=0060.0395478
MOVL P00015 V=0069.7472898
MOVL P00016 V=0080.2191268
MOVL P00017 V=0091.3459282
MOVL P00018 V=0102.9819536
MOVL P00019 V=0114.9459649
MOVL P00020 V=0127.0243571
MOVL P00021 V=0138.9763662
MOVL P00022 V=0150.5412682
MOVL P00023 V=0161.4473276
MOVL P00024 V=0171.4221049
MOVL P00025 V=0180.2035983
MOVL P00026 V=0187.5515971
MOVL P00027 V=0193.2585637
MOVL P00028 V=0197.1593608
MOVL P00029 V=0199.1391864
MOVL P00030 V=0199.1391864
MOVL P00031 V=0197.1593608
MOVL P00032 V=0193.2585637
MOVL P00033 V=0187.5515971
MOVL P00034 V=0180.2035983
MOVL P00035 V=0171.4221049
MOVL P00036 V=0161.4473276
MOVL P00037 V=0150.5412682
MOVL P00038 V=0138.9763662
MOVL P00039 V=0127.0243571
MOVL P00040 V=0114.9459649
MOVL P00041 V=0102.9819536
MOVL P00042 V=0091.3459282
MOVL P00043 V=0080.2191268
MOVL P00044 V=0069.7472898
MOVL P00045 V=0060.0395478
MOVL P00046 V=0051.1691447
MOVL P00047 V=0043.1757182
MOVL P00048 V=0036.0687965
MOVL P00049 V=0029.8321393
MOVL P00050 V=0024.4285569
MOVL P00051 V=0019.8048652
MOVL P00052 V=0015.8966875
MOVL P00053 V=0012.6328705
MOVL P00054 V=0009.9393530
MOVL P00055 V=0007.7423865
MOVL P00056 V=0005.9710711
MOVL P00057 V=0004.5592174
MOVL P00058 V=0003.4465852
MOVL P00059 V=0002.5795763
MOVL P00060 V=0002.5795763
DOUT OT#(16) OFF
DOUT OT#(15) OFF
DOUT OT#(16) ON
END
