/JOB
//NAME GAUSSIANMOVING2
//POS
///NPOS 0,0,0,61,0,0
///TOOL 0
///POSTYPE ROBOT
///RECTAN
///RCONF 0,0,0,0,0,0,0,0,0,0,0,0,0,0,0,0,0,0,0,0,0,0,0,0
P00000=10.000,0.000,0.000,0.0000,0.0000,0.0000
///POSTYPE BASE
///TOOL1
P00001=0986.90324307,0064.87872214,0708.48000000,0180.00000000,0000.00000000,0000.00000000
P00002=0986.82563748,0064.83391653,0708.48000000,0180.00000000,0000.00000000,0000.00000000
P00003=0986.72297913,0064.77464670,0708.48000000,0180.00000000,0000.00000000,0000.00000000
P00004=0986.58853055,0064.69702278,0708.48000000,0180.00000000,0000.00000000,0000.00000000
P00005=0986.41419786,0064.59637175,0708.48000000,0180.00000000,0000.00000000,0000.00000000
P00006=0986.19039683,0064.46716016,0708.48000000,0180.00000000,0000.00000000,0000.00000000
P00007=0985.90594677,0064.30293285,0708.48000000,0180.00000000,0000.00000000,0000.00000000
P00008=0985.54800645,0064.09627591,0708.48000000,0180.00000000,0000.00000000,0000.00000000
P00009=0985.10206703,0063.83881266,0708.48000000,0180.00000000,0000.00000000,0000.00000000
P00010=0984.55201751,0063.52124142,0708.48000000,0180.00000000,0000.00000000,0000.00000000
P00011=0983.88029735,0063.13342361,0708.48000000,0180.00000000,0000.00000000,0000.00000000
P00012=0983.06814851,0062.66452926,0708.48000000,0180.00000000,0000.00000000,0000.00000000
P00013=0982.09597552,0062.10324492,0708.48000000,0180.00000000,0000.00000000,0000.00000000
P00014=0980.94381726,0061.43804604,0708.48000000,0180.00000000,0000.00000000,0000.00000000
P00015=0979.59192714,0060.65753192,0708.48000000,0180.00000000,0000.00000000,0000.00000000
P00016=0978.02145110,0059.75081715,0708.48000000,0180.00000000,0000.00000000,0000.00000000
P00017=0976.21518425,0058.70796850,0708.48000000,0180.00000000,0000.00000000,0000.00000000
P00018=0974.15837900,0057.52047144,0708.48000000,0180.00000000,0000.00000000,0000.00000000
P00019=0971.83956931,0056.18170604,0708.48000000,0180.00000000,0000.00000000,0000.00000000
P00020=0969.25137005,0054.68740849,0708.48000000,0180.00000000,0000.00000000,0000.00000000
P00021=0966.39120572,0053.03609185,0708.48000000,0180.00000000,0000.00000000,0000.00000000
P00022=0963.26192207,0051.22939909,0708.48000000,0180.00000000,0000.00000000,0000.00000000
P00023=0959.87223544,0049.27236261,0708.48000000,0180.00000000,0000.00000000,0000.00000000
P00024=0956.23698078,0047.17354735,0708.48000000,0180.00000000,0000.00000000,0000.00000000
P00025=0952.37712744,0044.94505998,0708.48000000,0180.00000000,0000.00000000,0000.00000000
P00026=0948.31954420,0042.60241320,0708.48000000,0180.00000000,0000.00000000,0000.00000000
P00027=0944.09650856,0040.16424244,0708.48000000,0180.00000000,0000.00000000,0000.00000000
P00028=0939.74497109,0037.65188111,0708.48000000,0180.00000000,0000.00000000,0000.00000000
P00029=0935.30560070,0035.08880942,0708.48000000,0180.00000000,0000.00000000,0000.00000000
P00030=0930.82165125,0032.50000000,0708.48000000,0180.00000000,0000.00000000,0000.00000000
P00031=0926.33770179,0029.91119058,0708.48000000,0180.00000000,0000.00000000,0000.00000000
P00032=0921.89833140,0027.34811889,0708.48000000,0180.00000000,0000.00000000,0000.00000000
P00033=0917.54679393,0024.83575756,0708.48000000,0180.00000000,0000.00000000,0000.00000000
P00034=0913.32375830,0022.39758680,0708.48000000,0180.00000000,0000.00000000,0000.00000000
P00035=0909.26617505,0020.05494002,0708.48000000,0180.00000000,0000.00000000,0000.00000000
P00036=0905.40632172,0017.82645265,0708.48000000,0180.00000000,0000.00000000,0000.00000000
P00037=0901.77106705,0015.72763739,0708.48000000,0180.00000000,0000.00000000,0000.00000000
P00038=0898.38138042,0013.77060091,0708.48000000,0180.00000000,0000.00000000,0000.00000000
P00039=0895.25209677,0011.96390815,0708.48000000,0180.00000000,0000.00000000,0000.00000000
P00040=0892.39193245,0010.31259151,0708.48000000,0180.00000000,0000.00000000,0000.00000000
P00041=0889.80373318,0008.81829396,0708.48000000,0180.00000000,0000.00000000,0000.00000000
P00042=0887.48492349,0007.47952856,0708.48000000,0180.00000000,0000.00000000,0000.00000000
P00043=0885.42811824,0006.29203150,0708.48000000,0180.00000000,0000.00000000,0000.00000000
P00044=0883.62185139,0005.24918285,0708.48000000,0180.00000000,0000.00000000,0000.00000000
P00045=0882.05137535,0004.34246808,0708.48000000,0180.00000000,0000.00000000,0000.00000000
P00046=0880.69948523,0003.56195396,0708.48000000,0180.00000000,0000.00000000,0000.00000000
P00047=0879.54732697,0002.89675508,0708.48000000,0180.00000000,0000.00000000,0000.00000000
P00048=0878.57515399,0002.33547074,0708.48000000,0180.00000000,0000.00000000,0000.00000000
P00049=0877.76300514,0001.86657639,0708.48000000,0180.00000000,0000.00000000,0000.00000000
P00050=0877.09128499,0001.47875858,0708.48000000,0180.00000000,0000.00000000,0000.00000000
P00051=0876.54123546,0001.16118734,0708.48000000,0180.00000000,0000.00000000,0000.00000000
P00052=0876.09529604,0000.90372409,0708.48000000,0180.00000000,0000.00000000,0000.00000000
P00053=0875.73735572,0000.69706715,0708.48000000,0180.00000000,0000.00000000,0000.00000000
P00054=0875.45290567,0000.53283984,0708.48000000,0180.00000000,0000.00000000,0000.00000000
P00055=0875.22910463,0000.40362825,0708.48000000,0180.00000000,0000.00000000,0000.00000000
P00056=0875.05477194,0000.30297722,0708.48000000,0180.00000000,0000.00000000,0000.00000000
P00057=0874.92032336,0000.22535330,0708.48000000,0180.00000000,0000.00000000,0000.00000000
P00058=0874.81766501,0000.16608347,0708.48000000,0180.00000000,0000.00000000,0000.00000000
P00059=0874.74005942,0000.12127786,0708.48000000,0180.00000000,0000.00000000,0000.00000000
P00060=0874.68197598,0000.08774337,0708.48000000,0180.00000000,0000.00000000,0000.00000000
//INST
///DATE 2017/03/31 08:11
///ATTR SC,RW
///GROUP1 RB2
NOP
DOUT OT#(15) ON
MOVL P00001 V=0005.6007009
MOVL P00002 V=0007.4087282
MOVL P00003 V=0009.7029905
MOVL P00004 V=0012.5813781
MOVL P00005 V=0016.1514486
MOVL P00006 V=0020.5284145
MOVL P00007 V=0025.8321171
MOVL P00008 V=0032.1829060
MOVL P00009 V=0039.6964050
MOVL P00010 V=0048.4772264
MOVL P00011 V=0058.6117943
MOVL P00012 V=0070.1605421
MOVL P00013 V=0083.1498601
MOVL P00014 V=0097.5642653
MOVL P00015 V=0113.3393460
MOVL P00016 V=0130.3560810
MOVL P00017 V=0148.4371333
MOVL P00018 V=0167.3456746
MOVL P00019 V=0186.7871930
MOVL P00020 V=0206.4145802
MOVL P00021 V=0225.8365950
MOVL P00022 V=0244.6295608
MOVL P00023 V=0262.3519074
MOVL P00024 V=0278.5609204
MOVL P00025 V=0292.8308473
MOVL P00026 V=0304.7713453
MOVL P00027 V=0314.0451661
MOVL P00028 V=0320.3839613
MOVL P00029 V=0323.6011779
MOVL P00030 V=0323.6011779
MOVL P00031 V=0320.3839613
MOVL P00032 V=0314.0451661
MOVL P00033 V=0304.7713453
MOVL P00034 V=0292.8308473
MOVL P00035 V=0278.5609204
MOVL P00036 V=0262.3519074
MOVL P00037 V=0244.6295608
MOVL P00038 V=0225.8365950
MOVL P00039 V=0206.4145802
MOVL P00040 V=0186.7871930
MOVL P00041 V=0167.3456746
MOVL P00042 V=0148.4371333
MOVL P00043 V=0130.3560810
MOVL P00044 V=0113.3393460
MOVL P00045 V=0097.5642653
MOVL P00046 V=0083.1498601
MOVL P00047 V=0070.1605421
MOVL P00048 V=0058.6117943
MOVL P00049 V=0048.4772264
MOVL P00050 V=0039.6964050
MOVL P00051 V=0032.1829060
MOVL P00052 V=0025.8321171
MOVL P00053 V=0020.5284145
MOVL P00054 V=0016.1514486
MOVL P00055 V=0012.5813781
MOVL P00056 V=0009.7029905
MOVL P00057 V=0007.4087282
MOVL P00058 V=0005.6007009
MOVL P00059 V=0004.1918116
MOVL P00060 V=0004.1918116
DOUT OT#(15) OFF
END
