/JOB
//NAME GAUSSIANMOVING2
//POS
///NPOS 0,0,0,241,0,0
///TOOL 0
///POSTYPE ROBOT
///RECTAN
///RCONF 0,0,0,0,0,0,0,0,0,0,0,0,0,0,0,0,0,0,0,0,0,0,0,0
P00000=10.000,0.000,0.000,0.0000,0.0000,0.0000
///POSTYPE BASE
P00001=0368.22449656,0004.14717670,378.131,178.2426,-0.7296,-129.2918
P00002=0368.23166564,0004.14720798,378.131,178.2426,-0.7296,-129.2918
P00003=0368.23997387,0004.14724423,378.131,178.2426,-0.7296,-129.2918
P00004=0368.24957822,0004.14728614,378.131,178.2426,-0.7296,-129.2918
P00005=0368.26065318,0004.14733446,378.131,178.2426,-0.7296,-129.2918
P00006=0368.27339205,0004.14739005,378.131,178.2426,-0.7296,-129.2918
P00007=0368.28800822,0004.14745382,378.131,178.2426,-0.7296,-129.2918
P00008=0368.30473651,0004.14752682,378.131,178.2426,-0.7296,-129.2918
P00009=0368.32383431,0004.14761015,378.131,178.2426,-0.7296,-129.2918
P00010=0368.34558284,0004.14770504,378.131,178.2426,-0.7296,-129.2918
P00011=0368.37028819,0004.14781284,378.131,178.2426,-0.7296,-129.2918
P00012=0368.39828228,0004.14793499,378.131,178.2426,-0.7296,-129.2918
P00013=0368.42992374,0004.14807305,378.131,178.2426,-0.7296,-129.2918
P00014=0368.46559849,0004.14822871,378.131,178.2426,-0.7296,-129.2918
P00015=0368.50572024,0004.14840378,378.131,178.2426,-0.7296,-129.2918
P00016=0368.55073069,0004.14860017,378.131,178.2426,-0.7296,-129.2918
P00017=0368.60109945,0004.14881995,378.131,178.2426,-0.7296,-129.2918
P00018=0368.65732372,0004.14906528,378.131,178.2426,-0.7296,-129.2918
P00019=0368.71992752,0004.14933844,378.131,178.2426,-0.7296,-129.2918
P00020=0368.78946070,0004.14964184,378.131,178.2426,-0.7296,-129.2918
P00021=0368.86649746,0004.14997798,378.131,178.2426,-0.7296,-129.2918
P00022=0368.95163448,0004.15034946,378.131,178.2426,-0.7296,-129.2918
P00023=0369.04548859,0004.15075898,378.131,178.2426,-0.7296,-129.2918
P00024=0369.14869406,0004.15120930,378.131,178.2426,-0.7296,-129.2918
P00025=0369.26189931,0004.15170325,378.131,178.2426,-0.7296,-129.2918
P00026=0369.38576327,0004.15224371,378.131,178.2426,-0.7296,-129.2918
P00027=0369.52095116,0004.15283359,378.131,178.2426,-0.7296,-129.2918
P00028=0369.66812991,0004.15347578,378.131,178.2426,-0.7296,-129.2918
P00029=0369.82796310,0004.15417319,378.131,178.2426,-0.7296,-129.2918
P00030=0370.00110544,0004.15492867,378.131,178.2426,-0.7296,-129.2918
P00031=0370.18819696,0004.15574501,378.131,178.2426,-0.7296,-129.2918
P00032=0370.38985679,0004.15662493,378.131,178.2426,-0.7296,-129.2918
P00033=0370.60667671,0004.15757099,378.131,178.2426,-0.7296,-129.2918
P00034=0370.83921447,0004.15858563,378.131,178.2426,-0.7296,-129.2918
P00035=0371.08798689,0004.15967111,378.131,178.2426,-0.7296,-129.2918
P00036=0371.35346304,0004.16082948,378.131,178.2426,-0.7296,-129.2918
P00037=0371.63605725,0004.16206254,378.131,178.2426,-0.7296,-129.2918
P00038=0371.93612235,0004.16337183,378.131,178.2426,-0.7296,-129.2918
P00039=0372.25394309,0004.16475859,378.131,178.2426,-0.7296,-129.2918
P00040=0372.58972975,0004.16622374,378.131,178.2426,-0.7296,-129.2918
P00041=0372.94361231,0004.16776786,378.131,178.2426,-0.7296,-129.2918
P00042=0373.31563494,0004.16939112,378.131,178.2426,-0.7296,-129.2918
P00043=0373.70575120,0004.17109334,378.131,178.2426,-0.7296,-129.2918
P00044=0374.11381985,0004.17287388,378.131,178.2426,-0.7296,-129.2918
P00045=0374.53960146,0004.17473172,378.131,178.2426,-0.7296,-129.2918
P00046=0374.98275585,0004.17666536,378.131,178.2426,-0.7296,-129.2918
P00047=0375.44284047,0004.17867287,378.131,178.2426,-0.7296,-129.2918
P00048=0375.91930969,0004.18075187,378.131,178.2426,-0.7296,-129.2918
P00049=0376.41151521,0004.18289954,378.131,178.2426,-0.7296,-129.2918
P00050=0376.91870745,0004.18511259,378.131,178.2426,-0.7296,-129.2918
P00051=0377.44003805,0004.18738734,378.131,178.2426,-0.7296,-129.2918
P00052=0377.97456341,0004.18971966,378.131,178.2426,-0.7296,-129.2918
P00053=0378.52124935,0004.19210505,378.131,178.2426,-0.7296,-129.2918
P00054=0379.07897675,0004.19453861,378.131,178.2426,-0.7296,-129.2918
P00055=0379.64654822,0004.19701512,378.131,178.2426,-0.7296,-129.2918
P00056=0380.22269563,0004.19952905,378.131,178.2426,-0.7296,-129.2918
P00057=0380.80608856,0004.20207460,378.131,178.2426,-0.7296,-129.2918
P00058=0381.39534347,0004.20464573,378.131,178.2426,-0.7296,-129.2918
P00059=0381.98903347,0004.20723620,378.131,178.2426,-0.7296,-129.2918
P00060=0382.58569873,0004.20983966,378.131,178.2426,-0.7296,-129.2918
P00061=0383.18385721,0004.21244964,378.131,178.2426,-0.7296,-129.2918
P00062=0383.78201569,0004.21505961,378.131,178.2426,-0.7296,-129.2918
P00063=0384.37868096,0004.21766307,378.131,178.2426,-0.7296,-129.2918
P00064=0384.97237096,0004.22025355,378.131,178.2426,-0.7296,-129.2918
P00065=0385.56162586,0004.22282468,378.131,178.2426,-0.7296,-129.2918
P00066=0386.14501879,0004.22537023,378.131,178.2426,-0.7296,-129.2918
P00067=0386.72116620,0004.22788416,378.131,178.2426,-0.7296,-129.2918
P00068=0387.28873767,0004.23036067,378.131,178.2426,-0.7296,-129.2918
P00069=0387.84646507,0004.23279423,378.131,178.2426,-0.7296,-129.2918
P00070=0388.39315101,0004.23517962,378.131,178.2426,-0.7296,-129.2918
P00071=0388.92767637,0004.23751194,378.131,178.2426,-0.7296,-129.2918
P00072=0389.44900697,0004.23978669,378.131,178.2426,-0.7296,-129.2918
P00073=0389.95619921,0004.24199974,378.131,178.2426,-0.7296,-129.2918
P00074=0390.44840473,0004.24414741,378.131,178.2426,-0.7296,-129.2918
P00075=0390.92487395,0004.24622641,378.131,178.2426,-0.7296,-129.2918
P00076=0391.38495857,0004.24823392,378.131,178.2426,-0.7296,-129.2918
P00077=0391.82811297,0004.25016756,378.131,178.2426,-0.7296,-129.2918
P00078=0392.25389458,0004.25202539,378.131,178.2426,-0.7296,-129.2918
P00079=0392.66196322,0004.25380594,378.131,178.2426,-0.7296,-129.2918
P00080=0393.05207948,0004.25550816,378.131,178.2426,-0.7296,-129.2918
P00081=0393.42410211,0004.25713142,378.131,178.2426,-0.7296,-129.2918
P00082=0393.77798467,0004.25867553,378.131,178.2426,-0.7296,-129.2918
P00083=0394.11377134,0004.26014069,378.131,178.2426,-0.7296,-129.2918
P00084=0394.43159207,0004.26152745,378.131,178.2426,-0.7296,-129.2918
P00085=0394.73165718,0004.26283674,378.131,178.2426,-0.7296,-129.2918
P00086=0395.01425138,0004.26406980,378.131,178.2426,-0.7296,-129.2918
P00087=0395.27972753,0004.26522816,378.131,178.2426,-0.7296,-129.2918
P00088=0395.52849995,0004.26631365,378.131,178.2426,-0.7296,-129.2918
P00089=0395.76103771,0004.26732829,378.131,178.2426,-0.7296,-129.2918
P00090=0395.97785763,0004.26827435,378.131,178.2426,-0.7296,-129.2918
P00091=0396.17951746,0004.26915426,378.131,178.2426,-0.7296,-129.2918
P00092=0396.36660898,0004.26997061,378.131,178.2426,-0.7296,-129.2918
P00093=0396.53975132,0004.27072609,378.131,178.2426,-0.7296,-129.2918
P00094=0396.69958451,0004.27142350,378.131,178.2426,-0.7296,-129.2918
P00095=0396.84676327,0004.27206569,378.131,178.2426,-0.7296,-129.2918
P00096=0396.98195116,0004.27265556,378.131,178.2426,-0.7296,-129.2918
P00097=0397.10581511,0004.27319603,378.131,178.2426,-0.7296,-129.2918
P00098=0397.21902036,0004.27368998,378.131,178.2426,-0.7296,-129.2918
P00099=0397.32222583,0004.27414030,378.131,178.2426,-0.7296,-129.2918
P00100=0397.41607994,0004.27454982,378.131,178.2426,-0.7296,-129.2918
P00101=0397.50121696,0004.27492130,378.131,178.2426,-0.7296,-129.2918
P00102=0397.57825372,0004.27525744,378.131,178.2426,-0.7296,-129.2918
P00103=0397.64778691,0004.27556084,378.131,178.2426,-0.7296,-129.2918
P00104=0397.71039071,0004.27583400,378.131,178.2426,-0.7296,-129.2918
P00105=0397.76661497,0004.27607933,378.131,178.2426,-0.7296,-129.2918
P00106=0397.81698373,0004.27629910,378.131,178.2426,-0.7296,-129.2918
P00107=0397.86199418,0004.27649550,378.131,178.2426,-0.7296,-129.2918
P00108=0397.90211594,0004.27667057,378.131,178.2426,-0.7296,-129.2918
P00109=0397.93779068,0004.27682623,378.131,178.2426,-0.7296,-129.2918
P00110=0397.96943214,0004.27696429,378.131,178.2426,-0.7296,-129.2918
P00111=0397.99742624,0004.27708644,378.131,178.2426,-0.7296,-129.2918
P00112=0398.02213158,0004.27719424,378.131,178.2426,-0.7296,-129.2918
P00113=0398.04388011,0004.27728913,378.131,178.2426,-0.7296,-129.2918
P00114=0398.06297791,0004.27737246,378.131,178.2426,-0.7296,-129.2918
P00115=0398.07970620,0004.27744545,378.131,178.2426,-0.7296,-129.2918
P00116=0398.09432238,0004.27750923,378.131,178.2426,-0.7296,-129.2918
P00117=0398.10706124,0004.27756481,378.131,178.2426,-0.7296,-129.2918
P00118=0398.11813620,0004.27761314,378.131,178.2426,-0.7296,-129.2918
P00119=0398.12774056,0004.27765504,378.131,178.2426,-0.7296,-129.2918
P00120=0398.13604879,0004.27769130,378.131,178.2426,-0.7296,-129.2918
P00121=0303.17850344,0000.63182330,308.141,178.5590,4.5487,-19.7702
P00122=0303.17133436,0000.63179202,308.141,178.5590,4.5487,-19.7702
P00123=0303.16302613,0000.63175577,308.141,178.5590,4.5487,-19.7702
P00124=0303.15342178,0000.63171386,308.141,178.5590,4.5487,-19.7702
P00125=0303.14234682,0000.63166554,308.141,178.5590,4.5487,-19.7702
P00126=0303.12960795,0000.63160995,308.141,178.5590,4.5487,-19.7702
P00127=0303.11499178,0000.63154618,308.141,178.5590,4.5487,-19.7702
P00128=0303.09826349,0000.63147318,308.141,178.5590,4.5487,-19.7702
P00129=0303.07916569,0000.63138985,308.141,178.5590,4.5487,-19.7702
P00130=0303.05741716,0000.63129496,308.141,178.5590,4.5487,-19.7702
P00131=0303.03271181,0000.63118716,308.141,178.5590,4.5487,-19.7702
P00132=0303.00471772,0000.63106501,308.141,178.5590,4.5487,-19.7702
P00133=0302.97307626,0000.63092695,308.141,178.5590,4.5487,-19.7702
P00134=0302.93740151,0000.63077129,308.141,178.5590,4.5487,-19.7702
P00135=0302.89727976,0000.63059622,308.141,178.5590,4.5487,-19.7702
P00136=0302.85226931,0000.63039983,308.141,178.5590,4.5487,-19.7702
P00137=0302.80190055,0000.63018005,308.141,178.5590,4.5487,-19.7702
P00138=0302.74567628,0000.62993472,308.141,178.5590,4.5487,-19.7702
P00139=0302.68307248,0000.62966156,308.141,178.5590,4.5487,-19.7702
P00140=0302.61353930,0000.62935816,308.141,178.5590,4.5487,-19.7702
P00141=0302.53650254,0000.62902202,308.141,178.5590,4.5487,-19.7702
P00142=0302.45136552,0000.62865054,308.141,178.5590,4.5487,-19.7702
P00143=0302.35751141,0000.62824102,308.141,178.5590,4.5487,-19.7702
P00144=0302.25430594,0000.62779070,308.141,178.5590,4.5487,-19.7702
P00145=0302.14110069,0000.62729675,308.141,178.5590,4.5487,-19.7702
P00146=0302.01723673,0000.62675629,308.141,178.5590,4.5487,-19.7702
P00147=0301.88204884,0000.62616641,308.141,178.5590,4.5487,-19.7702
P00148=0301.73487009,0000.62552422,308.141,178.5590,4.5487,-19.7702
P00149=0301.57503690,0000.62482681,308.141,178.5590,4.5487,-19.7702
P00150=0301.40189456,0000.62407133,308.141,178.5590,4.5487,-19.7702
P00151=0301.21480304,0000.62325499,308.141,178.5590,4.5487,-19.7702
P00152=0301.01314321,0000.62237507,308.141,178.5590,4.5487,-19.7702
P00153=0300.79632329,0000.62142901,308.141,178.5590,4.5487,-19.7702
P00154=0300.56378553,0000.62041437,308.141,178.5590,4.5487,-19.7702
P00155=0300.31501311,0000.61932889,308.141,178.5590,4.5487,-19.7702
P00156=0300.04953696,0000.61817052,308.141,178.5590,4.5487,-19.7702
P00157=0299.76694275,0000.61693746,308.141,178.5590,4.5487,-19.7702
P00158=0299.46687765,0000.61562817,308.141,178.5590,4.5487,-19.7702
P00159=0299.14905691,0000.61424141,308.141,178.5590,4.5487,-19.7702
P00160=0298.81327025,0000.61277626,308.141,178.5590,4.5487,-19.7702
P00161=0298.45938769,0000.61123214,308.141,178.5590,4.5487,-19.7702
P00162=0298.08736506,0000.60960888,308.141,178.5590,4.5487,-19.7702
P00163=0297.69724880,0000.60790666,308.141,178.5590,4.5487,-19.7702
P00164=0297.28918015,0000.60612612,308.141,178.5590,4.5487,-19.7702
P00165=0296.86339854,0000.60426828,308.141,178.5590,4.5487,-19.7702
P00166=0296.42024415,0000.60233464,308.141,178.5590,4.5487,-19.7702
P00167=0295.96015953,0000.60032713,308.141,178.5590,4.5487,-19.7702
P00168=0295.48369031,0000.59824813,308.141,178.5590,4.5487,-19.7702
P00169=0294.99148479,0000.59610046,308.141,178.5590,4.5487,-19.7702
P00170=0294.48429255,0000.59388741,308.141,178.5590,4.5487,-19.7702
P00171=0293.96296195,0000.59161266,308.141,178.5590,4.5487,-19.7702
P00172=0293.42843659,0000.58928034,308.141,178.5590,4.5487,-19.7702
P00173=0292.88175065,0000.58689495,308.141,178.5590,4.5487,-19.7702
P00174=0292.32402325,0000.58446139,308.141,178.5590,4.5487,-19.7702
P00175=0291.75645178,0000.58198488,308.141,178.5590,4.5487,-19.7702
P00176=0291.18030437,0000.57947095,308.141,178.5590,4.5487,-19.7702
P00177=0290.59691144,0000.57692540,308.141,178.5590,4.5487,-19.7702
P00178=0290.00765653,0000.57435427,308.141,178.5590,4.5487,-19.7702
P00179=0289.41396653,0000.57176380,308.141,178.5590,4.5487,-19.7702
P00180=0288.81730127,0000.56916034,308.141,178.5590,4.5487,-19.7702
P00181=0288.21914279,0000.56655036,308.141,178.5590,4.5487,-19.7702
P00182=0287.62098431,0000.56394039,308.141,178.5590,4.5487,-19.7702
P00183=0287.02431904,0000.56133693,308.141,178.5590,4.5487,-19.7702
P00184=0286.43062904,0000.55874645,308.141,178.5590,4.5487,-19.7702
P00185=0285.84137414,0000.55617532,308.141,178.5590,4.5487,-19.7702
P00186=0285.25798121,0000.55362977,308.141,178.5590,4.5487,-19.7702
P00187=0284.68183380,0000.55111584,308.141,178.5590,4.5487,-19.7702
P00188=0284.11426233,0000.54863933,308.141,178.5590,4.5487,-19.7702
P00189=0283.55653493,0000.54620577,308.141,178.5590,4.5487,-19.7702
P00190=0283.00984899,0000.54382038,308.141,178.5590,4.5487,-19.7702
P00191=0282.47532363,0000.54148806,308.141,178.5590,4.5487,-19.7702
P00192=0281.95399303,0000.53921331,308.141,178.5590,4.5487,-19.7702
P00193=0281.44680079,0000.53700026,308.141,178.5590,4.5487,-19.7702
P00194=0280.95459527,0000.53485259,308.141,178.5590,4.5487,-19.7702
P00195=0280.47812605,0000.53277359,308.141,178.5590,4.5487,-19.7702
P00196=0280.01804143,0000.53076608,308.141,178.5590,4.5487,-19.7702
P00197=0279.57488703,0000.52883244,308.141,178.5590,4.5487,-19.7702
P00198=0279.14910542,0000.52697461,308.141,178.5590,4.5487,-19.7702
P00199=0278.74103678,0000.52519406,308.141,178.5590,4.5487,-19.7702
P00200=0278.35092052,0000.52349184,308.141,178.5590,4.5487,-19.7702
P00201=0277.97889789,0000.52186858,308.141,178.5590,4.5487,-19.7702
P00202=0277.62501533,0000.52032447,308.141,178.5590,4.5487,-19.7702
P00203=0277.28922866,0000.51885931,308.141,178.5590,4.5487,-19.7702
P00204=0276.97140793,0000.51747255,308.141,178.5590,4.5487,-19.7702
P00205=0276.67134282,0000.51616326,308.141,178.5590,4.5487,-19.7702
P00206=0276.38874862,0000.51493020,308.141,178.5590,4.5487,-19.7702
P00207=0276.12327247,0000.51377184,308.141,178.5590,4.5487,-19.7702
P00208=0275.87450005,0000.51268635,308.141,178.5590,4.5487,-19.7702
P00209=0275.64196229,0000.51167171,308.141,178.5590,4.5487,-19.7702
P00210=0275.42514237,0000.51072565,308.141,178.5590,4.5487,-19.7702
P00211=0275.22348254,0000.50984574,308.141,178.5590,4.5487,-19.7702
P00212=0275.03639102,0000.50902939,308.141,178.5590,4.5487,-19.7702
P00213=0274.86324868,0000.50827391,308.141,178.5590,4.5487,-19.7702
P00214=0274.70341549,0000.50757650,308.141,178.5590,4.5487,-19.7702
P00215=0274.55623673,0000.50693431,308.141,178.5590,4.5487,-19.7702
P00216=0274.42104884,0000.50634444,308.141,178.5590,4.5487,-19.7702
P00217=0274.29718489,0000.50580397,308.141,178.5590,4.5487,-19.7702
P00218=0274.18397964,0000.50531002,308.141,178.5590,4.5487,-19.7702
P00219=0274.08077417,0000.50485970,308.141,178.5590,4.5487,-19.7702
P00220=0273.98692006,0000.50445018,308.141,178.5590,4.5487,-19.7702
P00221=0273.90178304,0000.50407870,308.141,178.5590,4.5487,-19.7702
P00222=0273.82474628,0000.50374256,308.141,178.5590,4.5487,-19.7702
P00223=0273.75521309,0000.50343916,308.141,178.5590,4.5487,-19.7702
P00224=0273.69260929,0000.50316600,308.141,178.5590,4.5487,-19.7702
P00225=0273.63638503,0000.50292067,308.141,178.5590,4.5487,-19.7702
P00226=0273.58601627,0000.50270090,308.141,178.5590,4.5487,-19.7702
P00227=0273.54100582,0000.50250450,308.141,178.5590,4.5487,-19.7702
P00228=0273.50088406,0000.50232943,308.141,178.5590,4.5487,-19.7702
P00229=0273.46520932,0000.50217377,308.141,178.5590,4.5487,-19.7702
P00230=0273.43356786,0000.50203571,308.141,178.5590,4.5487,-19.7702
P00231=0273.40557376,0000.50191356,308.141,178.5590,4.5487,-19.7702
P00232=0273.38086842,0000.50180576,308.141,178.5590,4.5487,-19.7702
P00233=0273.35911989,0000.50171087,308.141,178.5590,4.5487,-19.7702
P00234=0273.34002209,0000.50162754,308.141,178.5590,4.5487,-19.7702
P00235=0273.32329380,0000.50155455,308.141,178.5590,4.5487,-19.7702
P00236=0273.30867762,0000.50149077,308.141,178.5590,4.5487,-19.7702
P00237=0273.29593876,0000.50143519,308.141,178.5590,4.5487,-19.7702
P00238=0273.28486380,0000.50138686,308.141,178.5590,4.5487,-19.7702
P00239=0273.27525944,0000.50134496,308.141,178.5590,4.5487,-19.7702
P00240=0273.26695121,0000.50130870,308.141,178.5590,4.5487,-19.7702
//INST
///DATE 2017/03/31 08:11
///COMM PLAYINGTWOROBOTS
///ATTR SC,RW
///GROUP1 RB1
///GROUP2 RB2
NOP
MOVL P00001 V=0000.4480718  +MOVL P00121 V=0000.4480718
MOVL P00002 V=0000.5192693  +MOVL P00122 V=0000.5192693
MOVL P00003 V=0000.6002778  +MOVL P00123 V=0000.6002778
MOVL P00004 V=0000.6921916  +MOVL P00124 V=0000.6921916
MOVL P00005 V=0000.7961867  +MOVL P00125 V=0000.7961867
MOVL P00006 V=0000.9135198  +MOVL P00126 V=0000.9135198
MOVL P00007 V=0001.0455276  +MOVL P00127 V=0001.0455276
MOVL P00008 V=0001.1936240  +MOVL P00128 V=0001.1936240
MOVL P00009 V=0001.3592961  +MOVL P00129 V=0001.3592961
MOVL P00010 V=0001.5440988  +MOVL P00130 V=0001.5440988
MOVL P00011 V=0001.7496476  +MOVL P00131 V=0001.7496476
MOVL P00012 V=0001.9776097  +MOVL P00132 V=0001.9776097
MOVL P00013 V=0002.2296930  +MOVL P00133 V=0002.2296930
MOVL P00014 V=0002.5076334  +MOVL P00134 V=0002.5076334
MOVL P00015 V=0002.8131799  +MOVL P00135 V=0002.8131799
MOVL P00016 V=0003.1480779  +MOVL P00136 V=0003.1480779
MOVL P00017 V=0003.5140498  +MOVL P00137 V=0003.5140498
MOVL P00018 V=0003.9127747  +MOVL P00138 V=0003.9127747
MOVL P00019 V=0004.3458653  +MOVL P00139 V=0004.3458653
MOVL P00020 V=0004.8148435  +MOVL P00140 V=0004.8148435
MOVL P00021 V=0005.3211142  +MOVL P00141 V=0005.3211142
MOVL P00022 V=0005.8659381  +MOVL P00142 V=0005.8659381
MOVL P00023 V=0006.4504031  +MOVL P00143 V=0006.4504031
MOVL P00024 V=0007.0753956  +MOVL P00144 V=0007.0753956
MOVL P00025 V=0007.7415708  +MOVL P00145 V=0007.7415708
MOVL P00026 V=0008.4493236  +MOVL P00146 V=0008.4493236
MOVL P00027 V=0009.1987599  +MOVL P00147 V=0009.1987599
MOVL P00028 V=0009.9896694  +MOVL P00148 V=0009.9896694
MOVL P00029 V=0010.8214993  +MOVL P00149 V=0010.8214993
MOVL P00030 V=0011.6933311  +MOVL P00150 V=0011.6933311
MOVL P00031 V=0012.6038594  +MOVL P00151 V=0012.6038594
MOVL P00032 V=0013.5513743  +MOVL P00152 V=0013.5513743
MOVL P00033 V=0014.5337479  +MOVL P00153 V=0014.5337479
MOVL P00034 V=0015.5484247  +MOVL P00154 V=0015.5484247
MOVL P00035 V=0016.5924170  +MOVL P00155 V=0016.5924170
MOVL P00036 V=0017.6623060  +MOVL P00156 V=0017.6623060
MOVL P00037 V=0018.7542477  +MOVL P00157 V=0018.7542477
MOVL P00038 V=0019.8639850  +MOVL P00158 V=0019.8639850
MOVL P00039 V=0020.9868664  +MOVL P00159 V=0020.9868664
MOVL P00040 V=0022.1178704  +MOVL P00160 V=0022.1178704
MOVL P00041 V=0023.2516357  +MOVL P00161 V=0023.2516357
MOVL P00042 V=0024.3824982  +MOVL P00162 V=0024.3824982
MOVL P00043 V=0025.5045333  +MOVL P00163 V=0025.5045333
MOVL P00044 V=0026.6116040  +MOVL P00164 V=0026.6116040
MOVL P00045 V=0027.6974134  +MOVL P00165 V=0027.6974134
MOVL P00046 V=0028.7555622  +MOVL P00166 V=0028.7555622
MOVL P00047 V=0029.7796098  +MOVL P00167 V=0029.7796098
MOVL P00048 V=0030.7631380  +MOVL P00168 V=0030.7631380
MOVL P00049 V=0031.6998169  +MOVL P00169 V=0031.6998169
MOVL P00050 V=0032.5834724  +MOVL P00170 V=0032.5834724
MOVL P00051 V=0033.4081529  +MOVL P00171 V=0033.4081529
MOVL P00052 V=0034.1681964  +MOVL P00172 V=0034.1681964
MOVL P00053 V=0034.8582946  +MOVL P00173 V=0034.8582946
MOVL P00054 V=0035.4735543  +MOVL P00174 V=0035.4735543
MOVL P00055 V=0036.0095559  +MOVL P00175 V=0036.0095559
MOVL P00056 V=0036.4624055  +MOVL P00176 V=0036.4624055
MOVL P00057 V=0036.8287820  +MOVL P00177 V=0036.8287820
MOVL P00058 V=0037.1059783  +MOVL P00178 V=0037.1059783
MOVL P00059 V=0037.2919339  +MOVL P00179 V=0037.2919339
MOVL P00060 V=0037.3852609  +MOVL P00180 V=0037.3852609
MOVL P00061 V=0037.3852609  +MOVL P00181 V=0037.3852609
MOVL P00062 V=0037.2919339  +MOVL P00182 V=0037.2919339
MOVL P00063 V=0037.1059783  +MOVL P00183 V=0037.1059783
MOVL P00064 V=0036.8287820  +MOVL P00184 V=0036.8287820
MOVL P00065 V=0036.4624055  +MOVL P00185 V=0036.4624055
MOVL P00066 V=0036.0095559  +MOVL P00186 V=0036.0095559
MOVL P00067 V=0035.4735543  +MOVL P00187 V=0035.4735543
MOVL P00068 V=0034.8582946  +MOVL P00188 V=0034.8582946
MOVL P00069 V=0034.1681964  +MOVL P00189 V=0034.1681964
MOVL P00070 V=0033.4081529  +MOVL P00190 V=0033.4081529
MOVL P00071 V=0032.5834724  +MOVL P00191 V=0032.5834724
MOVL P00072 V=0031.6998169  +MOVL P00192 V=0031.6998169
MOVL P00073 V=0030.7631380  +MOVL P00193 V=0030.7631380
MOVL P00074 V=0029.7796098  +MOVL P00194 V=0029.7796098
MOVL P00075 V=0028.7555622  +MOVL P00195 V=0028.7555622
MOVL P00076 V=0027.6974134  +MOVL P00196 V=0027.6974134
MOVL P00077 V=0026.6116040  +MOVL P00197 V=0026.6116040
MOVL P00078 V=0025.5045333  +MOVL P00198 V=0025.5045333
MOVL P00079 V=0024.3824982  +MOVL P00199 V=0024.3824982
MOVL P00080 V=0023.2516357  +MOVL P00200 V=0023.2516357
MOVL P00081 V=0022.1178704  +MOVL P00201 V=0022.1178704
MOVL P00082 V=0020.9868664  +MOVL P00202 V=0020.9868664
MOVL P00083 V=0019.8639850  +MOVL P00203 V=0019.8639850
MOVL P00084 V=0018.7542477  +MOVL P00204 V=0018.7542477
MOVL P00085 V=0017.6623060  +MOVL P00205 V=0017.6623060
MOVL P00086 V=0016.5924170  +MOVL P00206 V=0016.5924170
MOVL P00087 V=0015.5484247  +MOVL P00207 V=0015.5484247
MOVL P00088 V=0014.5337479  +MOVL P00208 V=0014.5337479
MOVL P00089 V=0013.5513743  +MOVL P00209 V=0013.5513743
MOVL P00090 V=0012.6038594  +MOVL P00210 V=0012.6038594
MOVL P00091 V=0011.6933311  +MOVL P00211 V=0011.6933311
MOVL P00092 V=0010.8214993  +MOVL P00212 V=0010.8214993
MOVL P00093 V=0009.9896694  +MOVL P00213 V=0009.9896694
MOVL P00094 V=0009.1987599  +MOVL P00214 V=0009.1987599
MOVL P00095 V=0008.4493236  +MOVL P00215 V=0008.4493236
MOVL P00096 V=0007.7415708  +MOVL P00216 V=0007.7415708
MOVL P00097 V=0007.0753956  +MOVL P00217 V=0007.0753956
MOVL P00098 V=0006.4504031  +MOVL P00218 V=0006.4504031
MOVL P00099 V=0005.8659381  +MOVL P00219 V=0005.8659381
MOVL P00100 V=0005.3211142  +MOVL P00220 V=0005.3211142
MOVL P00101 V=0004.8148435  +MOVL P00221 V=0004.8148435
MOVL P00102 V=0004.3458653  +MOVL P00222 V=0004.3458653
MOVL P00103 V=0003.9127747  +MOVL P00223 V=0003.9127747
MOVL P00104 V=0003.5140498  +MOVL P00224 V=0003.5140498
MOVL P00105 V=0003.1480779  +MOVL P00225 V=0003.1480779
MOVL P00106 V=0002.8131799  +MOVL P00226 V=0002.8131799
MOVL P00107 V=0002.5076334  +MOVL P00227 V=0002.5076334
MOVL P00108 V=0002.2296930  +MOVL P00228 V=0002.2296930
MOVL P00109 V=0001.9776097  +MOVL P00229 V=0001.9776097
MOVL P00110 V=0001.7496476  +MOVL P00230 V=0001.7496476
MOVL P00111 V=0001.5440988  +MOVL P00231 V=0001.5440988
MOVL P00112 V=0001.3592961  +MOVL P00232 V=0001.3592961
MOVL P00113 V=0001.1936240  +MOVL P00233 V=0001.1936240
MOVL P00114 V=0001.0455276  +MOVL P00234 V=0001.0455276
MOVL P00115 V=0000.9135198  +MOVL P00235 V=0000.9135198
MOVL P00116 V=0000.7961867  +MOVL P00236 V=0000.7961867
MOVL P00117 V=0000.6921916  +MOVL P00237 V=0000.6921916
MOVL P00118 V=0000.6002778  +MOVL P00238 V=0000.6002778
MOVL P00119 V=0000.5192693  +MOVL P00239 V=0000.5192693
MOVL P00120 V=0000.5192693  +MOVL P00240 V=0000.5192693
END
