/JOB
//NAME GAUSSIANMOVING2
//POS
///NPOS 0,0,0,61,0,0
///TOOL 0
///POSTYPE ROBOT
///RECTAN
///RCONF 0,0,0,0,0,0,0,0,0,0,0,0,0,0,0,0,0,0,0,0,0,0,0,0
P00000=10.000,0.000,0.000,0.0000,0.0000,0.0000
///POSTYPE BASE
///TOOL1
P00001=0674.53000000,-0079.85073494,0898.48000000,0180.00000000,0000.00000000,0000.00000000
P00002=0674.53000000,-0079.79558957,0898.48000000,0180.00000000,0000.00000000,0000.00000000
P00003=0674.53000000,-0079.72264210,0898.48000000,0180.00000000,0000.00000000,0000.00000000
P00004=0674.53000000,-0079.62710496,0898.48000000,0180.00000000,0000.00000000,0000.00000000
P00005=0674.53000000,-0079.50322677,0898.48000000,0180.00000000,0000.00000000,0000.00000000
P00006=0674.53000000,-0079.34419713,0898.48000000,0180.00000000,0000.00000000,0000.00000000
P00007=0674.53000000,-0079.14207120,0898.48000000,0180.00000000,0000.00000000,0000.00000000
P00008=0674.53000000,-0078.88772420,0898.48000000,0180.00000000,0000.00000000,0000.00000000
P00009=0674.53000000,-0078.57084635,0898.48000000,0180.00000000,0000.00000000,0000.00000000
P00010=0674.53000000,-0078.17998944,0898.48000000,0180.00000000,0000.00000000,0000.00000000
P00011=0674.53000000,-0077.70267521,0898.48000000,0180.00000000,0000.00000000,0000.00000000
P00012=0674.53000000,-0077.12557447,0898.48000000,0180.00000000,0000.00000000,0000.00000000
P00013=0674.53000000,-0076.43476298,0898.48000000,0180.00000000,0000.00000000,0000.00000000
P00014=0674.53000000,-0075.61605666,0898.48000000,0180.00000000,0000.00000000,0000.00000000
P00015=0674.53000000,-0074.65542390,0898.48000000,0180.00000000,0000.00000000,0000.00000000
P00016=0674.53000000,-0073.53946726,0898.48000000,0180.00000000,0000.00000000,0000.00000000
P00017=0674.53000000,-0072.25596123,0898.48000000,0180.00000000,0000.00000000,0000.00000000
P00018=0674.53000000,-0070.79442638,0898.48000000,0180.00000000,0000.00000000,0000.00000000
P00019=0674.53000000,-0069.14671512,0898.48000000,0180.00000000,0000.00000000,0000.00000000
P00020=0674.53000000,-0067.30757969,0898.48000000,0180.00000000,0000.00000000,0000.00000000
P00021=0674.53000000,-0065.27518997,0898.48000000,0180.00000000,0000.00000000,0000.00000000
P00022=0674.53000000,-0063.05156811,0898.48000000,0180.00000000,0000.00000000,0000.00000000
P00023=0674.53000000,-0060.64290782,0898.48000000,0180.00000000,0000.00000000,0000.00000000
P00024=0674.53000000,-0058.05975058,0898.48000000,0180.00000000,0000.00000000,0000.00000000
P00025=0674.53000000,-0055.31699690,0898.48000000,0180.00000000,0000.00000000,0000.00000000
P00026=0674.53000000,-0052.43373933,0898.48000000,0180.00000000,0000.00000000,0000.00000000
P00027=0674.53000000,-0049.43291378,0898.48000000,0180.00000000,0000.00000000,0000.00000000
P00028=0674.53000000,-0046.34077676,0898.48000000,0180.00000000,0000.00000000,0000.00000000
P00029=0674.53000000,-0043.18622698,0898.48000000,0180.00000000,0000.00000000,0000.00000000
P00030=0674.53000000,-0040.00000000,0898.48000000,0180.00000000,0000.00000000,0000.00000000
P00031=0674.53000000,-0036.81377302,0898.48000000,0180.00000000,0000.00000000,0000.00000000
P00032=0674.53000000,-0033.65922324,0898.48000000,0180.00000000,0000.00000000,0000.00000000
P00033=0674.53000000,-0030.56708622,0898.48000000,0180.00000000,0000.00000000,0000.00000000
P00034=0674.53000000,-0027.56626067,0898.48000000,0180.00000000,0000.00000000,0000.00000000
P00035=0674.53000000,-0024.68300310,0898.48000000,0180.00000000,0000.00000000,0000.00000000
P00036=0674.53000000,-0021.94024942,0898.48000000,0180.00000000,0000.00000000,0000.00000000
P00037=0674.53000000,-0019.35709218,0898.48000000,0180.00000000,0000.00000000,0000.00000000
P00038=0674.53000000,-0016.94843189,0898.48000000,0180.00000000,0000.00000000,0000.00000000
P00039=0674.53000000,-0014.72481003,0898.48000000,0180.00000000,0000.00000000,0000.00000000
P00040=0674.53000000,-0012.69242031,0898.48000000,0180.00000000,0000.00000000,0000.00000000
P00041=0674.53000000,-0010.85328488,0898.48000000,0180.00000000,0000.00000000,0000.00000000
P00042=0674.53000000,-0009.20557362,0898.48000000,0180.00000000,0000.00000000,0000.00000000
P00043=0674.53000000,-0007.74403877,0898.48000000,0180.00000000,0000.00000000,0000.00000000
P00044=0674.53000000,-0006.46053274,0898.48000000,0180.00000000,0000.00000000,0000.00000000
P00045=0674.53000000,-0005.34457610,0898.48000000,0180.00000000,0000.00000000,0000.00000000
P00046=0674.53000000,-0004.38394334,0898.48000000,0180.00000000,0000.00000000,0000.00000000
P00047=0674.53000000,-0003.56523702,0898.48000000,0180.00000000,0000.00000000,0000.00000000
P00048=0674.53000000,-0002.87442553,0898.48000000,0180.00000000,0000.00000000,0000.00000000
P00049=0674.53000000,-0002.29732479,0898.48000000,0180.00000000,0000.00000000,0000.00000000
P00050=0674.53000000,-0001.82001056,0898.48000000,0180.00000000,0000.00000000,0000.00000000
P00051=0674.53000000,-0001.42915365,0898.48000000,0180.00000000,0000.00000000,0000.00000000
P00052=0674.53000000,-0001.11227580,0898.48000000,0180.00000000,0000.00000000,0000.00000000
P00053=0674.53000000,-0000.85792880,0898.48000000,0180.00000000,0000.00000000,0000.00000000
P00054=0674.53000000,-0000.65580287,0898.48000000,0180.00000000,0000.00000000,0000.00000000
P00055=0674.53000000,-0000.49677323,0898.48000000,0180.00000000,0000.00000000,0000.00000000
P00056=0674.53000000,-0000.37289504,0898.48000000,0180.00000000,0000.00000000,0000.00000000
P00057=0674.53000000,-0000.27735790,0898.48000000,0180.00000000,0000.00000000,0000.00000000
P00058=0674.53000000,-0000.20441043,0898.48000000,0180.00000000,0000.00000000,0000.00000000
P00059=0674.53000000,-0000.14926506,0898.48000000,0180.00000000,0000.00000000,0000.00000000
P00060=0674.53000000,-0000.10799184,0898.48000000,0180.00000000,0000.00000000,0000.00000000
//INST
///DATE 2017/03/31 08:11
///ATTR SC,RW
///GROUP1 RB2
NOP
DOUT OT#(15) ON
MOVL P00001 V=0003.4465852
MOVL P00002 V=0004.5592174
MOVL P00003 V=0005.9710711
MOVL P00004 V=0007.7423865
MOVL P00005 V=0009.9393530
MOVL P00006 V=0012.6328705
MOVL P00007 V=0015.8966875
MOVL P00008 V=0019.8048652
MOVL P00009 V=0024.4285569
MOVL P00010 V=0029.8321393
MOVL P00011 V=0036.0687965
MOVL P00012 V=0043.1757182
MOVL P00013 V=0051.1691447
MOVL P00014 V=0060.0395478
MOVL P00015 V=0069.7472898
MOVL P00016 V=0080.2191268
MOVL P00017 V=0091.3459282
MOVL P00018 V=0102.9819536
MOVL P00019 V=0114.9459649
MOVL P00020 V=0127.0243571
MOVL P00021 V=0138.9763662
MOVL P00022 V=0150.5412682
MOVL P00023 V=0161.4473276
MOVL P00024 V=0171.4221049
MOVL P00025 V=0180.2035983
MOVL P00026 V=0187.5515971
MOVL P00027 V=0193.2585637
MOVL P00028 V=0197.1593608
MOVL P00029 V=0199.1391864
MOVL P00030 V=0199.1391864
MOVL P00031 V=0197.1593608
MOVL P00032 V=0193.2585637
MOVL P00033 V=0187.5515971
MOVL P00034 V=0180.2035983
MOVL P00035 V=0171.4221049
MOVL P00036 V=0161.4473276
MOVL P00037 V=0150.5412682
MOVL P00038 V=0138.9763662
MOVL P00039 V=0127.0243571
MOVL P00040 V=0114.9459649
MOVL P00041 V=0102.9819536
MOVL P00042 V=0091.3459282
MOVL P00043 V=0080.2191268
MOVL P00044 V=0069.7472898
MOVL P00045 V=0060.0395478
MOVL P00046 V=0051.1691447
MOVL P00047 V=0043.1757182
MOVL P00048 V=0036.0687965
MOVL P00049 V=0029.8321393
MOVL P00050 V=0024.4285569
MOVL P00051 V=0019.8048652
MOVL P00052 V=0015.8966875
MOVL P00053 V=0012.6328705
MOVL P00054 V=0009.9393530
MOVL P00055 V=0007.7423865
MOVL P00056 V=0005.9710711
MOVL P00057 V=0004.5592174
MOVL P00058 V=0003.4465852
MOVL P00059 V=0002.5795763
MOVL P00060 V=0002.5795763
DOUT OT#(15) OFF
END
