/JOB
//NAME GAUSSIANMOVING2
//POS
///NPOS 0,0,0,61,0,0
///TOOL 0
///POSTYPE ROBOT
///RECTAN
///RCONF 0,0,0,0,0,0,0,0,0,0,0,0,0,0,0,0,0,0,0,0,0,0,0,0
P00000=10.000,0.000,0.000,0.0000,0.0000,0.0000
///POSTYPE BASE
P00001=0132.88231211,-0000.02395035,0578.51100000,0000.00190000,-0000.28450000,0179.99960000
P00002=0132.92217898,-0000.03463264,0578.51100000,0000.00190000,-0000.28450000,0179.99960000
P00003=0132.97544531,-0000.04890531,0578.51100000,0000.00190000,-0000.28450000,0179.99960000
P00004=0133.04590716,-0000.06778551,0578.51100000,0000.00190000,-0000.28450000,0179.99960000
P00005=0133.13818895,-0000.09251234,0578.51100000,0000.00190000,-0000.28450000,0179.99960000
P00006=0133.25784609,-0000.12457437,0578.51100000,0000.00190000,-0000.28450000,0179.99960000
P00007=0133.41145693,-0000.16573427,0578.51100000,0000.00190000,-0000.28450000,0179.99960000
P00008=0133.60669559,-0000.21804831,0578.51100000,0000.00190000,-0000.28450000,0179.99960000
P00009=0133.85237592,-0000.28387816,0578.51100000,0000.00190000,-0000.28450000,0179.99960000
P00010=0134.15845642,-0000.36589218,0578.51100000,0000.00190000,-0000.28450000,0179.99960000
P00011=0134.53599520,-0000.46705339,0578.51100000,0000.00190000,-0000.28450000,0179.99960000
P00012=0134.99704534,-0000.59059141,0578.51100000,0000.00190000,-0000.28450000,0179.99960000
P00013=0135.55448185,-0000.73995607,0578.51100000,0000.00190000,-0000.28450000,0179.99960000
P00014=0136.22175452,-0000.91875124,0578.51100000,0000.00190000,-0000.28450000,0179.99960000
P00015=0137.01256409,-0001.13064803,0578.51100000,0000.00190000,-0000.28450000,0179.99960000
P00016=0137.94046409,-0001.37927808,0578.51100000,0000.00190000,-0000.28450000,0179.99960000
P00017=0139.01839542,-0001.66810891,0578.51100000,0000.00190000,-0000.28450000,0179.99960000
P00018=0140.25816704,-0002.00030472,0578.51100000,0000.00190000,-0000.28450000,0179.99960000
P00019=0141.66990130,-0002.37857777,0578.51100000,0000.00190000,-0000.28450000,0179.99960000
P00020=0143.26146816,-0002.80503683,0578.51100000,0000.00190000,-0000.28450000,0179.99960000
P00021=0145.03793658,-0003.28104011,0578.51100000,0000.00190000,-0000.28450000,0179.99960000
P00022=0147.00107429,-0003.80706127,0578.51100000,0000.00190000,-0000.28450000,0179.99960000
P00023=0149.14892807,-0004.38257696,0578.51100000,0000.00190000,-0000.28450000,0179.99960000
P00024=0151.47551526,-0005.00598411,0578.51100000,0000.00190000,-0000.28450000,0179.99960000
P00025=0153.97065355,-0005.67455440,0578.51100000,0000.00190000,-0000.28450000,0179.99960000
P00026=0156.61995016,-0006.38443129,0578.51100000,0000.00190000,-0000.28450000,0179.99960000
P00027=0159.40496312,-0007.13067326,0578.51100000,0000.00190000,-0000.28450000,0179.99960000
P00028=0162.30353802,-0007.90734407,0578.51100000,0000.00190000,-0000.28450000,0179.99960000
P00029=0165.29031303,-0008.70764802,0578.51100000,0000.00190000,-0000.28450000,0179.99960000
P00030=0168.33737412,-0009.52410558,0578.51100000,0000.00190000,-0000.28450000,0179.99960000
P00031=0171.41503305,-0010.34876180,0578.51100000,0000.00190000,-0000.28450000,0179.99960000
P00032=0174.49269198,-0011.17341803,0578.51100000,0000.00190000,-0000.28450000,0179.99960000
P00033=0177.53975308,-0011.98987559,0578.51100000,0000.00190000,-0000.28450000,0179.99960000
P00034=0180.52652808,-0012.79017954,0578.51100000,0000.00190000,-0000.28450000,0179.99960000
P00035=0183.42510299,-0013.56685034,0578.51100000,0000.00190000,-0000.28450000,0179.99960000
P00036=0186.21011594,-0014.31309232,0578.51100000,0000.00190000,-0000.28450000,0179.99960000
P00037=0188.85941255,-0015.02296920,0578.51100000,0000.00190000,-0000.28450000,0179.99960000
P00038=0191.35455085,-0015.69153949,0578.51100000,0000.00190000,-0000.28450000,0179.99960000
P00039=0193.68113803,-0016.31494665,0578.51100000,0000.00190000,-0000.28450000,0179.99960000
P00040=0195.82899181,-0016.89046234,0578.51100000,0000.00190000,-0000.28450000,0179.99960000
P00041=0197.79212952,-0017.41648350,0578.51100000,0000.00190000,-0000.28450000,0179.99960000
P00042=0199.56859794,-0017.89248678,0578.51100000,0000.00190000,-0000.28450000,0179.99960000
P00043=0201.16016480,-0018.31894583,0578.51100000,0000.00190000,-0000.28450000,0179.99960000
P00044=0202.57189906,-0018.69721889,0578.51100000,0000.00190000,-0000.28450000,0179.99960000
P00045=0203.81167068,-0019.02941469,0578.51100000,0000.00190000,-0000.28450000,0179.99960000
P00046=0204.88960202,-0019.31824553,0578.51100000,0000.00190000,-0000.28450000,0179.99960000
P00047=0205.81750201,-0019.56687558,0578.51100000,0000.00190000,-0000.28450000,0179.99960000
P00048=0206.60831159,-0019.77877237,0578.51100000,0000.00190000,-0000.28450000,0179.99960000
P00049=0207.27558425,-0019.95756754,0578.51100000,0000.00190000,-0000.28450000,0179.99960000
P00050=0207.83302076,-0020.10693220,0578.51100000,0000.00190000,-0000.28450000,0179.99960000
P00051=0208.29407090,-0020.23047021,0578.51100000,0000.00190000,-0000.28450000,0179.99960000
P00052=0208.67160969,-0020.33163143,0578.51100000,0000.00190000,-0000.28450000,0179.99960000
P00053=0208.97769018,-0020.41364545,0578.51100000,0000.00190000,-0000.28450000,0179.99960000
P00054=0209.22337052,-0020.47947529,0578.51100000,0000.00190000,-0000.28450000,0179.99960000
P00055=0209.41860917,-0020.53178933,0578.51100000,0000.00190000,-0000.28450000,0179.99960000
P00056=0209.57222001,-0020.57294924,0578.51100000,0000.00190000,-0000.28450000,0179.99960000
P00057=0209.69187715,-0020.60501127,0578.51100000,0000.00190000,-0000.28450000,0179.99960000
P00058=0209.78415894,-0020.62973810,0578.51100000,0000.00190000,-0000.28450000,0179.99960000
P00059=0209.85462079,-0020.64861830,0578.51100000,0000.00190000,-0000.28450000,0179.99960000
P00060=0209.90788712,-0020.66289097,0578.51100000,0000.00190000,-0000.28450000,0179.99960000
//INST
///DATE 2017/03/31 08:11
///ATTR SC,RW
///GROUP1 RB2
NOP
MOVL P00001 V=0002.5795763
MOVL P00002 V=0003.4465852
MOVL P00003 V=0004.5592174
MOVL P00004 V=0005.9710711
MOVL P00005 V=0007.7423865
MOVL P00006 V=0009.9393530
MOVL P00007 V=0012.6328705
MOVL P00008 V=0015.8966875
MOVL P00009 V=0019.8048652
MOVL P00010 V=0024.4285569
MOVL P00011 V=0029.8321393
MOVL P00012 V=0036.0687965
MOVL P00013 V=0043.1757182
MOVL P00014 V=0051.1691447
MOVL P00015 V=0060.0395478
MOVL P00016 V=0069.7472898
MOVL P00017 V=0080.2191268
MOVL P00018 V=0091.3459282
MOVL P00019 V=0102.9819536
MOVL P00020 V=0114.9459649
MOVL P00021 V=0127.0243571
MOVL P00022 V=0138.9763662
MOVL P00023 V=0150.5412682
MOVL P00024 V=0161.4473276
MOVL P00025 V=0171.4221049
MOVL P00026 V=0180.2035983
MOVL P00027 V=0187.5515971
MOVL P00028 V=0193.2585637
MOVL P00029 V=0197.1593608
MOVL P00030 V=0199.1391864
MOVL P00031 V=0199.1391864
MOVL P00032 V=0197.1593608
MOVL P00033 V=0193.2585637
MOVL P00034 V=0187.5515971
MOVL P00035 V=0180.2035983
MOVL P00036 V=0171.4221049
MOVL P00037 V=0161.4473276
MOVL P00038 V=0150.5412682
MOVL P00039 V=0138.9763662
MOVL P00040 V=0127.0243571
MOVL P00041 V=0114.9459649
MOVL P00042 V=0102.9819536
MOVL P00043 V=0091.3459282
MOVL P00044 V=0080.2191268
MOVL P00045 V=0069.7472898
MOVL P00046 V=0060.0395478
MOVL P00047 V=0051.1691447
MOVL P00048 V=0043.1757182
MOVL P00049 V=0036.0687965
MOVL P00050 V=0029.8321393
MOVL P00051 V=0024.4285569
MOVL P00052 V=0019.8048652
MOVL P00053 V=0015.8966875
MOVL P00054 V=0012.6328705
MOVL P00055 V=0009.9393530
MOVL P00056 V=0007.7423865
MOVL P00057 V=0005.9710711
MOVL P00058 V=0004.5592174
MOVL P00059 V=0003.4465852
MOVL P00060 V=0003.4465852
END
