/JOB
//NAME GAUSSIANMOVING2
//POS
///NPOS 0,0,0,121,0,0
///TOOL 0
///POSTYPE ROBOT
///RECTAN
///RCONF 0,0,0,0,0,0,0,0,0,0,0,0,0,0,0,0,0,0,0,0,0,0,0,0
P00000=10.000,0.000,0.000,0.0000,0.0000,0.0000
///POSTYPE BASE
///TOOL0
P00001=0651.56063014,0013.17917263,0523.09500000,0000.00000000,0000.00400000,0180.00000000,
P00002=0651.50624106,0013.17007102,0523.09500000,0000.00000000,0000.00400000,0180.00000000,
P00003=0651.43429402,0013.15803121,0523.09500000,0000.00000000,0000.00400000,0180.00000000,
P00004=0651.34006711,0013.14226303,0523.09500000,0000.00000000,0000.00400000,0180.00000000,
P00005=0651.21788784,0013.12181724,0523.09500000,0000.00000000,0000.00400000,0180.00000000,
P00006=0651.06103919,0013.09556977,0523.09500000,0000.00000000,0000.00400000,0180.00000000,
P00007=0650.86168530,0013.06220937,0523.09500000,0000.00000000,0000.00400000,0180.00000000,
P00008=0650.61082652,0013.02023001,0523.09500000,0000.00000000,0000.00400000,0180.00000000,
P00009=0650.29829446,0012.96793008,0523.09500000,0000.00000000,0000.00400000,0180.00000000,
P00010=0649.91279792,0012.90342008,0523.09500000,0000.00000000,0000.00400000,0180.00000000,
P00011=0649.44202977,0012.82464051,0523.09500000,0000.00000000,0000.00400000,0180.00000000,
P00012=0648.87284361,0012.72939142,0523.09500000,0000.00000000,0000.00400000,0180.00000000,
P00013=0648.19150618,0012.61537463,0523.09500000,0000.00000000,0000.00400000,0180.00000000,
P00014=0647.38402793,0012.48024912,0523.09500000,0000.00000000,0000.00400000,0180.00000000,
P00015=0646.43656967,0012.32169898,0523.09500000,0000.00000000,0000.00400000,0180.00000000,
P00016=0645.33591770,0012.13751301,0523.09500000,0000.00000000,0000.00400000,0180.00000000,
P00017=0644.07001419,0011.92567341,0523.09500000,0000.00000000,0000.00400000,0180.00000000,
P00018=0642.62852341,0011.68445058,0523.09500000,0000.00000000,0000.00400000,0180.00000000,
P00019=0641.00340952,0011.41249978,0523.09500000,0000.00000000,0000.00400000,0180.00000000,
P00020=0639.18949672,0011.10895488,0523.09500000,0000.00000000,0000.00400000,0180.00000000,
P00021=0637.18498001,0010.77351383,0523.09500000,0000.00000000,0000.00400000,0180.00000000,
P00022=0634.99185378,0010.40651036,0523.09500000,0000.00000000,0000.00400000,0180.00000000,
P00023=0632.61622682,0010.00896675,0523.09500000,0000.00000000,0000.00400000,0180.00000000,
P00024=0630.06849603,0009.58262283,0523.09500000,0000.00000000,0000.00400000,0180.00000000,
P00025=0627.36335756,0009.12993790,0523.09500000,0000.00000000,0000.00400000,0180.00000000,
P00026=0624.51964213,0008.65406314,0523.09500000,0000.00000000,0000.00400000,0180.00000000,
P00027=0621.55997110,0008.15878407,0523.09500000,0000.00000000,0000.00400000,0180.00000000,
P00028=0618.51024088,0007.64843426,0523.09500000,0000.00000000,0000.00400000,0180.00000000,
P00029=0615.39895386,0007.12778337,0523.09500000,0000.00000000,0000.00400000,0180.00000000,
P00030=0612.25642406,0006.60190423,0523.09500000,0000.00000000,0000.00400000,0180.00000000,
P00031=0609.11389427,0006.07602510,0523.09500000,0000.00000000,0000.00400000,0180.00000000,
P00032=0606.00260725,0005.55537421,0523.09500000,0000.00000000,0000.00400000,0180.00000000,
P00033=0602.95287702,0005.04502440,0523.09500000,0000.00000000,0000.00400000,0180.00000000,
P00034=0599.99320599,0004.54974533,0523.09500000,0000.00000000,0000.00400000,0180.00000000,
P00035=0597.14949056,0004.07387057,0523.09500000,0000.00000000,0000.00400000,0180.00000000,
P00036=0594.44435210,0003.62118564,0523.09500000,0000.00000000,0000.00400000,0180.00000000,
P00037=0591.89662130,0003.19484172,0523.09500000,0000.00000000,0000.00400000,0180.00000000,
P00038=0589.52099434,0002.79729811,0523.09500000,0000.00000000,0000.00400000,0180.00000000,
P00039=0587.32786812,0002.43029464,0523.09500000,0000.00000000,0000.00400000,0180.00000000,
P00040=0585.32335140,0002.09485359,0523.09500000,0000.00000000,0000.00400000,0180.00000000,
P00041=0583.50943860,0001.79130868,0523.09500000,0000.00000000,0000.00400000,0180.00000000,
P00042=0581.88432471,0001.51935789,0523.09500000,0000.00000000,0000.00400000,0180.00000000,
P00043=0580.44283393,0001.27813506,0523.09500000,0000.00000000,0000.00400000,0180.00000000,
P00044=0579.17693042,0001.06629546,0523.09500000,0000.00000000,0000.00400000,0180.00000000,
P00045=0578.07627846,0000.88210949,0523.09500000,0000.00000000,0000.00400000,0180.00000000,
P00046=0577.12882019,0000.72355935,0523.09500000,0000.00000000,0000.00400000,0180.00000000,
P00047=0576.32134194,0000.58843383,0523.09500000,0000.00000000,0000.00400000,0180.00000000,
P00048=0575.64000451,0000.47441705,0523.09500000,0000.00000000,0000.00400000,0180.00000000,
P00049=0575.07081836,0000.37916796,0523.09500000,0000.00000000,0000.00400000,0180.00000000,
P00050=0574.60005021,0000.30038838,0523.09500000,0000.00000000,0000.00400000,0180.00000000,
P00051=0574.21455366,0000.23587839,0523.09500000,0000.00000000,0000.00400000,0180.00000000,
P00052=0573.90202161,0000.18357846,0523.09500000,0000.00000000,0000.00400000,0180.00000000,
P00053=0573.65116282,0000.14159909,0523.09500000,0000.00000000,0000.00400000,0180.00000000,
P00054=0573.45180893,0000.10823869,0523.09500000,0000.00000000,0000.00400000,0180.00000000,
P00055=0573.29496028,0000.08199123,0523.09500000,0000.00000000,0000.00400000,0180.00000000,
P00056=0573.17278101,0000.06154543,0523.09500000,0000.00000000,0000.00400000,0180.00000000,
P00057=0573.07855411,0000.04577726,0523.09500000,0000.00000000,0000.00400000,0180.00000000,
P00058=0573.00660706,0000.03373745,0523.09500000,0000.00000000,0000.00400000,0180.00000000,
P00059=0572.95221798,0000.02463584,0523.09500000,0000.00000000,0000.00400000,0180.00000000,
P00060=0572.91151080,0000.01782380,0523.09500000,0000.00000000,0000.00400000,0180.00000000,
///TOOL1
P00061=0674.28799686,-0027.73081327,0908.48000000,0180.00000000,0000.00000000,0000.00000000
P00062=0674.28816399,-0027.71166222,0908.48000000,0180.00000000,0000.00000000,0000.00000000
P00063=0674.28838507,-0027.68632879,0908.48000000,0180.00000000,0000.00000000,0000.00000000
P00064=0674.28867461,-0027.65315035,0908.48000000,0180.00000000,0000.00000000,0000.00000000
P00065=0674.28905005,-0027.61012955,0908.48000000,0180.00000000,0000.00000000,0000.00000000
P00066=0674.28953202,-0027.55490123,0908.48000000,0180.00000000,0000.00000000,0000.00000000
P00067=0674.29014460,-0027.48470631,0908.48000000,0180.00000000,0000.00000000,0000.00000000
P00068=0674.29091545,-0027.39637589,0908.48000000,0180.00000000,0000.00000000,0000.00000000
P00069=0674.29187581,-0027.28632956,0908.48000000,0180.00000000,0000.00000000,0000.00000000
P00070=0674.29306038,-0027.15059154,0908.48000000,0180.00000000,0000.00000000,0000.00000000
P00071=0674.29450697,-0026.98482836,0908.48000000,0180.00000000,0000.00000000,0000.00000000
P00072=0674.29625599,-0026.78441101,0908.48000000,0180.00000000,0000.00000000,0000.00000000
P00073=0674.29834962,-0026.54450383,0908.48000000,0180.00000000,0000.00000000,0000.00000000
P00074=0674.30083087,-0026.26018094,0908.48000000,0180.00000000,0000.00000000,0000.00000000
P00075=0674.30374226,-0025.92656938,0908.48000000,0180.00000000,0000.00000000,0000.00000000
P00076=0674.30712438,-0025.53901647,0908.48000000,0180.00000000,0000.00000000,0000.00000000
P00077=0674.31101429,-0025.09327648,0908.48000000,0180.00000000,0000.00000000,0000.00000000
P00078=0674.31544376,-0024.58571008,0908.48000000,0180.00000000,0000.00000000,0000.00000000
P00079=0674.32043747,-0024.01348775,0908.48000000,0180.00000000,0000.00000000,0000.00000000
P00080=0674.32601132,-0023.37478704,0908.48000000,0180.00000000,0000.00000000,0000.00000000
P00081=0674.33217088,-0022.66897237,0908.48000000,0180.00000000,0000.00000000,0000.00000000
P00082=0674.33890999,-0021.89674601,0908.48000000,0180.00000000,0000.00000000,0000.00000000
P00083=0674.34620990,-0021.06025892,0908.48000000,0180.00000000,0000.00000000,0000.00000000
P00084=0674.35403866,-0020.16317199,0908.48000000,0180.00000000,0000.00000000,0000.00000000
P00085=0674.36235111,-0019.21065990,0908.48000000,0180.00000000,0000.00000000,0000.00000000
P00086=0674.37108938,-0018.20935318,0908.48000000,0180.00000000,0000.00000000,0000.00000000
P00087=0674.38018397,-0017.16721709,0908.48000000,0180.00000000,0000.00000000,0000.00000000
P00088=0674.38955529,-0016.09337006,0908.48000000,0180.00000000,0000.00000000,0000.00000000
P00089=0674.39911576,-0014.99784814,0908.48000000,0180.00000000,0000.00000000,0000.00000000
P00090=0674.40877224,-0013.89132525,0908.48000000,0180.00000000,0000.00000000,0000.00000000
P00091=0674.41842872,-0012.78480237,0908.48000000,0180.00000000,0000.00000000,0000.00000000
P00092=0674.42798919,-0011.68928045,0908.48000000,0180.00000000,0000.00000000,0000.00000000
P00093=0674.43736052,-0010.61543342,0908.48000000,0180.00000000,0000.00000000,0000.00000000
P00094=0674.44645510,-0009.57329733,0908.48000000,0180.00000000,0000.00000000,0000.00000000
P00095=0674.45519337,-0008.57199061,0908.48000000,0180.00000000,0000.00000000,0000.00000000
P00096=0674.46350582,-0007.61947852,0908.48000000,0180.00000000,0000.00000000,0000.00000000
P00097=0674.47133458,-0006.72239159,0908.48000000,0180.00000000,0000.00000000,0000.00000000
P00098=0674.47863449,-0005.88590450,0908.48000000,0180.00000000,0000.00000000,0000.00000000
P00099=0674.48537361,-0005.11367814,0908.48000000,0180.00000000,0000.00000000,0000.00000000
P00100=0674.49153316,-0004.40786347,0908.48000000,0180.00000000,0000.00000000,0000.00000000
P00101=0674.49710701,-0003.76916276,0908.48000000,0180.00000000,0000.00000000,0000.00000000
P00102=0674.50210072,-0003.19694043,0908.48000000,0180.00000000,0000.00000000,0000.00000000
P00103=0674.50653019,-0002.68937403,0908.48000000,0180.00000000,0000.00000000,0000.00000000
P00104=0674.51042010,-0002.24363404,0908.48000000,0180.00000000,0000.00000000,0000.00000000
P00105=0674.51380223,-0001.85608112,0908.48000000,0180.00000000,0000.00000000,0000.00000000
P00106=0674.51671361,-0001.52246957,0908.48000000,0180.00000000,0000.00000000,0000.00000000
P00107=0674.51919486,-0001.23814668,0908.48000000,0180.00000000,0000.00000000,0000.00000000
P00108=0674.52128850,-0000.99823950,0908.48000000,0180.00000000,0000.00000000,0000.00000000
P00109=0674.52303751,-0000.79782215,0908.48000000,0180.00000000,0000.00000000,0000.00000000
P00110=0674.52448410,-0000.63205896,0908.48000000,0180.00000000,0000.00000000,0000.00000000
P00111=0674.52566867,-0000.49632095,0908.48000000,0180.00000000,0000.00000000,0000.00000000
P00112=0674.52662903,-0000.38627462,0908.48000000,0180.00000000,0000.00000000,0000.00000000
P00113=0674.52739988,-0000.29794420,0908.48000000,0180.00000000,0000.00000000,0000.00000000
P00114=0674.52801246,-0000.22774928,0908.48000000,0180.00000000,0000.00000000,0000.00000000
P00115=0674.52849443,-0000.17252096,0908.48000000,0180.00000000,0000.00000000,0000.00000000
P00116=0674.52886987,-0000.12950016,0908.48000000,0180.00000000,0000.00000000,0000.00000000
P00117=0674.52915941,-0000.09632172,0908.48000000,0180.00000000,0000.00000000,0000.00000000
P00118=0674.52938049,-0000.07098829,0908.48000000,0180.00000000,0000.00000000,0000.00000000
P00119=0674.52954762,-0000.05183724,0908.48000000,0180.00000000,0000.00000000,0000.00000000
P00120=0674.52967271,-0000.03750375,0908.48000000,0180.00000000,0000.00000000,0000.00000000
//INST
///DATE 2017/03/31 08:11
///COMM PLAYINGTWOROBOTS
///ATTR SC,RW
///GROUP1 RB1
///GROUP2 RB2
NOP
DOUT OT#(16) OFF
DOUT OT#(15) ON
DOUT OT#(16) ON
MOVL P00001 V=0003.4465852  +MOVL P00061 V=0001.1969865
MOVL P00002 V=0004.5592174  +MOVL P00062 V=0001.5833996
MOVL P00003 V=0005.9710711  +MOVL P00063 V=0002.0737312
MOVL P00004 V=0007.7423865  +MOVL P00064 V=0002.6889026
MOVL P00005 V=0009.9393530  +MOVL P00065 V=0003.4519011
MOVL P00006 V=0012.6328705  +MOVL P00066 V=0004.3873499
MOVL P00007 V=0015.8966875  +MOVL P00067 V=0005.5208616
MOVL P00008 V=0019.8048652  +MOVL P00068 V=0006.8781575
MOVL P00009 V=0024.4285569  +MOVL P00069 V=0008.4839488
MOVL P00010 V=0029.8321393  +MOVL P00070 V=0010.3605933
MOVL P00011 V=0036.0687965  +MOVL P00071 V=0012.5265616
MOVL P00012 V=0043.1757182  +MOVL P00072 V=0014.9947696
MOVL P00013 V=0051.1691447  +MOVL P00073 V=0017.7708575
MOVL P00014 V=0060.0395478  +MOVL P00074 V=0020.8515161
MOVL P00015 V=0069.7472898  +MOVL P00075 V=0024.2229796
MOVL P00016 V=0080.2191268  +MOVL P00076 V=0027.8598104
MOVL P00017 V=0091.3459282  +MOVL P00077 V=0031.7241079
MOVL P00018 V=0102.9819536  +MOVL P00078 V=0035.7652572
MOVL P00019 V=0114.9459649  +MOVL P00079 V=0039.9203147
MOVL P00020 V=0127.0243571  +MOVL P00080 V=0044.1150963
MOVL P00021 V=0138.9763662  +MOVL P00081 V=0048.2659855
MOVL P00022 V=0150.5412682  +MOVL P00082 V=0052.2824338
MOVL P00023 V=0161.4473276  +MOVL P00083 V=0056.0700685
MOVL P00024 V=0171.4221049  +MOVL P00084 V=0059.5342722
MOVL P00025 V=0180.2035983  +MOVL P00085 V=0062.5840529
MOVL P00026 V=0187.5515971  +MOVL P00086 V=0065.1359861
MOVL P00027 V=0193.2585637  +MOVL P00087 V=0067.1179948
MOVL P00028 V=0197.1593608  +MOVL P00088 V=0068.4727274
MOVL P00029 V=0199.1391864  +MOVL P00089 V=0069.1603136
MOVL P00030 V=0199.1391864  +MOVL P00090 V=0069.1603136
MOVL P00031 V=0197.1593608  +MOVL P00091 V=0068.4727274
MOVL P00032 V=0193.2585637  +MOVL P00092 V=0067.1179948
MOVL P00033 V=0187.5515971  +MOVL P00093 V=0065.1359861
MOVL P00034 V=0180.2035983  +MOVL P00094 V=0062.5840529
MOVL P00035 V=0171.4221049  +MOVL P00095 V=0059.5342722
MOVL P00036 V=0161.4473276  +MOVL P00096 V=0056.0700685
MOVL P00037 V=0150.5412682  +MOVL P00097 V=0052.2824338
MOVL P00038 V=0138.9763662  +MOVL P00098 V=0048.2659855
MOVL P00039 V=0127.0243571  +MOVL P00099 V=0044.1150963
MOVL P00040 V=0114.9459649  +MOVL P00100 V=0039.9203147
MOVL P00041 V=0102.9819536  +MOVL P00101 V=0035.7652572
MOVL P00042 V=0091.3459282  +MOVL P00102 V=0031.7241079
MOVL P00043 V=0080.2191268  +MOVL P00103 V=0027.8598104
MOVL P00044 V=0069.7472898  +MOVL P00104 V=0024.2229796
MOVL P00045 V=0060.0395478  +MOVL P00105 V=0020.8515161
MOVL P00046 V=0051.1691447  +MOVL P00106 V=0017.7708575
MOVL P00047 V=0043.1757182  +MOVL P00107 V=0014.9947696
MOVL P00048 V=0036.0687965  +MOVL P00108 V=0012.5265616
MOVL P00049 V=0029.8321393  +MOVL P00109 V=0010.3605933
MOVL P00050 V=0024.4285569  +MOVL P00110 V=0008.4839488
MOVL P00051 V=0019.8048652  +MOVL P00111 V=0006.8781575
MOVL P00052 V=0015.8966875  +MOVL P00112 V=0005.5208616
MOVL P00053 V=0012.6328705  +MOVL P00113 V=0004.3873499
MOVL P00054 V=0009.9393530  +MOVL P00114 V=0003.4519011
MOVL P00055 V=0007.7423865  +MOVL P00115 V=0002.6889026
MOVL P00056 V=0005.9710711  +MOVL P00116 V=0002.0737312
MOVL P00057 V=0004.5592174  +MOVL P00117 V=0001.5833996
MOVL P00058 V=0003.4465852  +MOVL P00118 V=0001.1969865
MOVL P00059 V=0002.5795763  +MOVL P00119 V=0000.8958775
MOVL P00060 V=0002.5795763  +MOVL P00120 V=0000.8958775
DOUT OT#(16) OFF
DOUT OT#(15) OFF
DOUT OT#(16) ON
END
