/JOB
//NAME GAUSSIANMOVING2
//POS
///NPOS 0,0,0,61,0,0
///TOOL 0
///POSTYPE ROBOT
///RECTAN
///RCONF 0,0,0,0,0,0,0,0,0,0,0,0,0,0,0,0,0,0,0,0,0,0,0,0
P00000=10.000,0.000,0.000,0.0000,0.0000,0.0000
///POSTYPE BASE
///TOOL1
P00001=0680.65793524,-0034.75324773,0873.19062740,0180.00000000,0000.00000000,0000.00000000
P00002=0680.65370326,-0034.72924695,0873.21499844,0180.00000000,0000.00000000,0000.00000000
P00003=0680.64810509,-0034.69749819,0873.24723697,0180.00000000,0000.00000000,0000.00000000
P00004=0680.64077335,-0034.65591778,0873.28945882,0180.00000000,0000.00000000,0000.00000000
P00005=0680.63126664,-0034.60200257,0873.34420576,0180.00000000,0000.00000000,0000.00000000
P00006=0680.61906233,-0034.53278847,0873.41448760,0180.00000000,0000.00000000,0000.00000000
P00007=0680.60355070,-0034.44481768,0873.50381549,0180.00000000,0000.00000000,0000.00000000
P00008=0680.58403151,-0034.33411883,0873.61622204,0180.00000000,0000.00000000,0000.00000000
P00009=0680.55971355,-0034.19620483,0873.75626359,0180.00000000,0000.00000000,0000.00000000
P00010=0680.52971826,-0034.02609310,0873.92899957,0180.00000000,0000.00000000,0000.00000000
P00011=0680.49308803,-0033.81835275,0874.13994465,0180.00000000,0000.00000000,0000.00000000
P00012=0680.44879995,-0033.56718255,0874.39498956,0180.00000000,0000.00000000,0000.00000000
P00013=0680.39578543,-0033.26652229,0874.70028799,0180.00000000,0000.00000000,0000.00000000
P00014=0680.33295596,-0032.91019866,0875.06210848,0180.00000000,0000.00000000,0000.00000000
P00015=0680.25923472,-0032.49210472,0875.48665219,0180.00000000,0000.00000000,0000.00000000
P00016=0680.17359356,-0032.00640953,0875.97984001,0180.00000000,0000.00000000,0000.00000000
P00017=0680.07509425,-0031.44779222,0876.54707489,0180.00000000,0000.00000000,0000.00000000
P00018=0679.96293259,-0030.81169184,0877.19298815,0180.00000000,0000.00000000,0000.00000000
P00019=0679.83648331,-0030.09456234,0877.92118052,0180.00000000,0000.00000000,0000.00000000
P00020=0679.69534369,-0029.29411975,0878.73397124,0180.00000000,0000.00000000,0000.00000000
P00021=0679.53937327,-0028.40956755,0879.63216908,0180.00000000,0000.00000000,0000.00000000
P00022=0679.36872724,-0027.44178583,0880.61488039,0180.00000000,0000.00000000,0000.00000000
P00023=0679.18388092,-0026.39347027,0881.67936791,0180.00000000,0000.00000000,0000.00000000
P00024=0678.98564330,-0025.26920882,0882.82097291,0180.00000000,0000.00000000,0000.00000000
P00025=0678.77515786,-0024.07548658,0884.03311023,0180.00000000,0000.00000000,0000.00000000
P00026=0678.55388982,-0022.82061316,0885.30734210,0180.00000000,0000.00000000,0000.00000000
P00027=0678.32359933,-0021.51457090,0886.63353216,0180.00000000,0000.00000000,0000.00000000
P00028=0678.08630138,-0020.16878738,0888.00007657,0180.00000000,0000.00000000,0000.00000000
P00029=0677.84421373,-0018.79584009,0889.39420378,0180.00000000,0000.00000000,0000.00000000
P00030=0677.59969510,-0017.40910601,0890.80233047,0180.00000000,0000.00000000,0000.00000000
P00031=0677.35517647,-0016.02237193,0892.21045716,0180.00000000,0000.00000000,0000.00000000
P00032=0677.11308882,-0014.64942464,0893.60458437,0180.00000000,0000.00000000,0000.00000000
P00033=0676.87579087,-0013.30364111,0894.97112878,0180.00000000,0000.00000000,0000.00000000
P00034=0676.64550038,-0011.99759886,0896.29731884,0180.00000000,0000.00000000,0000.00000000
P00035=0676.42423234,-0010.74272544,0897.57155071,0180.00000000,0000.00000000,0000.00000000
P00036=0676.21374690,-0009.54900320,0898.78368803,0180.00000000,0000.00000000,0000.00000000
P00037=0676.01550927,-0008.42474174,0899.92529304,0180.00000000,0000.00000000,0000.00000000
P00038=0675.83066296,-0007.37642618,0900.98978055,0180.00000000,0000.00000000,0000.00000000
P00039=0675.66001693,-0006.40864447,0901.97249186,0180.00000000,0000.00000000,0000.00000000
P00040=0675.50404651,-0005.52409227,0902.87068970,0180.00000000,0000.00000000,0000.00000000
P00041=0675.36290688,-0004.72364967,0903.68348042,0180.00000000,0000.00000000,0000.00000000
P00042=0675.23645761,-0004.00652017,0904.41167279,0180.00000000,0000.00000000,0000.00000000
P00043=0675.12429595,-0003.37041980,0905.05758605,0180.00000000,0000.00000000,0000.00000000
P00044=0675.02579664,-0002.81180248,0905.62482093,0180.00000000,0000.00000000,0000.00000000
P00045=0674.94015548,-0002.32610730,0906.11800875,0180.00000000,0000.00000000,0000.00000000
P00046=0674.86643423,-0001.90801336,0906.54255246,0180.00000000,0000.00000000,0000.00000000
P00047=0674.80360477,-0001.55168973,0906.90437295,0180.00000000,0000.00000000,0000.00000000
P00048=0674.75059025,-0001.25102947,0907.20967139,0180.00000000,0000.00000000,0000.00000000
P00049=0674.70630217,-0000.99985927,0907.46471629,0180.00000000,0000.00000000,0000.00000000
P00050=0674.66967194,-0000.79211892,0907.67566137,0180.00000000,0000.00000000,0000.00000000
P00051=0674.63967665,-0000.62200718,0907.84839735,0180.00000000,0000.00000000,0000.00000000
P00052=0674.61535869,-0000.48409318,0907.98843890,0180.00000000,0000.00000000,0000.00000000
P00053=0674.59583950,-0000.37339434,0908.10084545,0180.00000000,0000.00000000,0000.00000000
P00054=0674.58032787,-0000.28542354,0908.19017334,0180.00000000,0000.00000000,0000.00000000
P00055=0674.56812356,-0000.21620944,0908.26045518,0180.00000000,0000.00000000,0000.00000000
P00056=0674.55861685,-0000.16229423,0908.31520212,0180.00000000,0000.00000000,0000.00000000
P00057=0674.55128510,-0000.12071383,0908.35742397,0180.00000000,0000.00000000,0000.00000000
P00058=0674.54568694,-0000.08896507,0908.38966250,0180.00000000,0000.00000000,0000.00000000
P00059=0674.54145496,-0000.06496428,0908.41403354,0180.00000000,0000.00000000,0000.00000000
P00060=0674.53828755,-0000.04700104,0908.43227390,0180.00000000,0000.00000000,0000.00000000
//INST
///DATE 2017/03/31 08:11
///ATTR SC,RW
///GROUP1 RB2
NOP
DOUT OT#(15) ON
MOVL P00001 V=0002.1541157
MOVL P00002 V=0002.8495109
MOVL P00003 V=0003.7319194
MOVL P00004 V=0004.8389916
MOVL P00005 V=0006.2120956
MOVL P00006 V=0007.8955441
MOVL P00007 V=0009.9354297
MOVL P00008 V=0012.3780408
MOVL P00009 V=0015.2678481
MOVL P00010 V=0018.6450871
MOVL P00011 V=0022.5429978
MOVL P00012 V=0026.9848239
MOVL P00013 V=0031.9807154
MOVL P00014 V=0037.5247174
MOVL P00015 V=0043.5920561
MOVL P00016 V=0050.1369542
MOVL P00017 V=0057.0912051
MOVL P00018 V=0064.3637210
MOVL P00019 V=0071.8412281
MOVL P00020 V=0079.3902232
MOVL P00021 V=0086.8602289
MOVL P00022 V=0094.0882926
MOVL P00023 V=0100.9045798
MOVL P00024 V=0107.1388155
MOVL P00025 V=0112.6272489
MOVL P00026 V=0117.2197482
MOVL P00027 V=0120.7866023
MOVL P00028 V=0123.2246005
MOVL P00029 V=0124.4619915
MOVL P00030 V=0124.4619915
MOVL P00031 V=0123.2246005
MOVL P00032 V=0120.7866023
MOVL P00033 V=0117.2197482
MOVL P00034 V=0112.6272489
MOVL P00035 V=0107.1388155
MOVL P00036 V=0100.9045798
MOVL P00037 V=0094.0882926
MOVL P00038 V=0086.8602289
MOVL P00039 V=0079.3902232
MOVL P00040 V=0071.8412281
MOVL P00041 V=0064.3637210
MOVL P00042 V=0057.0912051
MOVL P00043 V=0050.1369542
MOVL P00044 V=0043.5920561
MOVL P00045 V=0037.5247174
MOVL P00046 V=0031.9807154
MOVL P00047 V=0026.9848239
MOVL P00048 V=0022.5429978
MOVL P00049 V=0018.6450871
MOVL P00050 V=0015.2678481
MOVL P00051 V=0012.3780408
MOVL P00052 V=0009.9354297
MOVL P00053 V=0007.8955441
MOVL P00054 V=0006.2120956
MOVL P00055 V=0004.8389916
MOVL P00056 V=0003.7319194
MOVL P00057 V=0002.8495109
MOVL P00058 V=0002.1541157
MOVL P00059 V=0001.6122352
MOVL P00060 V=0001.6122352
DOUT OT#(15) OFF
END
