/JOB
//NAME GAUSSIANMOVING2
//POS
///NPOS 0,0,0,61,0,0
///TOOL 0
///POSTYPE ROBOT
///RECTAN
///RCONF 0,0,0,0,0,0,0,0,0,0,0,0,0,0,0,0,0,0,0,0,0,0,0,0
P00000=10.000,0.000,0.000,0.0000,0.0000,0.0000
///POSTYPE BASE
///TOOL1
P00001=0701.56322778,-0022.68357146,0873.19062740,0180.00000000,0000.00000000,0000.00000000
P00002=0701.54455848,-0022.66790606,0873.21499844,0180.00000000,0000.00000000,0000.00000000
P00003=0701.51986233,-0022.64718353,0873.24723697,0180.00000000,0000.00000000,0000.00000000
P00004=0701.48751852,-0022.62004385,0873.28945882,0180.00000000,0000.00000000,0000.00000000
P00005=0701.44557993,-0022.58485319,0873.34420576,0180.00000000,0000.00000000,0000.00000000
P00006=0701.39174092,-0022.53967690,0873.41448760,0180.00000000,0000.00000000,0000.00000000
P00007=0701.32331179,-0022.48225804,0873.50381549,0180.00000000,0000.00000000,0000.00000000
P00008=0701.23720337,-0022.41000450,0873.61622204,0180.00000000,0000.00000000,0000.00000000
P00009=0701.12992532,-0022.31998753,0873.75626359,0180.00000000,0000.00000000,0000.00000000
P00010=0700.99760188,-0022.20895498,0873.92899957,0180.00000000,0000.00000000,0000.00000000
P00011=0700.83600858,-0022.07336210,0874.13994465,0180.00000000,0000.00000000,0000.00000000
P00012=0700.64063284,-0021.90942239,0874.39498956,0180.00000000,0000.00000000,0000.00000000
P00013=0700.40676068,-0021.71318034,0874.70028799,0180.00000000,0000.00000000,0000.00000000
P00014=0700.12959010,-0021.48060661,0875.06210848,0180.00000000,0000.00000000,0000.00000000
P00015=0699.80437075,-0021.20771517,0875.48665219,0180.00000000,0000.00000000,0000.00000000
P00016=0699.42656696,-0020.89070015,0875.97984001,0180.00000000,0000.00000000,0000.00000000
P00017=0698.99203983,-0020.52608860,0876.54707489,0180.00000000,0000.00000000,0000.00000000
P00018=0698.49724157,-0020.11090356,0877.19298815,0180.00000000,0000.00000000,0000.00000000
P00019=0697.93941385,-0019.64283053,0877.92118052,0180.00000000,0000.00000000,0000.00000000
P00020=0697.31678004,-0019.12037873,0878.73397124,0180.00000000,0000.00000000,0000.00000000
P00021=0696.62872057,-0018.54302828,0879.63216908,0180.00000000,0000.00000000,0000.00000000
P00022=0695.87592003,-0017.91135363,0880.61488039,0180.00000000,0000.00000000,0000.00000000
P00023=0695.06047529,-0017.22711424,0881.67936791,0180.00000000,0000.00000000,0000.00000000
P00024=0694.18595512,-0016.49330469,0882.82097291,0180.00000000,0000.00000000,0000.00000000
P00025=0693.25740406,-0015.71415784,0884.03311023,0180.00000000,0000.00000000,0000.00000000
P00026=0692.28128582,-0014.89509738,0885.30734210,0180.00000000,0000.00000000,0000.00000000
P00027=0691.26536529,-0014.04263884,0886.63353216,0180.00000000,0000.00000000,0000.00000000
P00028=0690.21853154,-0013.16424103,0888.00007657,0180.00000000,0000.00000000,0000.00000000
P00029=0689.15056814,-0012.26811333,0889.39420378,0180.00000000,0000.00000000,0000.00000000
P00030=0688.07188051,-0011.36298694,0890.80233047,0180.00000000,0000.00000000,0000.00000000
P00031=0686.99319288,-0010.45786055,0892.21045716,0180.00000000,0000.00000000,0000.00000000
P00032=0685.92522948,-0009.56173286,0893.60458437,0180.00000000,0000.00000000,0000.00000000
P00033=0684.87839573,-0008.68333504,0894.97112878,0180.00000000,0000.00000000,0000.00000000
P00034=0683.86247520,-0007.83087650,0896.29731884,0180.00000000,0000.00000000,0000.00000000
P00035=0682.88635696,-0007.01181605,0897.57155071,0180.00000000,0000.00000000,0000.00000000
P00036=0681.95780590,-0006.23266919,0898.78368803,0180.00000000,0000.00000000,0000.00000000
P00037=0681.08328573,-0005.49885964,0899.92529304,0180.00000000,0000.00000000,0000.00000000
P00038=0680.26784099,-0004.81462026,0900.98978055,0180.00000000,0000.00000000,0000.00000000
P00039=0679.51504045,-0004.18294560,0901.97249186,0180.00000000,0000.00000000,0000.00000000
P00040=0678.82698098,-0003.60559516,0902.87068970,0180.00000000,0000.00000000,0000.00000000
P00041=0678.20434717,-0003.08314336,0903.68348042,0180.00000000,0000.00000000,0000.00000000
P00042=0677.64651945,-0002.61507032,0904.41167279,0180.00000000,0000.00000000,0000.00000000
P00043=0677.15172119,-0002.19988528,0905.05758605,0180.00000000,0000.00000000,0000.00000000
P00044=0676.71719406,-0001.83527373,0905.62482093,0180.00000000,0000.00000000,0000.00000000
P00045=0676.33939027,-0001.51825871,0906.11800875,0180.00000000,0000.00000000,0000.00000000
P00046=0676.01417092,-0001.24536727,0906.54255246,0180.00000000,0000.00000000,0000.00000000
P00047=0675.73700034,-0001.01279354,0906.90437295,0180.00000000,0000.00000000,0000.00000000
P00048=0675.50312818,-0000.81655149,0907.20967139,0180.00000000,0000.00000000,0000.00000000
P00049=0675.30775244,-0000.65261179,0907.46471629,0180.00000000,0000.00000000,0000.00000000
P00050=0675.14615914,-0000.51701890,0907.67566137,0180.00000000,0000.00000000,0000.00000000
P00051=0675.01383570,-0000.40598636,0907.84839735,0180.00000000,0000.00000000,0000.00000000
P00052=0674.90655765,-0000.31596939,0907.98843890,0180.00000000,0000.00000000,0000.00000000
P00053=0674.82044923,-0000.24371584,0908.10084545,0180.00000000,0000.00000000,0000.00000000
P00054=0674.75202010,-0000.18629699,0908.19017334,0180.00000000,0000.00000000,0000.00000000
P00055=0674.69818109,-0000.14112069,0908.26045518,0180.00000000,0000.00000000,0000.00000000
P00056=0674.65624250,-0000.10593004,0908.31520212,0180.00000000,0000.00000000,0000.00000000
P00057=0674.62389869,-0000.07879036,0908.35742397,0180.00000000,0000.00000000,0000.00000000
P00058=0674.59920254,-0000.05806783,0908.38966250,0180.00000000,0000.00000000,0000.00000000
P00059=0674.58053324,-0000.04240242,0908.41403354,0180.00000000,0000.00000000,0000.00000000
P00060=0674.56656032,-0000.03067775,0908.43227390,0180.00000000,0000.00000000,0000.00000000
//INST
///DATE 2017/03/31 08:11
///ATTR SC,RW
///GROUP1 RB2
NOP
DOUT OT#(15) ON
MOVL P00001 V=0002.1541157
MOVL P00002 V=0002.8495109
MOVL P00003 V=0003.7319194
MOVL P00004 V=0004.8389916
MOVL P00005 V=0006.2120956
MOVL P00006 V=0007.8955441
MOVL P00007 V=0009.9354297
MOVL P00008 V=0012.3780408
MOVL P00009 V=0015.2678481
MOVL P00010 V=0018.6450871
MOVL P00011 V=0022.5429978
MOVL P00012 V=0026.9848239
MOVL P00013 V=0031.9807154
MOVL P00014 V=0037.5247174
MOVL P00015 V=0043.5920561
MOVL P00016 V=0050.1369542
MOVL P00017 V=0057.0912051
MOVL P00018 V=0064.3637210
MOVL P00019 V=0071.8412281
MOVL P00020 V=0079.3902232
MOVL P00021 V=0086.8602289
MOVL P00022 V=0094.0882926
MOVL P00023 V=0100.9045798
MOVL P00024 V=0107.1388155
MOVL P00025 V=0112.6272489
MOVL P00026 V=0117.2197482
MOVL P00027 V=0120.7866023
MOVL P00028 V=0123.2246005
MOVL P00029 V=0124.4619915
MOVL P00030 V=0124.4619915
MOVL P00031 V=0123.2246005
MOVL P00032 V=0120.7866023
MOVL P00033 V=0117.2197482
MOVL P00034 V=0112.6272489
MOVL P00035 V=0107.1388155
MOVL P00036 V=0100.9045798
MOVL P00037 V=0094.0882926
MOVL P00038 V=0086.8602289
MOVL P00039 V=0079.3902232
MOVL P00040 V=0071.8412281
MOVL P00041 V=0064.3637210
MOVL P00042 V=0057.0912051
MOVL P00043 V=0050.1369542
MOVL P00044 V=0043.5920561
MOVL P00045 V=0037.5247174
MOVL P00046 V=0031.9807154
MOVL P00047 V=0026.9848239
MOVL P00048 V=0022.5429978
MOVL P00049 V=0018.6450871
MOVL P00050 V=0015.2678481
MOVL P00051 V=0012.3780408
MOVL P00052 V=0009.9354297
MOVL P00053 V=0007.8955441
MOVL P00054 V=0006.2120956
MOVL P00055 V=0004.8389916
MOVL P00056 V=0003.7319194
MOVL P00057 V=0002.8495109
MOVL P00058 V=0002.1541157
MOVL P00059 V=0001.6122352
MOVL P00060 V=0001.6122352
DOUT OT#(15) OFF
END
