/JOB
//NAME GAUSSIANMOVING2
//POS
///NPOS 0,0,0,61,0,0
///TOOL 0
///POSTYPE ROBOT
///RECTAN
///RCONF 0,0,0,0,0,0,0,0,0,0,0,0,0,0,0,0,0,0,0,0,0,0,0,0
P00000=10.000,0.000,0.000,0.0000,0.0000,0.0000
///POSTYPE BASE
///TOOL1
P00001=0939.40872214,0112.37324307,0708.48000000,0180.00000000,0000.00000000,0000.00000000
P00002=0939.36391653,0112.29563748,0708.48000000,0180.00000000,0000.00000000,0000.00000000
P00003=0939.30464670,0112.19297913,0708.48000000,0180.00000000,0000.00000000,0000.00000000
P00004=0939.22702278,0112.05853055,0708.48000000,0180.00000000,0000.00000000,0000.00000000
P00005=0939.12637175,0111.88419786,0708.48000000,0180.00000000,0000.00000000,0000.00000000
P00006=0938.99716016,0111.66039683,0708.48000000,0180.00000000,0000.00000000,0000.00000000
P00007=0938.83293285,0111.37594677,0708.48000000,0180.00000000,0000.00000000,0000.00000000
P00008=0938.62627591,0111.01800645,0708.48000000,0180.00000000,0000.00000000,0000.00000000
P00009=0938.36881266,0110.57206703,0708.48000000,0180.00000000,0000.00000000,0000.00000000
P00010=0938.05124142,0110.02201751,0708.48000000,0180.00000000,0000.00000000,0000.00000000
P00011=0937.66342361,0109.35029735,0708.48000000,0180.00000000,0000.00000000,0000.00000000
P00012=0937.19452926,0108.53814851,0708.48000000,0180.00000000,0000.00000000,0000.00000000
P00013=0936.63324492,0107.56597552,0708.48000000,0180.00000000,0000.00000000,0000.00000000
P00014=0935.96804604,0106.41381726,0708.48000000,0180.00000000,0000.00000000,0000.00000000
P00015=0935.18753192,0105.06192714,0708.48000000,0180.00000000,0000.00000000,0000.00000000
P00016=0934.28081715,0103.49145110,0708.48000000,0180.00000000,0000.00000000,0000.00000000
P00017=0933.23796850,0101.68518425,0708.48000000,0180.00000000,0000.00000000,0000.00000000
P00018=0932.05047144,0099.62837900,0708.48000000,0180.00000000,0000.00000000,0000.00000000
P00019=0930.71170604,0097.30956931,0708.48000000,0180.00000000,0000.00000000,0000.00000000
P00020=0929.21740849,0094.72137005,0708.48000000,0180.00000000,0000.00000000,0000.00000000
P00021=0927.56609185,0091.86120572,0708.48000000,0180.00000000,0000.00000000,0000.00000000
P00022=0925.75939909,0088.73192207,0708.48000000,0180.00000000,0000.00000000,0000.00000000
P00023=0923.80236261,0085.34223544,0708.48000000,0180.00000000,0000.00000000,0000.00000000
P00024=0921.70354735,0081.70698078,0708.48000000,0180.00000000,0000.00000000,0000.00000000
P00025=0919.47505998,0077.84712744,0708.48000000,0180.00000000,0000.00000000,0000.00000000
P00026=0917.13241320,0073.78954420,0708.48000000,0180.00000000,0000.00000000,0000.00000000
P00027=0914.69424244,0069.56650856,0708.48000000,0180.00000000,0000.00000000,0000.00000000
P00028=0912.18188111,0065.21497109,0708.48000000,0180.00000000,0000.00000000,0000.00000000
P00029=0909.61880942,0060.77560070,0708.48000000,0180.00000000,0000.00000000,0000.00000000
P00030=0907.03000000,0056.29165125,0708.48000000,0180.00000000,0000.00000000,0000.00000000
P00031=0904.44119058,0051.80770179,0708.48000000,0180.00000000,0000.00000000,0000.00000000
P00032=0901.87811889,0047.36833140,0708.48000000,0180.00000000,0000.00000000,0000.00000000
P00033=0899.36575756,0043.01679393,0708.48000000,0180.00000000,0000.00000000,0000.00000000
P00034=0896.92758680,0038.79375830,0708.48000000,0180.00000000,0000.00000000,0000.00000000
P00035=0894.58494002,0034.73617505,0708.48000000,0180.00000000,0000.00000000,0000.00000000
P00036=0892.35645265,0030.87632172,0708.48000000,0180.00000000,0000.00000000,0000.00000000
P00037=0890.25763739,0027.24106705,0708.48000000,0180.00000000,0000.00000000,0000.00000000
P00038=0888.30060091,0023.85138042,0708.48000000,0180.00000000,0000.00000000,0000.00000000
P00039=0886.49390815,0020.72209677,0708.48000000,0180.00000000,0000.00000000,0000.00000000
P00040=0884.84259151,0017.86193245,0708.48000000,0180.00000000,0000.00000000,0000.00000000
P00041=0883.34829396,0015.27373318,0708.48000000,0180.00000000,0000.00000000,0000.00000000
P00042=0882.00952856,0012.95492349,0708.48000000,0180.00000000,0000.00000000,0000.00000000
P00043=0880.82203150,0010.89811824,0708.48000000,0180.00000000,0000.00000000,0000.00000000
P00044=0879.77918285,0009.09185139,0708.48000000,0180.00000000,0000.00000000,0000.00000000
P00045=0878.87246808,0007.52137535,0708.48000000,0180.00000000,0000.00000000,0000.00000000
P00046=0878.09195396,0006.16948523,0708.48000000,0180.00000000,0000.00000000,0000.00000000
P00047=0877.42675508,0005.01732697,0708.48000000,0180.00000000,0000.00000000,0000.00000000
P00048=0876.86547074,0004.04515399,0708.48000000,0180.00000000,0000.00000000,0000.00000000
P00049=0876.39657639,0003.23300514,0708.48000000,0180.00000000,0000.00000000,0000.00000000
P00050=0876.00875858,0002.56128499,0708.48000000,0180.00000000,0000.00000000,0000.00000000
P00051=0875.69118734,0002.01123546,0708.48000000,0180.00000000,0000.00000000,0000.00000000
P00052=0875.43372409,0001.56529604,0708.48000000,0180.00000000,0000.00000000,0000.00000000
P00053=0875.22706715,0001.20735572,0708.48000000,0180.00000000,0000.00000000,0000.00000000
P00054=0875.06283984,0000.92290567,0708.48000000,0180.00000000,0000.00000000,0000.00000000
P00055=0874.93362825,0000.69910463,0708.48000000,0180.00000000,0000.00000000,0000.00000000
P00056=0874.83297722,0000.52477194,0708.48000000,0180.00000000,0000.00000000,0000.00000000
P00057=0874.75535330,0000.39032336,0708.48000000,0180.00000000,0000.00000000,0000.00000000
P00058=0874.69608347,0000.28766501,0708.48000000,0180.00000000,0000.00000000,0000.00000000
P00059=0874.65127786,0000.21005942,0708.48000000,0180.00000000,0000.00000000,0000.00000000
P00060=0874.61774337,0000.15197598,0708.48000000,0180.00000000,0000.00000000,0000.00000000
//INST
///DATE 2017/03/31 08:11
///ATTR SC,RW
///GROUP1 RB2
NOP
DOUT OT#(1) ON
DOUT OT#(2) OFF
DOUT OT#(3) OFF
DOUT OT#(4) OFF
DOUT OT#(5) OFF
DOUT OT#(6) OFF
DOUT OT#(7) OFF
DOUT OT#(8) OFF
MOVL P00001 V=0005.6007009
MOVL P00002 V=0007.4087282
MOVL P00003 V=0009.7029905
MOVL P00004 V=0012.5813781
MOVL P00005 V=0016.1514486
MOVL P00006 V=0020.5284145
MOVL P00007 V=0025.8321171
MOVL P00008 V=0032.1829060
MOVL P00009 V=0039.6964050
MOVL P00010 V=0048.4772264
MOVL P00011 V=0058.6117943
MOVL P00012 V=0070.1605421
MOVL P00013 V=0083.1498601
MOVL P00014 V=0097.5642653
MOVL P00015 V=0113.3393460
MOVL P00016 V=0130.3560810
MOVL P00017 V=0148.4371333
MOVL P00018 V=0167.3456746
MOVL P00019 V=0186.7871930
MOVL P00020 V=0206.4145802
MOVL P00021 V=0225.8365950
MOVL P00022 V=0244.6295608
MOVL P00023 V=0262.3519074
MOVL P00024 V=0278.5609204
MOVL P00025 V=0292.8308473
MOVL P00026 V=0304.7713453
MOVL P00027 V=0314.0451661
MOVL P00028 V=0320.3839613
MOVL P00029 V=0323.6011779
MOVL P00030 V=0323.6011779
MOVL P00031 V=0320.3839613
MOVL P00032 V=0314.0451661
MOVL P00033 V=0304.7713453
MOVL P00034 V=0292.8308473
MOVL P00035 V=0278.5609204
MOVL P00036 V=0262.3519074
MOVL P00037 V=0244.6295608
MOVL P00038 V=0225.8365950
MOVL P00039 V=0206.4145802
MOVL P00040 V=0186.7871930
MOVL P00041 V=0167.3456746
MOVL P00042 V=0148.4371333
MOVL P00043 V=0130.3560810
MOVL P00044 V=0113.3393460
MOVL P00045 V=0097.5642653
MOVL P00046 V=0083.1498601
MOVL P00047 V=0070.1605421
MOVL P00048 V=0058.6117943
MOVL P00049 V=0048.4772264
MOVL P00050 V=0039.6964050
MOVL P00051 V=0032.1829060
MOVL P00052 V=0025.8321171
MOVL P00053 V=0020.5284145
MOVL P00054 V=0016.1514486
MOVL P00055 V=0012.5813781
MOVL P00056 V=0009.7029905
MOVL P00057 V=0007.4087282
MOVL P00058 V=0005.6007009
MOVL P00059 V=0004.1918116
MOVL P00060 V=0004.1918116
DOUT OT#(2) OFF
DOUT OT#(3) OFF
DOUT OT#(4) OFF
DOUT OT#(5) ON
DOUT OT#(6) ON
DOUT OT#(7) ON
DOUT OT#(8) ON
DOUT OT#(1) OFF
END
