/JOB
//NAME GAUSSIANMOVING2
//POS
///NPOS 0,0,0,61,0,0
///TOOL 0
///POSTYPE ROBOT
///RECTAN
///RCONF 0,0,0,0,0,0,0,0,0,0,0,0,0,0,0,0,0,0,0,0,0,0,0,0
P00000=10.000,0.000,0.000,0.0000,0.0000,0.0000
///POSTYPE BASE
P00001=0202.15276497,-0039.92536747,0578.50700000,0000.00000000,0000.00000000,0180.00000000
P00002=0202.10500768,-0039.89779479,0578.50700000,0000.00000000,0000.00000000,0180.00000000
P00003=0202.04183331,-0039.86132105,0578.50700000,0000.00000000,0000.00000000,0180.00000000
P00004=0201.95909572,-0039.81355248,0578.50700000,0000.00000000,0000.00000000,0180.00000000
P00005=0201.85181407,-0039.75161339,0578.50700000,0000.00000000,0000.00000000,0180.00000000
P00006=0201.71409035,-0039.67209856,0578.50700000,0000.00000000,0000.00000000,0180.00000000
P00007=0201.53904417,-0039.57103560,0578.50700000,0000.00000000,0000.00000000,0180.00000000
P00008=0201.31877320,-0039.44386210,0578.50700000,0000.00000000,0000.00000000,0180.00000000
P00009=0201.04434894,-0039.28542318,0578.50700000,0000.00000000,0000.00000000,0180.00000000
P00010=0200.70585693,-0039.08999472,0578.50700000,0000.00000000,0000.00000000,0180.00000000
P00011=0200.29249068,-0038.85133761,0578.50700000,0000.00000000,0000.00000000,0180.00000000
P00012=0199.79270677,-0038.56278724,0578.50700000,0000.00000000,0000.00000000,0180.00000000
P00013=0199.19444647,-0038.21738149,0578.50700000,0000.00000000,0000.00000000,0180.00000000
P00014=0198.48542601,-0037.80802833,0578.50700000,0000.00000000,0000.00000000,0180.00000000
P00015=0197.65349363,-0037.32771195,0578.50700000,0000.00000000,0000.00000000,0180.00000000
P00016=0196.68704683,-0036.76973363,0578.50700000,0000.00000000,0000.00000000,0180.00000000
P00017=0195.57549800,-0036.12798062,0578.50700000,0000.00000000,0000.00000000,0180.00000000
P00018=0194.30977169,-0035.39721319,0578.50700000,0000.00000000,0000.00000000,0180.00000000
P00019=0192.88281189,-0034.57335756,0578.50700000,0000.00000000,0000.00000000,0180.00000000
P00020=0191.29007387,-0033.65378984,0578.50700000,0000.00000000,0000.00000000,0180.00000000
P00021=0189.52997275,-0032.63759499,0578.50700000,0000.00000000,0000.00000000,0180.00000000
P00022=0187.60425973,-0031.52578406,0578.50700000,0000.00000000,0000.00000000,0180.00000000
P00023=0185.51829873,-0030.32145391,0578.50700000,0000.00000000,0000.00000000,0180.00000000
P00024=0183.28121894,-0029.02987529,0578.50700000,0000.00000000,0000.00000000,0180.00000000
P00025=0180.90592458,-0027.65849845,0578.50700000,0000.00000000,0000.00000000,0180.00000000
P00026=0178.40895027,-0026.21686966,0578.50700000,0000.00000000,0000.00000000,0180.00000000
P00027=0175.81015911,-0024.71645689,0578.50700000,0000.00000000,0000.00000000,0180.00000000
P00028=0173.13228990,-0023.17038838,0578.50700000,0000.00000000,0000.00000000,0180.00000000
P00029=0170.40036966,-0021.59311349,0578.50700000,0000.00000000,0000.00000000,0180.00000000
P00030=0167.64101615,-0020.00000000,0578.50700000,0000.00000000,0000.00000000,0180.00000000
P00031=0164.88166264,-0018.40688651,0578.50700000,0000.00000000,0000.00000000,0180.00000000
P00032=0162.14974240,-0016.82961162,0578.50700000,0000.00000000,0000.00000000,0180.00000000
P00033=0159.47187319,-0015.28354311,0578.50700000,0000.00000000,0000.00000000,0180.00000000
P00034=0156.87308203,-0013.78313034,0578.50700000,0000.00000000,0000.00000000,0180.00000000
P00035=0154.37610772,-0012.34150155,0578.50700000,0000.00000000,0000.00000000,0180.00000000
P00036=0152.00081336,-0010.97012471,0578.50700000,0000.00000000,0000.00000000,0180.00000000
P00037=0149.76373357,-0009.67854609,0578.50700000,0000.00000000,0000.00000000,0180.00000000
P00038=0147.67777257,-0008.47421594,0578.50700000,0000.00000000,0000.00000000,0180.00000000
P00039=0145.75205955,-0007.36240501,0578.50700000,0000.00000000,0000.00000000,0180.00000000
P00040=0143.99195843,-0006.34621016,0578.50700000,0000.00000000,0000.00000000,0180.00000000
P00041=0142.39922042,-0005.42664244,0578.50700000,0000.00000000,0000.00000000,0180.00000000
P00042=0140.97226061,-0004.60278681,0578.50700000,0000.00000000,0000.00000000,0180.00000000
P00043=0139.70653430,-0003.87201938,0578.50700000,0000.00000000,0000.00000000,0180.00000000
P00044=0138.59498547,-0003.23026637,0578.50700000,0000.00000000,0000.00000000,0180.00000000
P00045=0137.62853868,-0002.67228805,0578.50700000,0000.00000000,0000.00000000,0180.00000000
P00046=0136.79660630,-0002.19197167,0578.50700000,0000.00000000,0000.00000000,0180.00000000
P00047=0136.08758583,-0001.78261851,0578.50700000,0000.00000000,0000.00000000,0180.00000000
P00048=0135.48932553,-0001.43721276,0578.50700000,0000.00000000,0000.00000000,0180.00000000
P00049=0134.98954162,-0001.14866239,0578.50700000,0000.00000000,0000.00000000,0180.00000000
P00050=0134.57617538,-0000.91000528,0578.50700000,0000.00000000,0000.00000000,0180.00000000
P00051=0134.23768336,-0000.71457682,0578.50700000,0000.00000000,0000.00000000,0180.00000000
P00052=0133.96325910,-0000.55613790,0578.50700000,0000.00000000,0000.00000000,0180.00000000
P00053=0133.74298814,-0000.42896440,0578.50700000,0000.00000000,0000.00000000,0180.00000000
P00054=0133.56794195,-0000.32790144,0578.50700000,0000.00000000,0000.00000000,0180.00000000
P00055=0133.43021823,-0000.24838661,0578.50700000,0000.00000000,0000.00000000,0180.00000000
P00056=0133.32293658,-0000.18644752,0578.50700000,0000.00000000,0000.00000000,0180.00000000
P00057=0133.24019899,-0000.13867895,0578.50700000,0000.00000000,0000.00000000,0180.00000000
P00058=0133.17702462,-0000.10220521,0578.50700000,0000.00000000,0000.00000000,0180.00000000
P00059=0133.12926734,-0000.07463253,0578.50700000,0000.00000000,0000.00000000,0180.00000000
P00060=0133.09352368,-0000.05399592,0578.50700000,0000.00000000,0000.00000000,0180.00000000
//INST
///DATE 2017/03/31 08:11
///ATTR SC,RW
///GROUP1 RB2
NOP
MOVL P00001 V=0003.4465852
MOVL P00002 V=0004.5592174
MOVL P00003 V=0005.9710711
MOVL P00004 V=0007.7423865
MOVL P00005 V=0009.9393530
MOVL P00006 V=0012.6328705
MOVL P00007 V=0015.8966875
MOVL P00008 V=0019.8048652
MOVL P00009 V=0024.4285569
MOVL P00010 V=0029.8321393
MOVL P00011 V=0036.0687965
MOVL P00012 V=0043.1757182
MOVL P00013 V=0051.1691447
MOVL P00014 V=0060.0395478
MOVL P00015 V=0069.7472898
MOVL P00016 V=0080.2191268
MOVL P00017 V=0091.3459282
MOVL P00018 V=0102.9819536
MOVL P00019 V=0114.9459649
MOVL P00020 V=0127.0243571
MOVL P00021 V=0138.9763662
MOVL P00022 V=0150.5412682
MOVL P00023 V=0161.4473276
MOVL P00024 V=0171.4221049
MOVL P00025 V=0180.2035983
MOVL P00026 V=0187.5515971
MOVL P00027 V=0193.2585637
MOVL P00028 V=0197.1593608
MOVL P00029 V=0199.1391864
MOVL P00030 V=0199.1391864
MOVL P00031 V=0197.1593608
MOVL P00032 V=0193.2585637
MOVL P00033 V=0187.5515971
MOVL P00034 V=0180.2035983
MOVL P00035 V=0171.4221049
MOVL P00036 V=0161.4473276
MOVL P00037 V=0150.5412682
MOVL P00038 V=0138.9763662
MOVL P00039 V=0127.0243571
MOVL P00040 V=0114.9459649
MOVL P00041 V=0102.9819536
MOVL P00042 V=0091.3459282
MOVL P00043 V=0080.2191268
MOVL P00044 V=0069.7472898
MOVL P00045 V=0060.0395478
MOVL P00046 V=0051.1691447
MOVL P00047 V=0043.1757182
MOVL P00048 V=0036.0687965
MOVL P00049 V=0029.8321393
MOVL P00050 V=0024.4285569
MOVL P00051 V=0019.8048652
MOVL P00052 V=0015.8966875
MOVL P00053 V=0012.6328705
MOVL P00054 V=0009.9393530
MOVL P00055 V=0007.7423865
MOVL P00056 V=0005.9710711
MOVL P00057 V=0004.5592174
MOVL P00058 V=0003.4465852
MOVL P00059 V=0002.5795763
MOVL P00060 V=0002.5795763
END
