/JOB
//NAME GAUSSIANMOVING2
//POS
///NPOS 0,0,0,61,0,0
///TOOL 0
///POSTYPE ROBOT
///RECTAN
///RCONF 0,0,0,0,0,0,0,0,0,0,0,0,0,0,0,0,0,0,0,0,0,0,0,0
P00000=10.000,0.000,0.000,0.0000,0.0000,0.0000
///POSTYPE BASE
///TOOL1
P00001=0714.45536747,-0069.15276497,0908.48000000,0180.00000000,0000.00000000,0000.00000000
P00002=0714.42779479,-0069.10500768,0908.48000000,0180.00000000,0000.00000000,0000.00000000
P00003=0714.39132105,-0069.04183331,0908.48000000,0180.00000000,0000.00000000,0000.00000000
P00004=0714.34355248,-0068.95909572,0908.48000000,0180.00000000,0000.00000000,0000.00000000
P00005=0714.28161339,-0068.85181407,0908.48000000,0180.00000000,0000.00000000,0000.00000000
P00006=0714.20209856,-0068.71409035,0908.48000000,0180.00000000,0000.00000000,0000.00000000
P00007=0714.10103560,-0068.53904417,0908.48000000,0180.00000000,0000.00000000,0000.00000000
P00008=0713.97386210,-0068.31877320,0908.48000000,0180.00000000,0000.00000000,0000.00000000
P00009=0713.81542318,-0068.04434894,0908.48000000,0180.00000000,0000.00000000,0000.00000000
P00010=0713.61999472,-0067.70585693,0908.48000000,0180.00000000,0000.00000000,0000.00000000
P00011=0713.38133761,-0067.29249068,0908.48000000,0180.00000000,0000.00000000,0000.00000000
P00012=0713.09278724,-0066.79270677,0908.48000000,0180.00000000,0000.00000000,0000.00000000
P00013=0712.74738149,-0066.19444647,0908.48000000,0180.00000000,0000.00000000,0000.00000000
P00014=0712.33802833,-0065.48542601,0908.48000000,0180.00000000,0000.00000000,0000.00000000
P00015=0711.85771195,-0064.65349363,0908.48000000,0180.00000000,0000.00000000,0000.00000000
P00016=0711.29973363,-0063.68704683,0908.48000000,0180.00000000,0000.00000000,0000.00000000
P00017=0710.65798062,-0062.57549800,0908.48000000,0180.00000000,0000.00000000,0000.00000000
P00018=0709.92721319,-0061.30977169,0908.48000000,0180.00000000,0000.00000000,0000.00000000
P00019=0709.10335756,-0059.88281189,0908.48000000,0180.00000000,0000.00000000,0000.00000000
P00020=0708.18378984,-0058.29007387,0908.48000000,0180.00000000,0000.00000000,0000.00000000
P00021=0707.16759499,-0056.52997275,0908.48000000,0180.00000000,0000.00000000,0000.00000000
P00022=0706.05578406,-0054.60425973,0908.48000000,0180.00000000,0000.00000000,0000.00000000
P00023=0704.85145391,-0052.51829873,0908.48000000,0180.00000000,0000.00000000,0000.00000000
P00024=0703.55987529,-0050.28121894,0908.48000000,0180.00000000,0000.00000000,0000.00000000
P00025=0702.18849845,-0047.90592458,0908.48000000,0180.00000000,0000.00000000,0000.00000000
P00026=0700.74686966,-0045.40895027,0908.48000000,0180.00000000,0000.00000000,0000.00000000
P00027=0699.24645689,-0042.81015911,0908.48000000,0180.00000000,0000.00000000,0000.00000000
P00028=0697.70038838,-0040.13228990,0908.48000000,0180.00000000,0000.00000000,0000.00000000
P00029=0696.12311349,-0037.40036966,0908.48000000,0180.00000000,0000.00000000,0000.00000000
P00030=0694.53000000,-0034.64101615,0908.48000000,0180.00000000,0000.00000000,0000.00000000
P00031=0692.93688651,-0031.88166264,0908.48000000,0180.00000000,0000.00000000,0000.00000000
P00032=0691.35961162,-0029.14974240,0908.48000000,0180.00000000,0000.00000000,0000.00000000
P00033=0689.81354311,-0026.47187319,0908.48000000,0180.00000000,0000.00000000,0000.00000000
P00034=0688.31313034,-0023.87308203,0908.48000000,0180.00000000,0000.00000000,0000.00000000
P00035=0686.87150155,-0021.37610772,0908.48000000,0180.00000000,0000.00000000,0000.00000000
P00036=0685.50012471,-0019.00081336,0908.48000000,0180.00000000,0000.00000000,0000.00000000
P00037=0684.20854609,-0016.76373357,0908.48000000,0180.00000000,0000.00000000,0000.00000000
P00038=0683.00421594,-0014.67777257,0908.48000000,0180.00000000,0000.00000000,0000.00000000
P00039=0681.89240501,-0012.75205955,0908.48000000,0180.00000000,0000.00000000,0000.00000000
P00040=0680.87621016,-0010.99195843,0908.48000000,0180.00000000,0000.00000000,0000.00000000
P00041=0679.95664244,-0009.39922042,0908.48000000,0180.00000000,0000.00000000,0000.00000000
P00042=0679.13278681,-0007.97226061,0908.48000000,0180.00000000,0000.00000000,0000.00000000
P00043=0678.40201938,-0006.70653430,0908.48000000,0180.00000000,0000.00000000,0000.00000000
P00044=0677.76026637,-0005.59498547,0908.48000000,0180.00000000,0000.00000000,0000.00000000
P00045=0677.20228805,-0004.62853868,0908.48000000,0180.00000000,0000.00000000,0000.00000000
P00046=0676.72197167,-0003.79660630,0908.48000000,0180.00000000,0000.00000000,0000.00000000
P00047=0676.31261851,-0003.08758583,0908.48000000,0180.00000000,0000.00000000,0000.00000000
P00048=0675.96721276,-0002.48932553,0908.48000000,0180.00000000,0000.00000000,0000.00000000
P00049=0675.67866239,-0001.98954162,0908.48000000,0180.00000000,0000.00000000,0000.00000000
P00050=0675.44000528,-0001.57617538,0908.48000000,0180.00000000,0000.00000000,0000.00000000
P00051=0675.24457682,-0001.23768336,0908.48000000,0180.00000000,0000.00000000,0000.00000000
P00052=0675.08613790,-0000.96325910,0908.48000000,0180.00000000,0000.00000000,0000.00000000
P00053=0674.95896440,-0000.74298814,0908.48000000,0180.00000000,0000.00000000,0000.00000000
P00054=0674.85790144,-0000.56794195,0908.48000000,0180.00000000,0000.00000000,0000.00000000
P00055=0674.77838661,-0000.43021823,0908.48000000,0180.00000000,0000.00000000,0000.00000000
P00056=0674.71644752,-0000.32293658,0908.48000000,0180.00000000,0000.00000000,0000.00000000
P00057=0674.66867895,-0000.24019899,0908.48000000,0180.00000000,0000.00000000,0000.00000000
P00058=0674.63220521,-0000.17702462,0908.48000000,0180.00000000,0000.00000000,0000.00000000
P00059=0674.60463253,-0000.12926734,0908.48000000,0180.00000000,0000.00000000,0000.00000000
P00060=0674.58399592,-0000.09352368,0908.48000000,0180.00000000,0000.00000000,0000.00000000
//INST
///DATE 2017/03/31 08:11
///ATTR SC,RW
///GROUP1 RB2
NOP
DOUT OT#(15) ON
MOVL P00001 V=0003.4465852
MOVL P00002 V=0004.5592174
MOVL P00003 V=0005.9710711
MOVL P00004 V=0007.7423865
MOVL P00005 V=0009.9393530
MOVL P00006 V=0012.6328705
MOVL P00007 V=0015.8966875
MOVL P00008 V=0019.8048652
MOVL P00009 V=0024.4285569
MOVL P00010 V=0029.8321393
MOVL P00011 V=0036.0687965
MOVL P00012 V=0043.1757182
MOVL P00013 V=0051.1691447
MOVL P00014 V=0060.0395478
MOVL P00015 V=0069.7472898
MOVL P00016 V=0080.2191268
MOVL P00017 V=0091.3459282
MOVL P00018 V=0102.9819536
MOVL P00019 V=0114.9459649
MOVL P00020 V=0127.0243571
MOVL P00021 V=0138.9763662
MOVL P00022 V=0150.5412682
MOVL P00023 V=0161.4473276
MOVL P00024 V=0171.4221049
MOVL P00025 V=0180.2035983
MOVL P00026 V=0187.5515971
MOVL P00027 V=0193.2585637
MOVL P00028 V=0197.1593608
MOVL P00029 V=0199.1391864
MOVL P00030 V=0199.1391864
MOVL P00031 V=0197.1593608
MOVL P00032 V=0193.2585637
MOVL P00033 V=0187.5515971
MOVL P00034 V=0180.2035983
MOVL P00035 V=0171.4221049
MOVL P00036 V=0161.4473276
MOVL P00037 V=0150.5412682
MOVL P00038 V=0138.9763662
MOVL P00039 V=0127.0243571
MOVL P00040 V=0114.9459649
MOVL P00041 V=0102.9819536
MOVL P00042 V=0091.3459282
MOVL P00043 V=0080.2191268
MOVL P00044 V=0069.7472898
MOVL P00045 V=0060.0395478
MOVL P00046 V=0051.1691447
MOVL P00047 V=0043.1757182
MOVL P00048 V=0036.0687965
MOVL P00049 V=0029.8321393
MOVL P00050 V=0024.4285569
MOVL P00051 V=0019.8048652
MOVL P00052 V=0015.8966875
MOVL P00053 V=0012.6328705
MOVL P00054 V=0009.9393530
MOVL P00055 V=0007.7423865
MOVL P00056 V=0005.9710711
MOVL P00057 V=0004.5592174
MOVL P00058 V=0003.4465852
MOVL P00059 V=0002.5795763
MOVL P00060 V=0002.5795763
DOUT OT#(15) OFF
END
