/JOB
//NAME GAUSSIANMOVING2
//POS
///NPOS 0,0,0,241,0,0
///TOOL 0
///POSTYPE ROBOT
///RECTAN
///RCONF 0,0,0,0,0,0,0,0,0,0,0,0,0,0,0,0,0,0,0,0,0,0,0,0
P00000=10.000,0.000,0.000,0.0000,0.0000,0.0000
///POSTYPE BASE
P00001=0368.22316240,0004.13668940,378.131,178.2426,-0.7296,-129.2918
P00002=0368.23009530,0004.13486412,378.131,178.2426,-0.7296,-129.2918
P00003=0368.23812982,0004.13274881,378.131,178.2426,-0.7296,-129.2918
P00004=0368.24741775,0004.13030350,378.131,178.2426,-0.7296,-129.2918
P00005=0368.25812785,0004.12748377,378.131,178.2426,-0.7296,-129.2918
P00006=0368.27044704,0004.12424039,378.131,178.2426,-0.7296,-129.2918
P00007=0368.28458169,0004.12051905,378.131,178.2426,-0.7296,-129.2918
P00008=0368.30075886,0004.11625996,378.131,178.2426,-0.7296,-129.2918
P00009=0368.31922749,0004.11139757,378.131,178.2426,-0.7296,-129.2918
P00010=0368.34025952,0004.10586030,378.131,178.2426,-0.7296,-129.2918
P00011=0368.36415095,0004.09957021,378.131,178.2426,-0.7296,-129.2918
P00012=0368.39122278,0004.09244279,378.131,178.2426,-0.7296,-129.2918
P00013=0368.42182181,0004.08438674,378.131,178.2426,-0.7296,-129.2918
P00014=0368.45632126,0004.07530379,378.131,178.2426,-0.7296,-129.2918
P00015=0368.49512121,0004.06508862,378.131,178.2426,-0.7296,-129.2918
P00016=0368.53864880,0004.05362876,378.131,178.2426,-0.7296,-129.2918
P00017=0368.58735817,0004.04080466,378.131,178.2426,-0.7296,-129.2918
P00018=0368.64173013,0004.02648971,378.131,178.2426,-0.7296,-129.2918
P00019=0368.70227146,0004.01055051,378.131,178.2426,-0.7296,-129.2918
P00020=0368.76951388,0003.99284706,378.131,178.2426,-0.7296,-129.2918
P00021=0368.84401268,0003.97323316,378.131,178.2426,-0.7296,-129.2918
P00022=0368.92634487,0003.95155691,378.131,178.2426,-0.7296,-129.2918
P00023=0369.01710698,0003.92766124,378.131,178.2426,-0.7296,-129.2918
P00024=0369.11691235,0003.90138467,378.131,178.2426,-0.7296,-129.2918
P00025=0369.22638808,0003.87256212,378.131,178.2426,-0.7296,-129.2918
P00026=0369.34617135,0003.84102582,378.131,178.2426,-0.7296,-129.2918
P00027=0369.47690549,0003.80660639,378.131,178.2426,-0.7296,-129.2918
P00028=0369.61923547,0003.76913404,378.131,178.2426,-0.7296,-129.2918
P00029=0369.77380297,0003.72843981,378.131,178.2426,-0.7296,-129.2918
P00030=0369.94124117,0003.68435701,378.131,178.2426,-0.7296,-129.2918
P00031=0370.12216898,0003.63672269,378.131,178.2426,-0.7296,-129.2918
P00032=0370.31718516,0003.58537922,378.131,178.2426,-0.7296,-129.2918
P00033=0370.52686198,0003.53017592,378.131,178.2426,-0.7296,-129.2918
P00034=0370.75173881,0003.47097079,378.131,178.2426,-0.7296,-129.2918
P00035=0370.99231547,0003.40763224,378.131,178.2426,-0.7296,-129.2918
P00036=0371.24904554,0003.34004085,378.131,178.2426,-0.7296,-129.2918
P00037=0371.52232972,0003.26809113,378.131,178.2426,-0.7296,-129.2918
P00038=0371.81250922,0003.19169325,378.131,178.2426,-0.7296,-129.2918
P00039=0372.11985940,0003.11077470,378.131,178.2426,-0.7296,-129.2918
P00040=0372.44458362,0003.02528194,378.131,178.2426,-0.7296,-129.2918
P00041=0372.78680757,0002.93518190,378.131,178.2426,-0.7296,-129.2918
P00042=0373.14657397,0002.84046331,378.131,178.2426,-0.7296,-129.2918
P00043=0373.52383790,0002.74113800,378.131,178.2426,-0.7296,-129.2918
P00044=0373.91846279,0002.63724194,378.131,178.2426,-0.7296,-129.2918
P00045=0374.33021709,0002.52883608,378.131,178.2426,-0.7296,-129.2918
P00046=0374.75877182,0002.41600704,378.131,178.2426,-0.7296,-129.2918
P00047=0375.20369902,0002.29886748,378.131,178.2426,-0.7296,-129.2918
P00048=0375.66447103,0002.17755634,378.131,178.2426,-0.7296,-129.2918
P00049=0376.14046091,0002.05223866,378.131,178.2426,-0.7296,-129.2918
P00050=0376.63094378,0001.92310530,378.131,178.2426,-0.7296,-129.2918
P00051=0377.13509921,0001.79037225,378.131,178.2426,-0.7296,-129.2918
P00052=0377.65201471,0001.65427975,378.131,178.2426,-0.7296,-129.2918
P00053=0378.18069016,0001.51509112,378.131,178.2426,-0.7296,-129.2918
P00054=0378.72004332,0001.37309129,378.131,178.2426,-0.7296,-129.2918
P00055=0379.26891622,0001.22858511,378.131,178.2426,-0.7296,-129.2918
P00056=0379.82608254,0001.08189546,378.131,178.2426,-0.7296,-129.2918
P00057=0380.39025568,0000.93336107,378.131,178.2426,-0.7296,-129.2918
P00058=0380.96009766,0000.78333420,378.131,178.2426,-0.7296,-129.2918
P00059=0381.53422863,0000.63217813,378.131,178.2426,-0.7296,-129.2918
P00060=0382.11123685,0000.48026454,378.131,178.2426,-0.7296,-129.2918
P00061=0382.68968908,0000.32797078,378.131,178.2426,-0.7296,-129.2918
P00062=0383.26814132,0000.17567701,378.131,178.2426,-0.7296,-129.2918
P00063=0383.84514953,0000.02376343,378.131,178.2426,-0.7296,-129.2918
P00064=0384.41928050,-0000.12739264,378.131,178.2426,-0.7296,-129.2918
P00065=0384.98912249,-0000.27741952,378.131,178.2426,-0.7296,-129.2918
P00066=0385.55329563,-0000.42595391,378.131,178.2426,-0.7296,-129.2918
P00067=0386.11046194,-0000.57264356,378.131,178.2426,-0.7296,-129.2918
P00068=0386.65933485,-0000.71714973,378.131,178.2426,-0.7296,-129.2918
P00069=0387.19868801,-0000.85914957,378.131,178.2426,-0.7296,-129.2918
P00070=0387.72736345,-0000.99833820,378.131,178.2426,-0.7296,-129.2918
P00071=0388.24427895,-0001.13443069,378.131,178.2426,-0.7296,-129.2918
P00072=0388.74843439,-0001.26716374,378.131,178.2426,-0.7296,-129.2918
P00073=0389.23891725,-0001.39629710,378.131,178.2426,-0.7296,-129.2918
P00074=0389.71490714,-0001.52161478,378.131,178.2426,-0.7296,-129.2918
P00075=0390.17567915,-0001.64292593,378.131,178.2426,-0.7296,-129.2918
P00076=0390.62060634,-0001.76006548,378.131,178.2426,-0.7296,-129.2918
P00077=0391.04916108,-0001.87289453,378.131,178.2426,-0.7296,-129.2918
P00078=0391.46091538,-0001.98130039,378.131,178.2426,-0.7296,-129.2918
P00079=0391.85554027,-0002.08519645,378.131,178.2426,-0.7296,-129.2918
P00080=0392.23280420,-0002.18452176,378.131,178.2426,-0.7296,-129.2918
P00081=0392.59257060,-0002.27924034,378.131,178.2426,-0.7296,-129.2918
P00082=0392.93479455,-0002.36934039,378.131,178.2426,-0.7296,-129.2918
P00083=0393.25951877,-0002.45483314,378.131,178.2426,-0.7296,-129.2918
P00084=0393.56686894,-0002.53575169,378.131,178.2426,-0.7296,-129.2918
P00085=0393.85704845,-0002.61214958,378.131,178.2426,-0.7296,-129.2918
P00086=0394.13033263,-0002.68409930,378.131,178.2426,-0.7296,-129.2918
P00087=0394.38706270,-0002.75169069,378.131,178.2426,-0.7296,-129.2918
P00088=0394.62763936,-0002.81502923,378.131,178.2426,-0.7296,-129.2918
P00089=0394.85251619,-0002.87423436,378.131,178.2426,-0.7296,-129.2918
P00090=0395.06219301,-0002.92943766,378.131,178.2426,-0.7296,-129.2918
P00091=0395.25720919,-0002.98078114,378.131,178.2426,-0.7296,-129.2918
P00092=0395.43813700,-0003.02841546,378.131,178.2426,-0.7296,-129.2918
P00093=0395.60557519,-0003.07249825,378.131,178.2426,-0.7296,-129.2918
P00094=0395.76014270,-0003.11319248,378.131,178.2426,-0.7296,-129.2918
P00095=0395.90247267,-0003.15066484,378.131,178.2426,-0.7296,-129.2918
P00096=0396.03320682,-0003.18508426,378.131,178.2426,-0.7296,-129.2918
P00097=0396.15299009,-0003.21662057,378.131,178.2426,-0.7296,-129.2918
P00098=0396.26246581,-0003.24544312,378.131,178.2426,-0.7296,-129.2918
P00099=0396.36227119,-0003.27171968,378.131,178.2426,-0.7296,-129.2918
P00100=0396.45303330,-0003.29561535,378.131,178.2426,-0.7296,-129.2918
P00101=0396.53536549,-0003.31729161,378.131,178.2426,-0.7296,-129.2918
P00102=0396.60986428,-0003.33690551,378.131,178.2426,-0.7296,-129.2918
P00103=0396.67710671,-0003.35460896,378.131,178.2426,-0.7296,-129.2918
P00104=0396.73764803,-0003.37054816,378.131,178.2426,-0.7296,-129.2918
P00105=0396.79201999,-0003.38486310,378.131,178.2426,-0.7296,-129.2918
P00106=0396.84072937,-0003.39768721,378.131,178.2426,-0.7296,-129.2918
P00107=0396.88425696,-0003.40914707,378.131,178.2426,-0.7296,-129.2918
P00108=0396.92305690,-0003.41936224,378.131,178.2426,-0.7296,-129.2918
P00109=0396.95755635,-0003.42844519,378.131,178.2426,-0.7296,-129.2918
P00110=0396.98815538,-0003.43650124,378.131,178.2426,-0.7296,-129.2918
P00111=0397.01522722,-0003.44362866,378.131,178.2426,-0.7296,-129.2918
P00112=0397.03911865,-0003.44991875,378.131,178.2426,-0.7296,-129.2918
P00113=0397.06015068,-0003.45545602,378.131,178.2426,-0.7296,-129.2918
P00114=0397.07861931,-0003.46031840,378.131,178.2426,-0.7296,-129.2918
P00115=0397.09479648,-0003.46457750,378.131,178.2426,-0.7296,-129.2918
P00116=0397.10893113,-0003.46829884,378.131,178.2426,-0.7296,-129.2918
P00117=0397.12125032,-0003.47154221,378.131,178.2426,-0.7296,-129.2918
P00118=0397.13196041,-0003.47436194,378.131,178.2426,-0.7296,-129.2918
P00119=0397.14124835,-0003.47680726,378.131,178.2426,-0.7296,-129.2918
P00120=0397.14928287,-0003.47892257,378.131,178.2426,-0.7296,-129.2918
P00121=0303.17983760,0000.64231060,308.141,178.5590,4.5487,-19.7702
P00122=0303.17290470,0000.64413588,308.141,178.5590,4.5487,-19.7702
P00123=0303.16487018,0000.64625119,308.141,178.5590,4.5487,-19.7702
P00124=0303.15558225,0000.64869650,308.141,178.5590,4.5487,-19.7702
P00125=0303.14487215,0000.65151623,308.141,178.5590,4.5487,-19.7702
P00126=0303.13255296,0000.65475961,308.141,178.5590,4.5487,-19.7702
P00127=0303.11841831,0000.65848095,308.141,178.5590,4.5487,-19.7702
P00128=0303.10224114,0000.66274004,308.141,178.5590,4.5487,-19.7702
P00129=0303.08377251,0000.66760243,308.141,178.5590,4.5487,-19.7702
P00130=0303.06274048,0000.67313970,308.141,178.5590,4.5487,-19.7702
P00131=0303.03884905,0000.67942979,308.141,178.5590,4.5487,-19.7702
P00132=0303.01177722,0000.68655721,308.141,178.5590,4.5487,-19.7702
P00133=0302.98117819,0000.69461326,308.141,178.5590,4.5487,-19.7702
P00134=0302.94667874,0000.70369621,308.141,178.5590,4.5487,-19.7702
P00135=0302.90787879,0000.71391138,308.141,178.5590,4.5487,-19.7702
P00136=0302.86435120,0000.72537124,308.141,178.5590,4.5487,-19.7702
P00137=0302.81564183,0000.73819534,308.141,178.5590,4.5487,-19.7702
P00138=0302.76126987,0000.75251029,308.141,178.5590,4.5487,-19.7702
P00139=0302.70072854,0000.76844949,308.141,178.5590,4.5487,-19.7702
P00140=0302.63348612,0000.78615294,308.141,178.5590,4.5487,-19.7702
P00141=0302.55898732,0000.80576684,308.141,178.5590,4.5487,-19.7702
P00142=0302.47665513,0000.82744309,308.141,178.5590,4.5487,-19.7702
P00143=0302.38589302,0000.85133876,308.141,178.5590,4.5487,-19.7702
P00144=0302.28608765,0000.87761533,308.141,178.5590,4.5487,-19.7702
P00145=0302.17661192,0000.90643788,308.141,178.5590,4.5487,-19.7702
P00146=0302.05682865,0000.93797418,308.141,178.5590,4.5487,-19.7702
P00147=0301.92609451,0000.97239361,308.141,178.5590,4.5487,-19.7702
P00148=0301.78376453,0001.00986596,308.141,178.5590,4.5487,-19.7702
P00149=0301.62919703,0001.05056019,308.141,178.5590,4.5487,-19.7702
P00150=0301.46175883,0001.09464299,308.141,178.5590,4.5487,-19.7702
P00151=0301.28083102,0001.14227731,308.141,178.5590,4.5487,-19.7702
P00152=0301.08581484,0001.19362078,308.141,178.5590,4.5487,-19.7702
P00153=0300.87613802,0001.24882408,308.141,178.5590,4.5487,-19.7702
P00154=0300.65126119,0001.30802921,308.141,178.5590,4.5487,-19.7702
P00155=0300.41068453,0001.37136776,308.141,178.5590,4.5487,-19.7702
P00156=0300.15395446,0001.43895915,308.141,178.5590,4.5487,-19.7702
P00157=0299.88067028,0001.51090887,308.141,178.5590,4.5487,-19.7702
P00158=0299.59049078,0001.58730675,308.141,178.5590,4.5487,-19.7702
P00159=0299.28314060,0001.66822530,308.141,178.5590,4.5487,-19.7702
P00160=0298.95841638,0001.75371806,308.141,178.5590,4.5487,-19.7702
P00161=0298.61619243,0001.84381810,308.141,178.5590,4.5487,-19.7702
P00162=0298.25642603,0001.93853669,308.141,178.5590,4.5487,-19.7702
P00163=0297.87916210,0002.03786200,308.141,178.5590,4.5487,-19.7702
P00164=0297.48453721,0002.14175806,308.141,178.5590,4.5487,-19.7702
P00165=0297.07278291,0002.25016392,308.141,178.5590,4.5487,-19.7702
P00166=0296.64422818,0002.36299296,308.141,178.5590,4.5487,-19.7702
P00167=0296.19930098,0002.48013252,308.141,178.5590,4.5487,-19.7702
P00168=0295.73852897,0002.60144366,308.141,178.5590,4.5487,-19.7702
P00169=0295.26253909,0002.72676134,308.141,178.5590,4.5487,-19.7702
P00170=0294.77205622,0002.85589470,308.141,178.5590,4.5487,-19.7702
P00171=0294.26790079,0002.98862775,308.141,178.5590,4.5487,-19.7702
P00172=0293.75098529,0003.12472025,308.141,178.5590,4.5487,-19.7702
P00173=0293.22230984,0003.26390888,308.141,178.5590,4.5487,-19.7702
P00174=0292.68295668,0003.40590871,308.141,178.5590,4.5487,-19.7702
P00175=0292.13408378,0003.55041489,308.141,178.5590,4.5487,-19.7702
P00176=0291.57691746,0003.69710454,308.141,178.5590,4.5487,-19.7702
P00177=0291.01274432,0003.84563893,308.141,178.5590,4.5487,-19.7702
P00178=0290.44290234,0003.99566580,308.141,178.5590,4.5487,-19.7702
P00179=0289.86877137,0004.14682187,308.141,178.5590,4.5487,-19.7702
P00180=0289.29176315,0004.29873546,308.141,178.5590,4.5487,-19.7702
P00181=0288.71331092,0004.45102922,308.141,178.5590,4.5487,-19.7702
P00182=0288.13485868,0004.60332299,308.141,178.5590,4.5487,-19.7702
P00183=0287.55785047,0004.75523657,308.141,178.5590,4.5487,-19.7702
P00184=0286.98371950,0004.90639264,308.141,178.5590,4.5487,-19.7702
P00185=0286.41387751,0005.05641952,308.141,178.5590,4.5487,-19.7702
P00186=0285.84970437,0005.20495391,308.141,178.5590,4.5487,-19.7702
P00187=0285.29253806,0005.35164356,308.141,178.5590,4.5487,-19.7702
P00188=0284.74366515,0005.49614973,308.141,178.5590,4.5487,-19.7702
P00189=0284.20431199,0005.63814957,308.141,178.5590,4.5487,-19.7702
P00190=0283.67563655,0005.77733820,308.141,178.5590,4.5487,-19.7702
P00191=0283.15872105,0005.91343069,308.141,178.5590,4.5487,-19.7702
P00192=0282.65456561,0006.04616374,308.141,178.5590,4.5487,-19.7702
P00193=0282.16408275,0006.17529710,308.141,178.5590,4.5487,-19.7702
P00194=0281.68809286,0006.30061478,308.141,178.5590,4.5487,-19.7702
P00195=0281.22732085,0006.42192593,308.141,178.5590,4.5487,-19.7702
P00196=0280.78239366,0006.53906548,308.141,178.5590,4.5487,-19.7702
P00197=0280.35383892,0006.65189453,308.141,178.5590,4.5487,-19.7702
P00198=0279.94208462,0006.76030039,308.141,178.5590,4.5487,-19.7702
P00199=0279.54745973,0006.86419645,308.141,178.5590,4.5487,-19.7702
P00200=0279.17019580,0006.96352176,308.141,178.5590,4.5487,-19.7702
P00201=0278.81042940,0007.05824034,308.141,178.5590,4.5487,-19.7702
P00202=0278.46820545,0007.14834039,308.141,178.5590,4.5487,-19.7702
P00203=0278.14348123,0007.23383314,308.141,178.5590,4.5487,-19.7702
P00204=0277.83613106,0007.31475169,308.141,178.5590,4.5487,-19.7702
P00205=0277.54595155,0007.39114958,308.141,178.5590,4.5487,-19.7702
P00206=0277.27266737,0007.46309930,308.141,178.5590,4.5487,-19.7702
P00207=0277.01593730,0007.53069069,308.141,178.5590,4.5487,-19.7702
P00208=0276.77536064,0007.59402923,308.141,178.5590,4.5487,-19.7702
P00209=0276.55048381,0007.65323436,308.141,178.5590,4.5487,-19.7702
P00210=0276.34080699,0007.70843766,308.141,178.5590,4.5487,-19.7702
P00211=0276.14579081,0007.75978114,308.141,178.5590,4.5487,-19.7702
P00212=0275.96486300,0007.80741546,308.141,178.5590,4.5487,-19.7702
P00213=0275.79742481,0007.85149825,308.141,178.5590,4.5487,-19.7702
P00214=0275.64285730,0007.89219248,308.141,178.5590,4.5487,-19.7702
P00215=0275.50052733,0007.92966484,308.141,178.5590,4.5487,-19.7702
P00216=0275.36979318,0007.96408426,308.141,178.5590,4.5487,-19.7702
P00217=0275.25000991,0007.99562057,308.141,178.5590,4.5487,-19.7702
P00218=0275.14053419,0008.02444312,308.141,178.5590,4.5487,-19.7702
P00219=0275.04072881,0008.05071968,308.141,178.5590,4.5487,-19.7702
P00220=0274.94996670,0008.07461535,308.141,178.5590,4.5487,-19.7702
P00221=0274.86763451,0008.09629161,308.141,178.5590,4.5487,-19.7702
P00222=0274.79313572,0008.11590551,308.141,178.5590,4.5487,-19.7702
P00223=0274.72589329,0008.13360896,308.141,178.5590,4.5487,-19.7702
P00224=0274.66535197,0008.14954816,308.141,178.5590,4.5487,-19.7702
P00225=0274.61098001,0008.16386310,308.141,178.5590,4.5487,-19.7702
P00226=0274.56227063,0008.17668721,308.141,178.5590,4.5487,-19.7702
P00227=0274.51874304,0008.18814707,308.141,178.5590,4.5487,-19.7702
P00228=0274.47994310,0008.19836224,308.141,178.5590,4.5487,-19.7702
P00229=0274.44544365,0008.20744519,308.141,178.5590,4.5487,-19.7702
P00230=0274.41484462,0008.21550124,308.141,178.5590,4.5487,-19.7702
P00231=0274.38777278,0008.22262866,308.141,178.5590,4.5487,-19.7702
P00232=0274.36388135,0008.22891875,308.141,178.5590,4.5487,-19.7702
P00233=0274.34284932,0008.23445602,308.141,178.5590,4.5487,-19.7702
P00234=0274.32438069,0008.23931840,308.141,178.5590,4.5487,-19.7702
P00235=0274.30820352,0008.24357750,308.141,178.5590,4.5487,-19.7702
P00236=0274.29406887,0008.24729884,308.141,178.5590,4.5487,-19.7702
P00237=0274.28174968,0008.25054221,308.141,178.5590,4.5487,-19.7702
P00238=0274.27103959,0008.25336194,308.141,178.5590,4.5487,-19.7702
P00239=0274.26175165,0008.25580726,308.141,178.5590,4.5487,-19.7702
P00240=0274.25371713,0008.25792257,308.141,178.5590,4.5487,-19.7702
//INST
///DATE 2017/03/31 08:11
///COMM PLAYINGTWOROBOTS
///ATTR SC,RW
///GROUP1 RB1
///GROUP2 RB2
NOP
MOVL P00001 V=0000.4480718  +MOVL P00121 V=0000.4480718
MOVL P00002 V=0000.5192693  +MOVL P00122 V=0000.5192693
MOVL P00003 V=0000.6002778  +MOVL P00123 V=0000.6002778
MOVL P00004 V=0000.6921916  +MOVL P00124 V=0000.6921916
MOVL P00005 V=0000.7961867  +MOVL P00125 V=0000.7961867
MOVL P00006 V=0000.9135198  +MOVL P00126 V=0000.9135198
MOVL P00007 V=0001.0455276  +MOVL P00127 V=0001.0455276
MOVL P00008 V=0001.1936240  +MOVL P00128 V=0001.1936240
MOVL P00009 V=0001.3592961  +MOVL P00129 V=0001.3592961
MOVL P00010 V=0001.5440988  +MOVL P00130 V=0001.5440988
MOVL P00011 V=0001.7496476  +MOVL P00131 V=0001.7496476
MOVL P00012 V=0001.9776097  +MOVL P00132 V=0001.9776097
MOVL P00013 V=0002.2296930  +MOVL P00133 V=0002.2296930
MOVL P00014 V=0002.5076334  +MOVL P00134 V=0002.5076334
MOVL P00015 V=0002.8131799  +MOVL P00135 V=0002.8131799
MOVL P00016 V=0003.1480779  +MOVL P00136 V=0003.1480779
MOVL P00017 V=0003.5140498  +MOVL P00137 V=0003.5140498
MOVL P00018 V=0003.9127747  +MOVL P00138 V=0003.9127747
MOVL P00019 V=0004.3458653  +MOVL P00139 V=0004.3458653
MOVL P00020 V=0004.8148435  +MOVL P00140 V=0004.8148435
MOVL P00021 V=0005.3211142  +MOVL P00141 V=0005.3211142
MOVL P00022 V=0005.8659381  +MOVL P00142 V=0005.8659381
MOVL P00023 V=0006.4504031  +MOVL P00143 V=0006.4504031
MOVL P00024 V=0007.0753956  +MOVL P00144 V=0007.0753956
MOVL P00025 V=0007.7415708  +MOVL P00145 V=0007.7415708
MOVL P00026 V=0008.4493236  +MOVL P00146 V=0008.4493236
MOVL P00027 V=0009.1987599  +MOVL P00147 V=0009.1987599
MOVL P00028 V=0009.9896694  +MOVL P00148 V=0009.9896694
MOVL P00029 V=0010.8214993  +MOVL P00149 V=0010.8214993
MOVL P00030 V=0011.6933311  +MOVL P00150 V=0011.6933311
MOVL P00031 V=0012.6038594  +MOVL P00151 V=0012.6038594
MOVL P00032 V=0013.5513743  +MOVL P00152 V=0013.5513743
MOVL P00033 V=0014.5337479  +MOVL P00153 V=0014.5337479
MOVL P00034 V=0015.5484247  +MOVL P00154 V=0015.5484247
MOVL P00035 V=0016.5924170  +MOVL P00155 V=0016.5924170
MOVL P00036 V=0017.6623060  +MOVL P00156 V=0017.6623060
MOVL P00037 V=0018.7542477  +MOVL P00157 V=0018.7542477
MOVL P00038 V=0019.8639850  +MOVL P00158 V=0019.8639850
MOVL P00039 V=0020.9868664  +MOVL P00159 V=0020.9868664
MOVL P00040 V=0022.1178704  +MOVL P00160 V=0022.1178704
MOVL P00041 V=0023.2516357  +MOVL P00161 V=0023.2516357
MOVL P00042 V=0024.3824982  +MOVL P00162 V=0024.3824982
MOVL P00043 V=0025.5045333  +MOVL P00163 V=0025.5045333
MOVL P00044 V=0026.6116040  +MOVL P00164 V=0026.6116040
MOVL P00045 V=0027.6974134  +MOVL P00165 V=0027.6974134
MOVL P00046 V=0028.7555622  +MOVL P00166 V=0028.7555622
MOVL P00047 V=0029.7796098  +MOVL P00167 V=0029.7796098
MOVL P00048 V=0030.7631380  +MOVL P00168 V=0030.7631380
MOVL P00049 V=0031.6998169  +MOVL P00169 V=0031.6998169
MOVL P00050 V=0032.5834724  +MOVL P00170 V=0032.5834724
MOVL P00051 V=0033.4081529  +MOVL P00171 V=0033.4081529
MOVL P00052 V=0034.1681964  +MOVL P00172 V=0034.1681964
MOVL P00053 V=0034.8582946  +MOVL P00173 V=0034.8582946
MOVL P00054 V=0035.4735543  +MOVL P00174 V=0035.4735543
MOVL P00055 V=0036.0095559  +MOVL P00175 V=0036.0095559
MOVL P00056 V=0036.4624055  +MOVL P00176 V=0036.4624055
MOVL P00057 V=0036.8287820  +MOVL P00177 V=0036.8287820
MOVL P00058 V=0037.1059783  +MOVL P00178 V=0037.1059783
MOVL P00059 V=0037.2919339  +MOVL P00179 V=0037.2919339
MOVL P00060 V=0037.3852609  +MOVL P00180 V=0037.3852609
MOVL P00061 V=0037.3852609  +MOVL P00181 V=0037.3852609
MOVL P00062 V=0037.2919339  +MOVL P00182 V=0037.2919339
MOVL P00063 V=0037.1059783  +MOVL P00183 V=0037.1059783
MOVL P00064 V=0036.8287820  +MOVL P00184 V=0036.8287820
MOVL P00065 V=0036.4624055  +MOVL P00185 V=0036.4624055
MOVL P00066 V=0036.0095559  +MOVL P00186 V=0036.0095559
MOVL P00067 V=0035.4735543  +MOVL P00187 V=0035.4735543
MOVL P00068 V=0034.8582946  +MOVL P00188 V=0034.8582946
MOVL P00069 V=0034.1681964  +MOVL P00189 V=0034.1681964
MOVL P00070 V=0033.4081529  +MOVL P00190 V=0033.4081529
MOVL P00071 V=0032.5834724  +MOVL P00191 V=0032.5834724
MOVL P00072 V=0031.6998169  +MOVL P00192 V=0031.6998169
MOVL P00073 V=0030.7631380  +MOVL P00193 V=0030.7631380
MOVL P00074 V=0029.7796098  +MOVL P00194 V=0029.7796098
MOVL P00075 V=0028.7555622  +MOVL P00195 V=0028.7555622
MOVL P00076 V=0027.6974134  +MOVL P00196 V=0027.6974134
MOVL P00077 V=0026.6116040  +MOVL P00197 V=0026.6116040
MOVL P00078 V=0025.5045333  +MOVL P00198 V=0025.5045333
MOVL P00079 V=0024.3824982  +MOVL P00199 V=0024.3824982
MOVL P00080 V=0023.2516357  +MOVL P00200 V=0023.2516357
MOVL P00081 V=0022.1178704  +MOVL P00201 V=0022.1178704
MOVL P00082 V=0020.9868664  +MOVL P00202 V=0020.9868664
MOVL P00083 V=0019.8639850  +MOVL P00203 V=0019.8639850
MOVL P00084 V=0018.7542477  +MOVL P00204 V=0018.7542477
MOVL P00085 V=0017.6623060  +MOVL P00205 V=0017.6623060
MOVL P00086 V=0016.5924170  +MOVL P00206 V=0016.5924170
MOVL P00087 V=0015.5484247  +MOVL P00207 V=0015.5484247
MOVL P00088 V=0014.5337479  +MOVL P00208 V=0014.5337479
MOVL P00089 V=0013.5513743  +MOVL P00209 V=0013.5513743
MOVL P00090 V=0012.6038594  +MOVL P00210 V=0012.6038594
MOVL P00091 V=0011.6933311  +MOVL P00211 V=0011.6933311
MOVL P00092 V=0010.8214993  +MOVL P00212 V=0010.8214993
MOVL P00093 V=0009.9896694  +MOVL P00213 V=0009.9896694
MOVL P00094 V=0009.1987599  +MOVL P00214 V=0009.1987599
MOVL P00095 V=0008.4493236  +MOVL P00215 V=0008.4493236
MOVL P00096 V=0007.7415708  +MOVL P00216 V=0007.7415708
MOVL P00097 V=0007.0753956  +MOVL P00217 V=0007.0753956
MOVL P00098 V=0006.4504031  +MOVL P00218 V=0006.4504031
MOVL P00099 V=0005.8659381  +MOVL P00219 V=0005.8659381
MOVL P00100 V=0005.3211142  +MOVL P00220 V=0005.3211142
MOVL P00101 V=0004.8148435  +MOVL P00221 V=0004.8148435
MOVL P00102 V=0004.3458653  +MOVL P00222 V=0004.3458653
MOVL P00103 V=0003.9127747  +MOVL P00223 V=0003.9127747
MOVL P00104 V=0003.5140498  +MOVL P00224 V=0003.5140498
MOVL P00105 V=0003.1480779  +MOVL P00225 V=0003.1480779
MOVL P00106 V=0002.8131799  +MOVL P00226 V=0002.8131799
MOVL P00107 V=0002.5076334  +MOVL P00227 V=0002.5076334
MOVL P00108 V=0002.2296930  +MOVL P00228 V=0002.2296930
MOVL P00109 V=0001.9776097  +MOVL P00229 V=0001.9776097
MOVL P00110 V=0001.7496476  +MOVL P00230 V=0001.7496476
MOVL P00111 V=0001.5440988  +MOVL P00231 V=0001.5440988
MOVL P00112 V=0001.3592961  +MOVL P00232 V=0001.3592961
MOVL P00113 V=0001.1936240  +MOVL P00233 V=0001.1936240
MOVL P00114 V=0001.0455276  +MOVL P00234 V=0001.0455276
MOVL P00115 V=0000.9135198  +MOVL P00235 V=0000.9135198
MOVL P00116 V=0000.7961867  +MOVL P00236 V=0000.7961867
MOVL P00117 V=0000.6921916  +MOVL P00237 V=0000.6921916
MOVL P00118 V=0000.6002778  +MOVL P00238 V=0000.6002778
MOVL P00119 V=0000.5192693  +MOVL P00239 V=0000.5192693
MOVL P00120 V=0000.5192693  +MOVL P00240 V=0000.5192693
END
