/JOB
//NAME GAUSSIANMOVING2
//POS
///NPOS 0,0,0,61,0,0
///TOOL 0
///POSTYPE ROBOT
///RECTAN
///RCONF 0,0,0,0,0,0,0,0,0,0,0,0,0,0,0,0,0,0,0,0,0,0,0,0
P00000=10.000,0.000,0.000,0.0000,0.0000,0.0000
///POSTYPE BASE
P00001=0368.28731211,0004.10604965,0538.85800000,-0000.57780000,-0000.47430000,-0050.70270000,
P00002=0368.32717898,0004.09536736,0538.85800000,-0000.57780000,-0000.47430000,-0050.70270000,
P00003=0368.38044531,0004.08109469,0538.85800000,-0000.57780000,-0000.47430000,-0050.70270000,
P00004=0368.45090716,0004.06221449,0538.85800000,-0000.57780000,-0000.47430000,-0050.70270000,
P00005=0368.54318895,0004.03748766,0538.85800000,-0000.57780000,-0000.47430000,-0050.70270000,
P00006=0368.66284609,0004.00542563,0538.85800000,-0000.57780000,-0000.47430000,-0050.70270000,
P00007=0368.81645693,0003.96426573,0538.85800000,-0000.57780000,-0000.47430000,-0050.70270000,
P00008=0369.01169559,0003.91195169,0538.85800000,-0000.57780000,-0000.47430000,-0050.70270000,
P00009=0369.25737592,0003.84612184,0538.85800000,-0000.57780000,-0000.47430000,-0050.70270000,
P00010=0369.56345642,0003.76410782,0538.85800000,-0000.57780000,-0000.47430000,-0050.70270000,
P00011=0369.94099520,0003.66294661,0538.85800000,-0000.57780000,-0000.47430000,-0050.70270000,
P00012=0370.40204534,0003.53940859,0538.85800000,-0000.57780000,-0000.47430000,-0050.70270000,
P00013=0370.95948185,0003.39004393,0538.85800000,-0000.57780000,-0000.47430000,-0050.70270000,
P00014=0371.62675452,0003.21124876,0538.85800000,-0000.57780000,-0000.47430000,-0050.70270000,
P00015=0372.41756409,0002.99935197,0538.85800000,-0000.57780000,-0000.47430000,-0050.70270000,
P00016=0373.34546409,0002.75072192,0538.85800000,-0000.57780000,-0000.47430000,-0050.70270000,
P00017=0374.42339542,0002.46189109,0538.85800000,-0000.57780000,-0000.47430000,-0050.70270000,
P00018=0375.66316704,0002.12969528,0538.85800000,-0000.57780000,-0000.47430000,-0050.70270000,
P00019=0377.07490130,0001.75142223,0538.85800000,-0000.57780000,-0000.47430000,-0050.70270000,
P00020=0378.66646816,0001.32496317,0538.85800000,-0000.57780000,-0000.47430000,-0050.70270000,
P00021=0380.44293658,0000.84895989,0538.85800000,-0000.57780000,-0000.47430000,-0050.70270000,
P00022=0382.40607429,0000.32293873,0538.85800000,-0000.57780000,-0000.47430000,-0050.70270000,
P00023=0384.55392807,-0000.25257696,0538.85800000,-0000.57780000,-0000.47430000,-0050.70270000,
P00024=0386.88051526,-0000.87598411,0538.85800000,-0000.57780000,-0000.47430000,-0050.70270000,
P00025=0389.37565355,-0001.54455440,0538.85800000,-0000.57780000,-0000.47430000,-0050.70270000,
P00026=0392.02495016,-0002.25443129,0538.85800000,-0000.57780000,-0000.47430000,-0050.70270000,
P00027=0394.80996312,-0003.00067326,0538.85800000,-0000.57780000,-0000.47430000,-0050.70270000,
P00028=0397.70853802,-0003.77734407,0538.85800000,-0000.57780000,-0000.47430000,-0050.70270000,
P00029=0400.69531303,-0004.57764802,0538.85800000,-0000.57780000,-0000.47430000,-0050.70270000,
P00030=0403.74237412,-0005.39410558,0538.85800000,-0000.57780000,-0000.47430000,-0050.70270000,
P00031=0406.82003305,-0006.21876180,0538.85800000,-0000.57780000,-0000.47430000,-0050.70270000,
P00032=0409.89769198,-0007.04341803,0538.85800000,-0000.57780000,-0000.47430000,-0050.70270000,
P00033=0412.94475308,-0007.85987559,0538.85800000,-0000.57780000,-0000.47430000,-0050.70270000,
P00034=0415.93152808,-0008.66017954,0538.85800000,-0000.57780000,-0000.47430000,-0050.70270000,
P00035=0418.83010299,-0009.43685034,0538.85800000,-0000.57780000,-0000.47430000,-0050.70270000,
P00036=0421.61511594,-0010.18309232,0538.85800000,-0000.57780000,-0000.47430000,-0050.70270000,
P00037=0424.26441255,-0010.89296920,0538.85800000,-0000.57780000,-0000.47430000,-0050.70270000,
P00038=0426.75955085,-0011.56153949,0538.85800000,-0000.57780000,-0000.47430000,-0050.70270000,
P00039=0429.08613803,-0012.18494665,0538.85800000,-0000.57780000,-0000.47430000,-0050.70270000,
P00040=0431.23399181,-0012.76046234,0538.85800000,-0000.57780000,-0000.47430000,-0050.70270000,
P00041=0433.19712952,-0013.28648350,0538.85800000,-0000.57780000,-0000.47430000,-0050.70270000,
P00042=0434.97359794,-0013.76248678,0538.85800000,-0000.57780000,-0000.47430000,-0050.70270000,
P00043=0436.56516480,-0014.18894583,0538.85800000,-0000.57780000,-0000.47430000,-0050.70270000,
P00044=0437.97689906,-0014.56721889,0538.85800000,-0000.57780000,-0000.47430000,-0050.70270000,
P00045=0439.21667068,-0014.89941469,0538.85800000,-0000.57780000,-0000.47430000,-0050.70270000,
P00046=0440.29460202,-0015.18824553,0538.85800000,-0000.57780000,-0000.47430000,-0050.70270000,
P00047=0441.22250201,-0015.43687558,0538.85800000,-0000.57780000,-0000.47430000,-0050.70270000,
P00048=0442.01331159,-0015.64877237,0538.85800000,-0000.57780000,-0000.47430000,-0050.70270000,
P00049=0442.68058425,-0015.82756754,0538.85800000,-0000.57780000,-0000.47430000,-0050.70270000,
P00050=0443.23802076,-0015.97693220,0538.85800000,-0000.57780000,-0000.47430000,-0050.70270000,
P00051=0443.69907090,-0016.10047021,0538.85800000,-0000.57780000,-0000.47430000,-0050.70270000,
P00052=0444.07660969,-0016.20163143,0538.85800000,-0000.57780000,-0000.47430000,-0050.70270000,
P00053=0444.38269018,-0016.28364545,0538.85800000,-0000.57780000,-0000.47430000,-0050.70270000,
P00054=0444.62837052,-0016.34947529,0538.85800000,-0000.57780000,-0000.47430000,-0050.70270000,
P00055=0444.82360917,-0016.40178933,0538.85800000,-0000.57780000,-0000.47430000,-0050.70270000,
P00056=0444.97722001,-0016.44294924,0538.85800000,-0000.57780000,-0000.47430000,-0050.70270000,
P00057=0445.09687715,-0016.47501127,0538.85800000,-0000.57780000,-0000.47430000,-0050.70270000,
P00058=0445.18915894,-0016.49973810,0538.85800000,-0000.57780000,-0000.47430000,-0050.70270000,
P00059=0445.25962079,-0016.51861830,0538.85800000,-0000.57780000,-0000.47430000,-0050.70270000,
P00060=0445.31288712,-0016.53289097,0538.85800000,-0000.57780000,-0000.47430000,-0050.70270000,
//INST
///DATE 2017/03/31 08:11
///ATTR SC,RW
///GROUP1 RB1
NOP
MOVL P00001 V=0002.5795763
MOVL P00002 V=0003.4465852
MOVL P00003 V=0004.5592174
MOVL P00004 V=0005.9710711
MOVL P00005 V=0007.7423865
MOVL P00006 V=0009.9393530
MOVL P00007 V=0012.6328705
MOVL P00008 V=0015.8966875
MOVL P00009 V=0019.8048652
MOVL P00010 V=0024.4285569
MOVL P00011 V=0029.8321393
MOVL P00012 V=0036.0687965
MOVL P00013 V=0043.1757182
MOVL P00014 V=0051.1691447
MOVL P00015 V=0060.0395478
MOVL P00016 V=0069.7472898
MOVL P00017 V=0080.2191268
MOVL P00018 V=0091.3459282
MOVL P00019 V=0102.9819536
MOVL P00020 V=0114.9459649
MOVL P00021 V=0127.0243571
MOVL P00022 V=0138.9763662
MOVL P00023 V=0150.5412682
MOVL P00024 V=0161.4473276
MOVL P00025 V=0171.4221049
MOVL P00026 V=0180.2035983
MOVL P00027 V=0187.5515971
MOVL P00028 V=0193.2585637
MOVL P00029 V=0197.1593608
MOVL P00030 V=0199.1391864
MOVL P00031 V=0199.1391864
MOVL P00032 V=0197.1593608
MOVL P00033 V=0193.2585637
MOVL P00034 V=0187.5515971
MOVL P00035 V=0180.2035983
MOVL P00036 V=0171.4221049
MOVL P00037 V=0161.4473276
MOVL P00038 V=0150.5412682
MOVL P00039 V=0138.9763662
MOVL P00040 V=0127.0243571
MOVL P00041 V=0114.9459649
MOVL P00042 V=0102.9819536
MOVL P00043 V=0091.3459282
MOVL P00044 V=0080.2191268
MOVL P00045 V=0069.7472898
MOVL P00046 V=0060.0395478
MOVL P00047 V=0051.1691447
MOVL P00048 V=0043.1757182
MOVL P00049 V=0036.0687965
MOVL P00050 V=0029.8321393
MOVL P00051 V=0024.4285569
MOVL P00052 V=0019.8048652
MOVL P00053 V=0015.8966875
MOVL P00054 V=0012.6328705
MOVL P00055 V=0009.9393530
MOVL P00056 V=0007.7423865
MOVL P00057 V=0005.9710711
MOVL P00058 V=0004.5592174
MOVL P00059 V=0003.4465852
MOVL P00060 V=0003.4465852
END
