/JOB
//NAME GAUSSIANMOVING2
//POS
///NPOS 0,0,0,61,0,0
///TOOL 0
///POSTYPE ROBOT
///RECTAN
///RCONF 0,0,0,0,0,0,0,0,0,0,0,0,0,0,0,0,0,0,0,0,0,0,0,0
P00000=10.000,0.000,0.000,0.0000,0.0000,0.0000
///POSTYPE BASE
P00001=0237.81216235,-0002.92859905,273.306,-178.8807,-3.0241,-161.3872
P00002=0237.96586410,-0002.94679085,273.306,-178.8807,-3.0241,-161.3872
P00003=0238.17122580,-0002.97109701,273.306,-178.8807,-3.0241,-161.3872
P00004=0238.44288270,-0003.00324972,273.306,-178.8807,-3.0241,-161.3872
P00005=0238.79866364,-0003.04535917,273.306,-178.8807,-3.0241,-161.3872
P00006=0239.25998683,-0003.09996037,273.306,-178.8807,-3.0241,-161.3872
P00007=0239.85221431,-0003.17005511,273.306,-178.8807,-3.0241,-161.3872
P00008=0240.60493262,-0003.25914519,273.306,-178.8807,-3.0241,-161.3872
P00009=0241.55212255,-0003.37125251,273.306,-178.8807,-3.0241,-161.3872
P00010=0242.73217777,-0003.51092125,273.306,-178.8807,-3.0241,-161.3872
P00011=0244.18773153,-0003.68319739,273.306,-178.8807,-3.0241,-161.3872
P00012=0245.96525292,-0003.89358091,273.306,-178.8807,-3.0241,-161.3872
P00013=0248.11437997,-0004.14794686,273.306,-178.8807,-3.0241,-161.3872
P00014=0250.68696660,-0004.45243255,273.306,-178.8807,-3.0241,-161.3872
P00015=0253.73583442,-0004.81328984,273.306,-178.8807,-3.0241,-161.3872
P00016=0257.31323728,-0005.23670337,273.306,-178.8807,-3.0241,-161.3872
P00017=0261.46906729,-0005.72857827,273.306,-178.8807,-3.0241,-161.3872
P00018=0266.24885236,-0006.29430311,273.306,-178.8807,-3.0241,-161.3872
P00019=0271.69161795,-0006.93849687,273.306,-178.8807,-3.0241,-161.3872
P00020=0277.82770574,-0007.66475072,273.306,-178.8807,-3.0241,-161.3872
P00021=0284.67665846,-0008.47537769,273.306,-178.8807,-3.0241,-161.3872
P00022=0292.24529140,-0009.37118443,273.306,-178.8807,-3.0241,-161.3872
P00023=0300.52607413,-0010.35127966,273.306,-178.8807,-3.0241,-161.3872
P00024=0309.49594123,-0011.41293339,273.306,-178.8807,-3.0241,-161.3872
P00025=0319.11563614,-0012.55149931,273.306,-178.8807,-3.0241,-161.3872
P00026=0329.32966925,-0013.76040980,273.306,-178.8807,-3.0241,-161.3872
P00027=0340.06693981,-0015.03124951,273.306,-178.8807,-3.0241,-161.3872
P00028=0351.24203432,-0016.35390911,273.306,-178.8807,-3.0241,-161.3872
P00029=0362.75717334,-0017.71681563,273.306,-178.8807,-3.0241,-161.3872
P00030=0374.50473787,-0019.10723152,273.306,-178.8807,-3.0241,-161.3872
P00031=0386.37026854,-0020.51160962,273.306,-178.8807,-3.0241,-161.3872
P00032=0398.23579922,-0021.91598772,273.306,-178.8807,-3.0241,-161.3872
P00033=0409.98336375,-0023.30640361,273.306,-178.8807,-3.0241,-161.3872
P00034=0421.49850277,-0024.66931013,273.306,-178.8807,-3.0241,-161.3872
P00035=0432.67359728,-0025.99196972,273.306,-178.8807,-3.0241,-161.3872
P00036=0443.41086784,-0027.26280944,273.306,-178.8807,-3.0241,-161.3872
P00037=0453.62490095,-0028.47171993,273.306,-178.8807,-3.0241,-161.3872
P00038=0463.24459586,-0029.61028585,273.306,-178.8807,-3.0241,-161.3872
P00039=0472.21446296,-0030.67193958,273.306,-178.8807,-3.0241,-161.3872
P00040=0480.49524569,-0031.65203480,273.306,-178.8807,-3.0241,-161.3872
P00041=0488.06387862,-0032.54784155,273.306,-178.8807,-3.0241,-161.3872
P00042=0494.91283134,-0033.35846852,273.306,-178.8807,-3.0241,-161.3872
P00043=0501.04891913,-0034.08472237,273.306,-178.8807,-3.0241,-161.3872
P00044=0506.49168473,-0034.72891613,273.306,-178.8807,-3.0241,-161.3872
P00045=0511.27146979,-0035.29464097,273.306,-178.8807,-3.0241,-161.3872
P00046=0515.42729980,-0035.78651587,273.306,-178.8807,-3.0241,-161.3872
P00047=0519.00470267,-0036.20992940,273.306,-178.8807,-3.0241,-161.3872
P00048=0522.05357049,-0036.57078668,273.306,-178.8807,-3.0241,-161.3872
P00049=0524.62615712,-0036.87527238,273.306,-178.8807,-3.0241,-161.3872
P00050=0526.77528416,-0037.12963833,273.306,-178.8807,-3.0241,-161.3872
P00051=0528.55280556,-0037.34002185,273.306,-178.8807,-3.0241,-161.3872
P00052=0530.00835932,-0037.51229799,273.306,-178.8807,-3.0241,-161.3872
P00053=0531.18841454,-0037.65196673,273.306,-178.8807,-3.0241,-161.3872
P00054=0532.13560447,-0037.76407404,273.306,-178.8807,-3.0241,-161.3872
P00055=0532.88832278,-0037.85316413,273.306,-178.8807,-3.0241,-161.3872
P00056=0533.48055026,-0037.92325887,273.306,-178.8807,-3.0241,-161.3872
P00057=0533.94187345,-0037.97786006,273.306,-178.8807,-3.0241,-161.3872
P00058=0534.29765439,-0038.01996951,273.306,-178.8807,-3.0241,-161.3872
P00059=0534.56931129,-0038.05212223,273.306,-178.8807,-3.0241,-161.3872
P00060=0534.77467299,-0038.07642839,273.306,-178.8807,-3.0241,-161.3872
//INST
///DATE 2017/03/31 08:11
///ATTR SC,RW
///GROUP1 RB1
NOP
MOVL P00001 V=0009.6734113
MOVL P00002 V=0012.9246943
MOVL P00003 V=0017.0970651
MOVL P00004 V=0022.3915166
MOVL P00005 V=0029.0339494
MOVL P00006 V=0037.2725737
MOVL P00007 V=0047.3732643
MOVL P00008 V=0059.6125780
MOVL P00009 V=0074.2682447
MOVL P00010 V=0091.6070885
MOVL P00011 V=0111.8705225
MOVL P00012 V=0135.2579868
MOVL P00013 V=0161.9089434
MOVL P00014 V=0191.8842926
MOVL P00015 V=0225.1483044
MOVL P00016 V=0261.5523368
MOVL P00017 V=0300.8217253
MOVL P00018 V=0342.5472307
MOVL P00019 V=0386.1823261
MOVL P00020 V=0431.0473685
MOVL P00021 V=0476.3413390
MOVL P00022 V=0521.1613732
MOVL P00023 V=0564.5297557
MOVL P00024 V=0605.4274786
MOVL P00025 V=0642.8328933
MOVL P00026 V=0675.7634937
MOVL P00027 V=0703.3184892
MOVL P00028 V=0724.7196141
MOVL P00029 V=0739.3476030
MOVL P00030 V=0746.7719489
MOVL P00031 V=0746.7719489
MOVL P00032 V=0739.3476030
MOVL P00033 V=0724.7196141
MOVL P00034 V=0703.3184892
MOVL P00035 V=0675.7634937
MOVL P00036 V=0642.8328933
MOVL P00037 V=0605.4274786
MOVL P00038 V=0564.5297557
MOVL P00039 V=0521.1613732
MOVL P00040 V=0476.3413390
MOVL P00041 V=0431.0473685
MOVL P00042 V=0386.1823261
MOVL P00043 V=0342.5472307
MOVL P00044 V=0300.8217253
MOVL P00045 V=0261.5523368
MOVL P00046 V=0225.1483044
MOVL P00047 V=0191.8842926
MOVL P00048 V=0161.9089434
MOVL P00049 V=0135.2579868
MOVL P00050 V=0111.8705225
MOVL P00051 V=0091.6070885
MOVL P00052 V=0074.2682447
MOVL P00053 V=0059.6125780
MOVL P00054 V=0047.3732643
MOVL P00055 V=0037.2725737
MOVL P00056 V=0029.0339494
MOVL P00057 V=0022.3915166
MOVL P00058 V=0017.0970651
MOVL P00059 V=0012.9246943
MOVL P00060 V=0012.9246943
END
