/JOB
//NAME GAUSSIANMOVING2
//POS
///NPOS 0,0,0,61,0,0
///TOOL 0
///POSTYPE ROBOT
///RECTAN
///RCONF 0,0,0,0,0,0,0,0,0,0,0,0,0,0,0,0,0,0,0,0,0,0,0,0
P00000=10.000,0.000,0.000,0.0000,0.0000,0.0000
///POSTYPE BASE
///TOOL0
P00001=0337.68372214,-0112.37324307,0483.09500000,0000.00000000,0000.00400000,0180.00000000,
P00002=0337.63891653,-0112.29563748,0483.09500000,0000.00000000,0000.00400000,0180.00000000,
P00003=0337.57964670,-0112.19297913,0483.09500000,0000.00000000,0000.00400000,0180.00000000,
P00004=0337.50202278,-0112.05853055,0483.09500000,0000.00000000,0000.00400000,0180.00000000,
P00005=0337.40137175,-0111.88419786,0483.09500000,0000.00000000,0000.00400000,0180.00000000,
P00006=0337.27216016,-0111.66039683,0483.09500000,0000.00000000,0000.00400000,0180.00000000,
P00007=0337.10793285,-0111.37594677,0483.09500000,0000.00000000,0000.00400000,0180.00000000,
P00008=0336.90127591,-0111.01800645,0483.09500000,0000.00000000,0000.00400000,0180.00000000,
P00009=0336.64381266,-0110.57206703,0483.09500000,0000.00000000,0000.00400000,0180.00000000,
P00010=0336.32624142,-0110.02201751,0483.09500000,0000.00000000,0000.00400000,0180.00000000,
P00011=0335.93842361,-0109.35029735,0483.09500000,0000.00000000,0000.00400000,0180.00000000,
P00012=0335.46952926,-0108.53814851,0483.09500000,0000.00000000,0000.00400000,0180.00000000,
P00013=0334.90824492,-0107.56597552,0483.09500000,0000.00000000,0000.00400000,0180.00000000,
P00014=0334.24304604,-0106.41381726,0483.09500000,0000.00000000,0000.00400000,0180.00000000,
P00015=0333.46253192,-0105.06192714,0483.09500000,0000.00000000,0000.00400000,0180.00000000,
P00016=0332.55581715,-0103.49145110,0483.09500000,0000.00000000,0000.00400000,0180.00000000,
P00017=0331.51296850,-0101.68518425,0483.09500000,0000.00000000,0000.00400000,0180.00000000,
P00018=0330.32547144,-0099.62837900,0483.09500000,0000.00000000,0000.00400000,0180.00000000,
P00019=0328.98670604,-0097.30956931,0483.09500000,0000.00000000,0000.00400000,0180.00000000,
P00020=0327.49240849,-0094.72137005,0483.09500000,0000.00000000,0000.00400000,0180.00000000,
P00021=0325.84109185,-0091.86120572,0483.09500000,0000.00000000,0000.00400000,0180.00000000,
P00022=0324.03439909,-0088.73192207,0483.09500000,0000.00000000,0000.00400000,0180.00000000,
P00023=0322.07736261,-0085.34223544,0483.09500000,0000.00000000,0000.00400000,0180.00000000,
P00024=0319.97854735,-0081.70698078,0483.09500000,0000.00000000,0000.00400000,0180.00000000,
P00025=0317.75005998,-0077.84712744,0483.09500000,0000.00000000,0000.00400000,0180.00000000,
P00026=0315.40741320,-0073.78954420,0483.09500000,0000.00000000,0000.00400000,0180.00000000,
P00027=0312.96924244,-0069.56650856,0483.09500000,0000.00000000,0000.00400000,0180.00000000,
P00028=0310.45688111,-0065.21497109,0483.09500000,0000.00000000,0000.00400000,0180.00000000,
P00029=0307.89380942,-0060.77560070,0483.09500000,0000.00000000,0000.00400000,0180.00000000,
P00030=0305.30500000,-0056.29165125,0483.09500000,0000.00000000,0000.00400000,0180.00000000,
P00031=0302.71619058,-0051.80770179,0483.09500000,0000.00000000,0000.00400000,0180.00000000,
P00032=0300.15311889,-0047.36833140,0483.09500000,0000.00000000,0000.00400000,0180.00000000,
P00033=0297.64075756,-0043.01679393,0483.09500000,0000.00000000,0000.00400000,0180.00000000,
P00034=0295.20258680,-0038.79375830,0483.09500000,0000.00000000,0000.00400000,0180.00000000,
P00035=0292.85994002,-0034.73617505,0483.09500000,0000.00000000,0000.00400000,0180.00000000,
P00036=0290.63145265,-0030.87632172,0483.09500000,0000.00000000,0000.00400000,0180.00000000,
P00037=0288.53263739,-0027.24106705,0483.09500000,0000.00000000,0000.00400000,0180.00000000,
P00038=0286.57560091,-0023.85138042,0483.09500000,0000.00000000,0000.00400000,0180.00000000,
P00039=0284.76890815,-0020.72209677,0483.09500000,0000.00000000,0000.00400000,0180.00000000,
P00040=0283.11759151,-0017.86193245,0483.09500000,0000.00000000,0000.00400000,0180.00000000,
P00041=0281.62329396,-0015.27373318,0483.09500000,0000.00000000,0000.00400000,0180.00000000,
P00042=0280.28452856,-0012.95492349,0483.09500000,0000.00000000,0000.00400000,0180.00000000,
P00043=0279.09703150,-0010.89811824,0483.09500000,0000.00000000,0000.00400000,0180.00000000,
P00044=0278.05418285,-0009.09185139,0483.09500000,0000.00000000,0000.00400000,0180.00000000,
P00045=0277.14746808,-0007.52137535,0483.09500000,0000.00000000,0000.00400000,0180.00000000,
P00046=0276.36695396,-0006.16948523,0483.09500000,0000.00000000,0000.00400000,0180.00000000,
P00047=0275.70175508,-0005.01732697,0483.09500000,0000.00000000,0000.00400000,0180.00000000,
P00048=0275.14047074,-0004.04515399,0483.09500000,0000.00000000,0000.00400000,0180.00000000,
P00049=0274.67157639,-0003.23300514,0483.09500000,0000.00000000,0000.00400000,0180.00000000,
P00050=0274.28375858,-0002.56128499,0483.09500000,0000.00000000,0000.00400000,0180.00000000,
P00051=0273.96618734,-0002.01123546,0483.09500000,0000.00000000,0000.00400000,0180.00000000,
P00052=0273.70872409,-0001.56529604,0483.09500000,0000.00000000,0000.00400000,0180.00000000,
P00053=0273.50206715,-0001.20735572,0483.09500000,0000.00000000,0000.00400000,0180.00000000,
P00054=0273.33783984,-0000.92290567,0483.09500000,0000.00000000,0000.00400000,0180.00000000,
P00055=0273.20862825,-0000.69910463,0483.09500000,0000.00000000,0000.00400000,0180.00000000,
P00056=0273.10797722,-0000.52477194,0483.09500000,0000.00000000,0000.00400000,0180.00000000,
P00057=0273.03035330,-0000.39032336,0483.09500000,0000.00000000,0000.00400000,0180.00000000,
P00058=0272.97108347,-0000.28766501,0483.09500000,0000.00000000,0000.00400000,0180.00000000,
P00059=0272.92627786,-0000.21005942,0483.09500000,0000.00000000,0000.00400000,0180.00000000,
P00060=0272.89274337,-0000.15197598,0483.09500000,0000.00000000,0000.00400000,0180.00000000,
//INST
///DATE 2017/03/31 08:11
///ATTR SC,RW
///GROUP1 RB1
NOP
MOVL P00001 V=0005.6007009
MOVL P00002 V=0007.4087282
MOVL P00003 V=0009.7029905
MOVL P00004 V=0012.5813781
MOVL P00005 V=0016.1514486
MOVL P00006 V=0020.5284145
MOVL P00007 V=0025.8321171
MOVL P00008 V=0032.1829060
MOVL P00009 V=0039.6964050
MOVL P00010 V=0048.4772264
MOVL P00011 V=0058.6117943
MOVL P00012 V=0070.1605421
MOVL P00013 V=0083.1498601
MOVL P00014 V=0097.5642653
MOVL P00015 V=0113.3393460
MOVL P00016 V=0130.3560810
MOVL P00017 V=0148.4371333
MOVL P00018 V=0167.3456746
MOVL P00019 V=0186.7871930
MOVL P00020 V=0206.4145802
MOVL P00021 V=0225.8365950
MOVL P00022 V=0244.6295608
MOVL P00023 V=0262.3519074
MOVL P00024 V=0278.5609204
MOVL P00025 V=0292.8308473
MOVL P00026 V=0304.7713453
MOVL P00027 V=0314.0451661
MOVL P00028 V=0320.3839613
MOVL P00029 V=0323.6011779
MOVL P00030 V=0323.6011779
MOVL P00031 V=0320.3839613
MOVL P00032 V=0314.0451661
MOVL P00033 V=0304.7713453
MOVL P00034 V=0292.8308473
MOVL P00035 V=0278.5609204
MOVL P00036 V=0262.3519074
MOVL P00037 V=0244.6295608
MOVL P00038 V=0225.8365950
MOVL P00039 V=0206.4145802
MOVL P00040 V=0186.7871930
MOVL P00041 V=0167.3456746
MOVL P00042 V=0148.4371333
MOVL P00043 V=0130.3560810
MOVL P00044 V=0113.3393460
MOVL P00045 V=0097.5642653
MOVL P00046 V=0083.1498601
MOVL P00047 V=0070.1605421
MOVL P00048 V=0058.6117943
MOVL P00049 V=0048.4772264
MOVL P00050 V=0039.6964050
MOVL P00051 V=0032.1829060
MOVL P00052 V=0025.8321171
MOVL P00053 V=0020.5284145
MOVL P00054 V=0016.1514486
MOVL P00055 V=0012.5813781
MOVL P00056 V=0009.7029905
MOVL P00057 V=0007.4087282
MOVL P00058 V=0005.6007009
MOVL P00059 V=0004.1918116
MOVL P00060 V=0004.1918116
END
