/JOB
//NAME GAUSSIANMOVING2
//POS
///NPOS 0,0,0,121,0,0
///TOOL 0
///POSTYPE ROBOT
///RECTAN
///RCONF 0,0,0,0,0,0,0,0,0,0,0,0,0,0,0,0,0,0,0,0,0,0,0,0
P00000=10.000,0.000,0.000,0.0000,0.0000,0.0000
///POSTYPE BASE
///TOOL0
P00001=0649.93488712,0020.66689097,0523.09500000,0000.00000000,0000.00400000,0180.00000000,
P00002=0649.88162079,0020.65261830,0523.09500000,0000.00000000,0000.00400000,0180.00000000,
P00003=0649.81115894,0020.63373810,0523.09500000,0000.00000000,0000.00400000,0180.00000000,
P00004=0649.71887715,0020.60901127,0523.09500000,0000.00000000,0000.00400000,0180.00000000,
P00005=0649.59922001,0020.57694924,0523.09500000,0000.00000000,0000.00400000,0180.00000000,
P00006=0649.44560917,0020.53578933,0523.09500000,0000.00000000,0000.00400000,0180.00000000,
P00007=0649.25037052,0020.48347529,0523.09500000,0000.00000000,0000.00400000,0180.00000000,
P00008=0649.00469018,0020.41764545,0523.09500000,0000.00000000,0000.00400000,0180.00000000,
P00009=0648.69860969,0020.33563143,0523.09500000,0000.00000000,0000.00400000,0180.00000000,
P00010=0648.32107090,0020.23447021,0523.09500000,0000.00000000,0000.00400000,0180.00000000,
P00011=0647.86002076,0020.11093220,0523.09500000,0000.00000000,0000.00400000,0180.00000000,
P00012=0647.30258425,0019.96156754,0523.09500000,0000.00000000,0000.00400000,0180.00000000,
P00013=0646.63531159,0019.78277237,0523.09500000,0000.00000000,0000.00400000,0180.00000000,
P00014=0645.84450201,0019.57087558,0523.09500000,0000.00000000,0000.00400000,0180.00000000,
P00015=0644.91660202,0019.32224553,0523.09500000,0000.00000000,0000.00400000,0180.00000000,
P00016=0643.83867068,0019.03341469,0523.09500000,0000.00000000,0000.00400000,0180.00000000,
P00017=0642.59889906,0018.70121889,0523.09500000,0000.00000000,0000.00400000,0180.00000000,
P00018=0641.18716480,0018.32294583,0523.09500000,0000.00000000,0000.00400000,0180.00000000,
P00019=0639.59559794,0017.89648678,0523.09500000,0000.00000000,0000.00400000,0180.00000000,
P00020=0637.81912952,0017.42048350,0523.09500000,0000.00000000,0000.00400000,0180.00000000,
P00021=0635.85599181,0016.89446234,0523.09500000,0000.00000000,0000.00400000,0180.00000000,
P00022=0633.70813803,0016.31894665,0523.09500000,0000.00000000,0000.00400000,0180.00000000,
P00023=0631.38155085,0015.69553949,0523.09500000,0000.00000000,0000.00400000,0180.00000000,
P00024=0628.88641255,0015.02696920,0523.09500000,0000.00000000,0000.00400000,0180.00000000,
P00025=0626.23711594,0014.31709232,0523.09500000,0000.00000000,0000.00400000,0180.00000000,
P00026=0623.45210299,0013.57085034,0523.09500000,0000.00000000,0000.00400000,0180.00000000,
P00027=0620.55352808,0012.79417954,0523.09500000,0000.00000000,0000.00400000,0180.00000000,
P00028=0617.56675308,0011.99387559,0523.09500000,0000.00000000,0000.00400000,0180.00000000,
P00029=0614.51969198,0011.17741803,0523.09500000,0000.00000000,0000.00400000,0180.00000000,
P00030=0611.44203305,0010.35276180,0523.09500000,0000.00000000,0000.00400000,0180.00000000,
P00031=0608.36437412,0009.52810558,0523.09500000,0000.00000000,0000.00400000,0180.00000000,
P00032=0605.31731303,0008.71164802,0523.09500000,0000.00000000,0000.00400000,0180.00000000,
P00033=0602.33053802,0007.91134407,0523.09500000,0000.00000000,0000.00400000,0180.00000000,
P00034=0599.43196312,0007.13467326,0523.09500000,0000.00000000,0000.00400000,0180.00000000,
P00035=0596.64695016,0006.38843129,0523.09500000,0000.00000000,0000.00400000,0180.00000000,
P00036=0593.99765355,0005.67855440,0523.09500000,0000.00000000,0000.00400000,0180.00000000,
P00037=0591.50251526,0005.00998411,0523.09500000,0000.00000000,0000.00400000,0180.00000000,
P00038=0589.17592807,0004.38657696,0523.09500000,0000.00000000,0000.00400000,0180.00000000,
P00039=0587.02807429,0003.81106127,0523.09500000,0000.00000000,0000.00400000,0180.00000000,
P00040=0585.06493658,0003.28504011,0523.09500000,0000.00000000,0000.00400000,0180.00000000,
P00041=0583.28846816,0002.80903683,0523.09500000,0000.00000000,0000.00400000,0180.00000000,
P00042=0581.69690130,0002.38257777,0523.09500000,0000.00000000,0000.00400000,0180.00000000,
P00043=0580.28516704,0002.00430472,0523.09500000,0000.00000000,0000.00400000,0180.00000000,
P00044=0579.04539542,0001.67210891,0523.09500000,0000.00000000,0000.00400000,0180.00000000,
P00045=0577.96746409,0001.38327808,0523.09500000,0000.00000000,0000.00400000,0180.00000000,
P00046=0577.03956409,0001.13464803,0523.09500000,0000.00000000,0000.00400000,0180.00000000,
P00047=0576.24875452,0000.92275124,0523.09500000,0000.00000000,0000.00400000,0180.00000000,
P00048=0575.58148185,0000.74395607,0523.09500000,0000.00000000,0000.00400000,0180.00000000,
P00049=0575.02404534,0000.59459141,0523.09500000,0000.00000000,0000.00400000,0180.00000000,
P00050=0574.56299520,0000.47105339,0523.09500000,0000.00000000,0000.00400000,0180.00000000,
P00051=0574.18545642,0000.36989218,0523.09500000,0000.00000000,0000.00400000,0180.00000000,
P00052=0573.87937592,0000.28787816,0523.09500000,0000.00000000,0000.00400000,0180.00000000,
P00053=0573.63369559,0000.22204831,0523.09500000,0000.00000000,0000.00400000,0180.00000000,
P00054=0573.43845693,0000.16973427,0523.09500000,0000.00000000,0000.00400000,0180.00000000,
P00055=0573.28484609,0000.12857437,0523.09500000,0000.00000000,0000.00400000,0180.00000000,
P00056=0573.16518895,0000.09651234,0523.09500000,0000.00000000,0000.00400000,0180.00000000,
P00057=0573.07290716,0000.07178551,0523.09500000,0000.00000000,0000.00400000,0180.00000000,
P00058=0573.00244531,0000.05290531,0523.09500000,0000.00000000,0000.00400000,0180.00000000,
P00059=0572.94917898,0000.03863264,0523.09500000,0000.00000000,0000.00400000,0180.00000000,
P00060=0572.90931211,0000.02795035,0523.09500000,0000.00000000,0000.00400000,0180.00000000,
///TOOL1
P00061=0672.11300834,0013.70744085,0908.48000000,0180.00000000,0000.00000000,0000.00000000
P00062=0672.11467753,0013.69797442,0908.48000000,0180.00000000,0000.00000000,0000.00000000
P00063=0672.11688557,0013.68545201,0908.48000000,0180.00000000,0000.00000000,0000.00000000
P00064=0672.11977737,0013.66905179,0908.48000000,0180.00000000,0000.00000000,0000.00000000
P00065=0672.12352702,0013.64778646,0908.48000000,0180.00000000,0000.00000000,0000.00000000
P00066=0672.12834067,0013.62048690,0908.48000000,0180.00000000,0000.00000000,0000.00000000
P00067=0672.13445879,0013.58578930,0908.48000000,0180.00000000,0000.00000000,0000.00000000
P00068=0672.14215759,0013.54212725,0908.48000000,0180.00000000,0000.00000000,0000.00000000
P00069=0672.15174912,0013.48773095,0908.48000000,0180.00000000,0000.00000000,0000.00000000
P00070=0672.16357992,0013.42063517,0908.48000000,0180.00000000,0000.00000000,0000.00000000
P00071=0672.17802769,0013.33869783,0908.48000000,0180.00000000,0000.00000000,0000.00000000
P00072=0672.19549587,0013.23963081,0908.48000000,0180.00000000,0000.00000000,0000.00000000
P00073=0672.21640596,0013.12104383,0908.48000000,0180.00000000,0000.00000000,0000.00000000
P00074=0672.24118727,0012.98050200,0908.48000000,0180.00000000,0000.00000000,0000.00000000
P00075=0672.27026454,0012.81559661,0908.48000000,0180.00000000,0000.00000000,0000.00000000
P00076=0672.30404329,0012.62402780,0908.48000000,0180.00000000,0000.00000000,0000.00000000
P00077=0672.34289357,0012.40369692,0908.48000000,0180.00000000,0000.00000000,0000.00000000
P00078=0672.38713258,0012.15280502,0908.48000000,0180.00000000,0000.00000000,0000.00000000
P00079=0672.43700694,0011.86995347,0908.48000000,0180.00000000,0000.00000000,0000.00000000
P00080=0672.49267550,0011.55424140,0908.48000000,0180.00000000,0000.00000000,0000.00000000
P00081=0672.55419364,0011.20535467,0908.48000000,0180.00000000,0000.00000000,0000.00000000
P00082=0672.62150017,0010.82364040,0908.48000000,0180.00000000,0000.00000000,0000.00000000
P00083=0672.69440760,0010.41016182,0908.48000000,0180.00000000,0000.00000000,0000.00000000
P00084=0672.77259685,0009.96672852,0908.48000000,0180.00000000,0000.00000000,0000.00000000
P00085=0672.85561691,0009.49589836,0908.48000000,0180.00000000,0000.00000000,0000.00000000
P00086=0672.94288987,0009.00094885,0908.48000000,0180.00000000,0000.00000000,0000.00000000
P00087=0673.03372147,0008.48581722,0908.48000000,0180.00000000,0000.00000000,0000.00000000
P00088=0673.12731697,0007.95501077,0908.48000000,0180.00000000,0000.00000000,0000.00000000
P00089=0673.22280163,0007.41349034,0908.48000000,0180.00000000,0000.00000000,0000.00000000
P00090=0673.31924513,0006.86653209,0908.48000000,0180.00000000,0000.00000000,0000.00000000
P00091=0673.41568862,0006.31957385,0908.48000000,0180.00000000,0000.00000000,0000.00000000
P00092=0673.51117329,0005.77805342,0908.48000000,0180.00000000,0000.00000000,0000.00000000
P00093=0673.60476879,0005.24724696,0908.48000000,0180.00000000,0000.00000000,0000.00000000
P00094=0673.69560039,0004.73211534,0908.48000000,0180.00000000,0000.00000000,0000.00000000
P00095=0673.78287334,0004.23716582,0908.48000000,0180.00000000,0000.00000000,0000.00000000
P00096=0673.86589340,0003.76633567,0908.48000000,0180.00000000,0000.00000000,0000.00000000
P00097=0673.94408266,0003.32290237,0908.48000000,0180.00000000,0000.00000000,0000.00000000
P00098=0674.01699009,0002.90942379,0908.48000000,0180.00000000,0000.00000000,0000.00000000
P00099=0674.08429661,0002.52770952,0908.48000000,0180.00000000,0000.00000000,0000.00000000
P00100=0674.14581476,0002.17882279,0908.48000000,0180.00000000,0000.00000000,0000.00000000
P00101=0674.20148331,0001.86311072,0908.48000000,0180.00000000,0000.00000000,0000.00000000
P00102=0674.25135767,0001.58025917,0908.48000000,0180.00000000,0000.00000000,0000.00000000
P00103=0674.29559668,0001.32936727,0908.48000000,0180.00000000,0000.00000000,0000.00000000
P00104=0674.33444696,0001.10903638,0908.48000000,0180.00000000,0000.00000000,0000.00000000
P00105=0674.36822571,0000.91746758,0908.48000000,0180.00000000,0000.00000000,0000.00000000
P00106=0674.39730298,0000.75256219,0908.48000000,0180.00000000,0000.00000000,0000.00000000
P00107=0674.42208430,0000.61202036,0908.48000000,0180.00000000,0000.00000000,0000.00000000
P00108=0674.44299438,0000.49343338,0908.48000000,0180.00000000,0000.00000000,0000.00000000
P00109=0674.46046257,0000.39436636,0908.48000000,0180.00000000,0000.00000000,0000.00000000
P00110=0674.47491033,0000.31242902,0908.48000000,0180.00000000,0000.00000000,0000.00000000
P00111=0674.48674113,0000.24533323,0908.48000000,0180.00000000,0000.00000000,0000.00000000
P00112=0674.49633267,0000.19093694,0908.48000000,0180.00000000,0000.00000000,0000.00000000
P00113=0674.50403146,0000.14727489,0908.48000000,0180.00000000,0000.00000000,0000.00000000
P00114=0674.51014959,0000.11257729,0908.48000000,0180.00000000,0000.00000000,0000.00000000
P00115=0674.51496323,0000.08527773,0908.48000000,0180.00000000,0000.00000000,0000.00000000
P00116=0674.51871289,0000.06401239,0908.48000000,0180.00000000,0000.00000000,0000.00000000
P00117=0674.52160469,0000.04761217,0908.48000000,0180.00000000,0000.00000000,0000.00000000
P00118=0674.52381273,0000.03508977,0908.48000000,0180.00000000,0000.00000000,0000.00000000
P00119=0674.52548191,0000.02562333,0908.48000000,0180.00000000,0000.00000000,0000.00000000
P00120=0674.52673121,0000.01853824,0908.48000000,0180.00000000,0000.00000000,0000.00000000
//INST
///DATE 2017/03/31 08:11
///COMM PLAYINGTWOROBOTS
///ATTR SC,RW
///GROUP1 RB1
///GROUP2 RB2
NOP
DOUT OT#(15) ON
MOVL P00001 V=0003.4465852  +MOVL P00061 V=0000.6007794
MOVL P00002 V=0004.5592174  +MOVL P00062 V=0000.7947240
MOVL P00003 V=0005.9710711  +MOVL P00063 V=0001.0408263
MOVL P00004 V=0007.7423865  +MOVL P00064 V=0001.3495869
MOVL P00005 V=0009.9393530  +MOVL P00065 V=0001.7325434
MOVL P00006 V=0012.6328705  +MOVL P00066 V=0002.2020544
MOVL P00007 V=0015.8966875  +MOVL P00067 V=0002.7709752
MOVL P00008 V=0019.8048652  +MOVL P00068 V=0003.4522155
MOVL P00009 V=0024.4285569  +MOVL P00069 V=0004.2581780
MOVL P00010 V=0029.8321393  +MOVL P00070 V=0005.2000845
MOVL P00011 V=0036.0687965  +MOVL P00071 V=0006.2872055
MOVL P00012 V=0043.1757182  +MOVL P00072 V=0007.5260236
MOVL P00013 V=0051.1691447  +MOVL P00073 V=0008.9193696
MOVL P00014 V=0060.0395478  +MOVL P00074 V=0010.4655828
MOVL P00015 V=0069.7472898  +MOVL P00075 V=0012.1577537
MOVL P00016 V=0080.2191268  +MOVL P00076 V=0013.9831152
MOVL P00017 V=0091.3459282  +MOVL P00077 V=0015.9226444
MOVL P00018 V=0102.9819536  +MOVL P00078 V=0017.9509373
MOVL P00019 V=0114.9459649  +MOVL P00079 V=0020.0364019
MOVL P00020 V=0127.0243571  +MOVL P00080 V=0022.1418044
MOVL P00021 V=0138.9763662  +MOVL P00081 V=0024.2251768
MOVL P00022 V=0150.5412682  +MOVL P00082 V=0026.2410721
MOVL P00023 V=0161.4473276  +MOVL P00083 V=0028.1421235
MOVL P00024 V=0171.4221049  +MOVL P00084 V=0029.8808417
MOVL P00025 V=0180.2035983  +MOVL P00085 V=0031.4115569
MOVL P00026 V=0187.5515971  +MOVL P00086 V=0032.6923975
MOVL P00027 V=0193.2585637  +MOVL P00087 V=0033.6871873
MOVL P00028 V=0197.1593608  +MOVL P00088 V=0034.3671411
MOVL P00029 V=0199.1391864  +MOVL P00089 V=0034.7122474
MOVL P00030 V=0199.1391864  +MOVL P00090 V=0034.7122474
MOVL P00031 V=0197.1593608  +MOVL P00091 V=0034.3671411
MOVL P00032 V=0193.2585637  +MOVL P00092 V=0033.6871873
MOVL P00033 V=0187.5515971  +MOVL P00093 V=0032.6923975
MOVL P00034 V=0180.2035983  +MOVL P00094 V=0031.4115569
MOVL P00035 V=0171.4221049  +MOVL P00095 V=0029.8808417
MOVL P00036 V=0161.4473276  +MOVL P00096 V=0028.1421235
MOVL P00037 V=0150.5412682  +MOVL P00097 V=0026.2410721
MOVL P00038 V=0138.9763662  +MOVL P00098 V=0024.2251768
MOVL P00039 V=0127.0243571  +MOVL P00099 V=0022.1418044
MOVL P00040 V=0114.9459649  +MOVL P00100 V=0020.0364019
MOVL P00041 V=0102.9819536  +MOVL P00101 V=0017.9509373
MOVL P00042 V=0091.3459282  +MOVL P00102 V=0015.9226444
MOVL P00043 V=0080.2191268  +MOVL P00103 V=0013.9831152
MOVL P00044 V=0069.7472898  +MOVL P00104 V=0012.1577537
MOVL P00045 V=0060.0395478  +MOVL P00105 V=0010.4655828
MOVL P00046 V=0051.1691447  +MOVL P00106 V=0008.9193696
MOVL P00047 V=0043.1757182  +MOVL P00107 V=0007.5260236
MOVL P00048 V=0036.0687965  +MOVL P00108 V=0006.2872055
MOVL P00049 V=0029.8321393  +MOVL P00109 V=0005.2000845
MOVL P00050 V=0024.4285569  +MOVL P00110 V=0004.2581780
MOVL P00051 V=0019.8048652  +MOVL P00111 V=0003.4522155
MOVL P00052 V=0015.8966875  +MOVL P00112 V=0002.7709752
MOVL P00053 V=0012.6328705  +MOVL P00113 V=0002.2020544
MOVL P00054 V=0009.9393530  +MOVL P00114 V=0001.7325434
MOVL P00055 V=0007.7423865  +MOVL P00115 V=0001.3495869
MOVL P00056 V=0005.9710711  +MOVL P00116 V=0001.0408263
MOVL P00057 V=0004.5592174  +MOVL P00117 V=0000.7947240
MOVL P00058 V=0003.4465852  +MOVL P00118 V=0000.6007794
MOVL P00059 V=0002.5795763  +MOVL P00119 V=0000.4496498
MOVL P00060 V=0002.5795763  +MOVL P00120 V=0000.4496498
DOUT OT#(15) OFF
END
