/JOB
//NAME GAUSSIANMOVING2
//POS
///NPOS 0,0,0,121,0,0
///TOOL 0
///POSTYPE ROBOT
///RECTAN
///RCONF 0,0,0,0,0,0,0,0,0,0,0,0,0,0,0,0,0,0,0,0,0,0,0,0
P00000=10.000,0.000,0.000,0.0000,0.0000,0.0000
///POSTYPE BASE
///TOOL0
P00001=0597.75835467,-0043.22047810,0523.09500000,0000.00000000,0000.00400000,0180.00000000,
P00002=0597.74112174,-0043.19062980,0523.09500000,0000.00000000,0000.00400000,0180.00000000,
P00003=0597.71832565,-0043.15114582,0523.09500000,0000.00000000,0000.00400000,0180.00000000,
P00004=0597.68847030,-0043.09943483,0523.09500000,0000.00000000,0000.00400000,0180.00000000,
P00005=0597.64975837,-0043.03238379,0523.09500000,0000.00000000,0000.00400000,0180.00000000,
P00006=0597.60006160,-0042.94630647,0523.09500000,0000.00000000,0000.00400000,0180.00000000,
P00007=0597.53689725,-0042.83690260,0523.09500000,0000.00000000,0000.00400000,0180.00000000,
P00008=0597.45741381,-0042.69923325,0523.09500000,0000.00000000,0000.00400000,0180.00000000,
P00009=0597.35838949,-0042.52771809,0523.09500000,0000.00000000,0000.00400000,0180.00000000,
P00010=0597.23624670,-0042.31616058,0523.09500000,0000.00000000,0000.00400000,0180.00000000,
P00011=0597.08708600,-0042.05780667,0523.09500000,0000.00000000,0000.00400000,0180.00000000,
P00012=0596.90674202,-0041.74544173,0523.09500000,0000.00000000,0000.00400000,0180.00000000,
P00013=0596.69086343,-0041.37152905,0523.09500000,0000.00000000,0000.00400000,0180.00000000,
P00014=0596.43501771,-0040.92839125,0523.09500000,0000.00000000,0000.00400000,0180.00000000,
P00015=0596.13481997,-0040.40843352,0523.09500000,0000.00000000,0000.00400000,0180.00000000,
P00016=0595.78608352,-0039.80440427,0523.09500000,0000.00000000,0000.00400000,0180.00000000,
P00017=0595.38498789,-0039.10968625,0523.09500000,0000.00000000,0000.00400000,0180.00000000,
P00018=0594.92825824,-0038.31860731,0523.09500000,0000.00000000,0000.00400000,0180.00000000,
P00019=0594.41334848,-0037.42675743,0523.09500000,0000.00000000,0000.00400000,0180.00000000,
P00020=0593.83861865,-0036.43129617,0523.09500000,0000.00000000,0000.00400000,0180.00000000,
P00021=0593.20349687,-0035.33123297,0523.09500000,0000.00000000,0000.00400000,0180.00000000,
P00022=0592.50861504,-0034.12766233,0523.09500000,0000.00000000,0000.00400000,0180.00000000,
P00023=0591.75590869,-0032.82393671,0523.09500000,0000.00000000,0000.00400000,0180.00000000,
P00024=0590.94867206,-0031.42576184,0523.09500000,0000.00000000,0000.00400000,0180.00000000,
P00025=0590.09156153,-0029.94120286,0523.09500000,0000.00000000,0000.00400000,0180.00000000,
P00026=0589.19054354,-0028.38059392,0523.09500000,0000.00000000,0000.00400000,0180.00000000,
P00027=0588.25278555,-0026.75634945,0523.09500000,0000.00000000,0000.00400000,0180.00000000,
P00028=0587.28649274,-0025.08268119,0523.09500000,0000.00000000,0000.00400000,0180.00000000,
P00029=0586.30069593,-0023.37523104,0523.09500000,0000.00000000,0000.00400000,0180.00000000,
P00030=0585.30500000,-0021.65063509,0523.09500000,0000.00000000,0000.00400000,0180.00000000,
P00031=0584.30930407,-0019.92603915,0523.09500000,0000.00000000,0000.00400000,0180.00000000,
P00032=0583.32350726,-0018.21858900,0523.09500000,0000.00000000,0000.00400000,0180.00000000,
P00033=0582.35721445,-0016.54492074,0523.09500000,0000.00000000,0000.00400000,0180.00000000,
P00034=0581.41945646,-0014.92067627,0523.09500000,0000.00000000,0000.00400000,0180.00000000,
P00035=0580.51843847,-0013.36006733,0523.09500000,0000.00000000,0000.00400000,0180.00000000,
P00036=0579.66132794,-0011.87550835,0523.09500000,0000.00000000,0000.00400000,0180.00000000,
P00037=0578.85409131,-0010.47733348,0523.09500000,0000.00000000,0000.00400000,0180.00000000,
P00038=0578.10138496,-0009.17360786,0523.09500000,0000.00000000,0000.00400000,0180.00000000,
P00039=0577.40650313,-0007.97003722,0523.09500000,0000.00000000,0000.00400000,0180.00000000,
P00040=0576.77138135,-0006.86997402,0523.09500000,0000.00000000,0000.00400000,0180.00000000,
P00041=0576.19665152,-0005.87451276,0523.09500000,0000.00000000,0000.00400000,0180.00000000,
P00042=0575.68174176,-0004.98266288,0523.09500000,0000.00000000,0000.00400000,0180.00000000,
P00043=0575.22501211,-0004.19158394,0523.09500000,0000.00000000,0000.00400000,0180.00000000,
P00044=0574.82391648,-0003.49686592,0523.09500000,0000.00000000,0000.00400000,0180.00000000,
P00045=0574.47518003,-0002.89283667,0523.09500000,0000.00000000,0000.00400000,0180.00000000,
P00046=0574.17498229,-0002.37287894,0523.09500000,0000.00000000,0000.00400000,0180.00000000,
P00047=0573.91913657,-0001.92974114,0523.09500000,0000.00000000,0000.00400000,0180.00000000,
P00048=0573.70325798,-0001.55582846,0523.09500000,0000.00000000,0000.00400000,0180.00000000,
P00049=0573.52291400,-0001.24346352,0523.09500000,0000.00000000,0000.00400000,0180.00000000,
P00050=0573.37375330,-0000.98510961,0523.09500000,0000.00000000,0000.00400000,0180.00000000,
P00051=0573.25161051,-0000.77355210,0523.09500000,0000.00000000,0000.00400000,0180.00000000,
P00052=0573.15258619,-0000.60203694,0523.09500000,0000.00000000,0000.00400000,0180.00000000,
P00053=0573.07310275,-0000.46436759,0523.09500000,0000.00000000,0000.00400000,0180.00000000,
P00054=0573.00993840,-0000.35496372,0523.09500000,0000.00000000,0000.00400000,0180.00000000,
P00055=0572.96024163,-0000.26888640,0523.09500000,0000.00000000,0000.00400000,0180.00000000,
P00056=0572.92152970,-0000.20183536,0523.09500000,0000.00000000,0000.00400000,0180.00000000,
P00057=0572.89167435,-0000.15012437,0523.09500000,0000.00000000,0000.00400000,0180.00000000,
P00058=0572.86887826,-0000.11064039,0523.09500000,0000.00000000,0000.00400000,0180.00000000,
P00059=0572.85164533,-0000.08079209,0523.09500000,0000.00000000,0000.00400000,0180.00000000,
P00060=0572.83874745,-0000.05845230,0523.09500000,0000.00000000,0000.00400000,0180.00000000,
///TOOL1
P00061=0649.57664533,0043.22047810,0908.48000000,0180.00000000,0000.00000000,0000.00000000
P00062=0649.59387826,0043.19062980,0908.48000000,0180.00000000,0000.00000000,0000.00000000
P00063=0649.61667435,0043.15114582,0908.48000000,0180.00000000,0000.00000000,0000.00000000
P00064=0649.64652970,0043.09943483,0908.48000000,0180.00000000,0000.00000000,0000.00000000
P00065=0649.68524163,0043.03238379,0908.48000000,0180.00000000,0000.00000000,0000.00000000
P00066=0649.73493840,0042.94630647,0908.48000000,0180.00000000,0000.00000000,0000.00000000
P00067=0649.79810275,0042.83690260,0908.48000000,0180.00000000,0000.00000000,0000.00000000
P00068=0649.87758619,0042.69923325,0908.48000000,0180.00000000,0000.00000000,0000.00000000
P00069=0649.97661051,0042.52771809,0908.48000000,0180.00000000,0000.00000000,0000.00000000
P00070=0650.09875330,0042.31616058,0908.48000000,0180.00000000,0000.00000000,0000.00000000
P00071=0650.24791400,0042.05780667,0908.48000000,0180.00000000,0000.00000000,0000.00000000
P00072=0650.42825798,0041.74544173,0908.48000000,0180.00000000,0000.00000000,0000.00000000
P00073=0650.64413657,0041.37152905,0908.48000000,0180.00000000,0000.00000000,0000.00000000
P00074=0650.89998229,0040.92839125,0908.48000000,0180.00000000,0000.00000000,0000.00000000
P00075=0651.20018003,0040.40843352,0908.48000000,0180.00000000,0000.00000000,0000.00000000
P00076=0651.54891648,0039.80440427,0908.48000000,0180.00000000,0000.00000000,0000.00000000
P00077=0651.95001211,0039.10968625,0908.48000000,0180.00000000,0000.00000000,0000.00000000
P00078=0652.40674176,0038.31860731,0908.48000000,0180.00000000,0000.00000000,0000.00000000
P00079=0652.92165152,0037.42675743,0908.48000000,0180.00000000,0000.00000000,0000.00000000
P00080=0653.49638135,0036.43129617,0908.48000000,0180.00000000,0000.00000000,0000.00000000
P00081=0654.13150313,0035.33123297,0908.48000000,0180.00000000,0000.00000000,0000.00000000
P00082=0654.82638496,0034.12766233,0908.48000000,0180.00000000,0000.00000000,0000.00000000
P00083=0655.57909131,0032.82393671,0908.48000000,0180.00000000,0000.00000000,0000.00000000
P00084=0656.38632794,0031.42576184,0908.48000000,0180.00000000,0000.00000000,0000.00000000
P00085=0657.24343847,0029.94120286,0908.48000000,0180.00000000,0000.00000000,0000.00000000
P00086=0658.14445646,0028.38059392,0908.48000000,0180.00000000,0000.00000000,0000.00000000
P00087=0659.08221445,0026.75634945,0908.48000000,0180.00000000,0000.00000000,0000.00000000
P00088=0660.04850726,0025.08268119,0908.48000000,0180.00000000,0000.00000000,0000.00000000
P00089=0661.03430407,0023.37523104,0908.48000000,0180.00000000,0000.00000000,0000.00000000
P00090=0662.03000000,0021.65063509,0908.48000000,0180.00000000,0000.00000000,0000.00000000
P00091=0663.02569593,0019.92603915,0908.48000000,0180.00000000,0000.00000000,0000.00000000
P00092=0664.01149274,0018.21858900,0908.48000000,0180.00000000,0000.00000000,0000.00000000
P00093=0664.97778555,0016.54492074,0908.48000000,0180.00000000,0000.00000000,0000.00000000
P00094=0665.91554354,0014.92067627,0908.48000000,0180.00000000,0000.00000000,0000.00000000
P00095=0666.81656153,0013.36006733,0908.48000000,0180.00000000,0000.00000000,0000.00000000
P00096=0667.67367206,0011.87550835,0908.48000000,0180.00000000,0000.00000000,0000.00000000
P00097=0668.48090869,0010.47733348,0908.48000000,0180.00000000,0000.00000000,0000.00000000
P00098=0669.23361504,0009.17360786,0908.48000000,0180.00000000,0000.00000000,0000.00000000
P00099=0669.92849687,0007.97003722,0908.48000000,0180.00000000,0000.00000000,0000.00000000
P00100=0670.56361865,0006.86997402,0908.48000000,0180.00000000,0000.00000000,0000.00000000
P00101=0671.13834848,0005.87451276,0908.48000000,0180.00000000,0000.00000000,0000.00000000
P00102=0671.65325824,0004.98266288,0908.48000000,0180.00000000,0000.00000000,0000.00000000
P00103=0672.10998789,0004.19158394,0908.48000000,0180.00000000,0000.00000000,0000.00000000
P00104=0672.51108352,0003.49686592,0908.48000000,0180.00000000,0000.00000000,0000.00000000
P00105=0672.85981997,0002.89283667,0908.48000000,0180.00000000,0000.00000000,0000.00000000
P00106=0673.16001771,0002.37287894,0908.48000000,0180.00000000,0000.00000000,0000.00000000
P00107=0673.41586343,0001.92974114,0908.48000000,0180.00000000,0000.00000000,0000.00000000
P00108=0673.63174202,0001.55582846,0908.48000000,0180.00000000,0000.00000000,0000.00000000
P00109=0673.81208600,0001.24346352,0908.48000000,0180.00000000,0000.00000000,0000.00000000
P00110=0673.96124670,0000.98510961,0908.48000000,0180.00000000,0000.00000000,0000.00000000
P00111=0674.08338949,0000.77355210,0908.48000000,0180.00000000,0000.00000000,0000.00000000
P00112=0674.18241381,0000.60203694,0908.48000000,0180.00000000,0000.00000000,0000.00000000
P00113=0674.26189725,0000.46436759,0908.48000000,0180.00000000,0000.00000000,0000.00000000
P00114=0674.32506160,0000.35496372,0908.48000000,0180.00000000,0000.00000000,0000.00000000
P00115=0674.37475837,0000.26888640,0908.48000000,0180.00000000,0000.00000000,0000.00000000
P00116=0674.41347030,0000.20183536,0908.48000000,0180.00000000,0000.00000000,0000.00000000
P00117=0674.44332565,0000.15012437,0908.48000000,0180.00000000,0000.00000000,0000.00000000
P00118=0674.46612174,0000.11064039,0908.48000000,0180.00000000,0000.00000000,0000.00000000
P00119=0674.48335467,0000.08079209,0908.48000000,0180.00000000,0000.00000000,0000.00000000
P00120=0674.49625255,0000.05845230,0908.48000000,0180.00000000,0000.00000000,0000.00000000
//INST
///DATE 2017/03/31 08:11
///COMM PLAYINGTWOROBOTS
///ATTR SC,RW
///GROUP1 RB1
///GROUP2 RB2
NOP
DOUT OT#(16) OFF
DOUT OT#(15) ON
DOUT OT#(16) ON
MOVL P00001 V=0002.1541157  +MOVL P00061 V=0002.1541157
MOVL P00002 V=0002.8495109  +MOVL P00062 V=0002.8495109
MOVL P00003 V=0003.7319194  +MOVL P00063 V=0003.7319194
MOVL P00004 V=0004.8389916  +MOVL P00064 V=0004.8389916
MOVL P00005 V=0006.2120956  +MOVL P00065 V=0006.2120956
MOVL P00006 V=0007.8955441  +MOVL P00066 V=0007.8955441
MOVL P00007 V=0009.9354297  +MOVL P00067 V=0009.9354297
MOVL P00008 V=0012.3780408  +MOVL P00068 V=0012.3780408
MOVL P00009 V=0015.2678481  +MOVL P00069 V=0015.2678481
MOVL P00010 V=0018.6450871  +MOVL P00070 V=0018.6450871
MOVL P00011 V=0022.5429978  +MOVL P00071 V=0022.5429978
MOVL P00012 V=0026.9848239  +MOVL P00072 V=0026.9848239
MOVL P00013 V=0031.9807154  +MOVL P00073 V=0031.9807154
MOVL P00014 V=0037.5247174  +MOVL P00074 V=0037.5247174
MOVL P00015 V=0043.5920561  +MOVL P00075 V=0043.5920561
MOVL P00016 V=0050.1369542  +MOVL P00076 V=0050.1369542
MOVL P00017 V=0057.0912051  +MOVL P00077 V=0057.0912051
MOVL P00018 V=0064.3637210  +MOVL P00078 V=0064.3637210
MOVL P00019 V=0071.8412281  +MOVL P00079 V=0071.8412281
MOVL P00020 V=0079.3902232  +MOVL P00080 V=0079.3902232
MOVL P00021 V=0086.8602289  +MOVL P00081 V=0086.8602289
MOVL P00022 V=0094.0882926  +MOVL P00082 V=0094.0882926
MOVL P00023 V=0100.9045798  +MOVL P00083 V=0100.9045798
MOVL P00024 V=0107.1388155  +MOVL P00084 V=0107.1388155
MOVL P00025 V=0112.6272489  +MOVL P00085 V=0112.6272489
MOVL P00026 V=0117.2197482  +MOVL P00086 V=0117.2197482
MOVL P00027 V=0120.7866023  +MOVL P00087 V=0120.7866023
MOVL P00028 V=0123.2246005  +MOVL P00088 V=0123.2246005
MOVL P00029 V=0124.4619915  +MOVL P00089 V=0124.4619915
MOVL P00030 V=0124.4619915  +MOVL P00090 V=0124.4619915
MOVL P00031 V=0123.2246005  +MOVL P00091 V=0123.2246005
MOVL P00032 V=0120.7866023  +MOVL P00092 V=0120.7866023
MOVL P00033 V=0117.2197482  +MOVL P00093 V=0117.2197482
MOVL P00034 V=0112.6272489  +MOVL P00094 V=0112.6272489
MOVL P00035 V=0107.1388155  +MOVL P00095 V=0107.1388155
MOVL P00036 V=0100.9045798  +MOVL P00096 V=0100.9045798
MOVL P00037 V=0094.0882926  +MOVL P00097 V=0094.0882926
MOVL P00038 V=0086.8602289  +MOVL P00098 V=0086.8602289
MOVL P00039 V=0079.3902232  +MOVL P00099 V=0079.3902232
MOVL P00040 V=0071.8412281  +MOVL P00100 V=0071.8412281
MOVL P00041 V=0064.3637210  +MOVL P00101 V=0064.3637210
MOVL P00042 V=0057.0912051  +MOVL P00102 V=0057.0912051
MOVL P00043 V=0050.1369542  +MOVL P00103 V=0050.1369542
MOVL P00044 V=0043.5920561  +MOVL P00104 V=0043.5920561
MOVL P00045 V=0037.5247174  +MOVL P00105 V=0037.5247174
MOVL P00046 V=0031.9807154  +MOVL P00106 V=0031.9807154
MOVL P00047 V=0026.9848239  +MOVL P00107 V=0026.9848239
MOVL P00048 V=0022.5429978  +MOVL P00108 V=0022.5429978
MOVL P00049 V=0018.6450871  +MOVL P00109 V=0018.6450871
MOVL P00050 V=0015.2678481  +MOVL P00110 V=0015.2678481
MOVL P00051 V=0012.3780408  +MOVL P00111 V=0012.3780408
MOVL P00052 V=0009.9354297  +MOVL P00112 V=0009.9354297
MOVL P00053 V=0007.8955441  +MOVL P00113 V=0007.8955441
MOVL P00054 V=0006.2120956  +MOVL P00114 V=0006.2120956
MOVL P00055 V=0004.8389916  +MOVL P00115 V=0004.8389916
MOVL P00056 V=0003.7319194  +MOVL P00116 V=0003.7319194
MOVL P00057 V=0002.8495109  +MOVL P00117 V=0002.8495109
MOVL P00058 V=0002.1541157  +MOVL P00118 V=0002.1541157
MOVL P00059 V=0001.6122352  +MOVL P00119 V=0001.6122352
MOVL P00060 V=0001.6122352  +MOVL P00120 V=0001.6122352
DOUT OT#(16) OFF
DOUT OT#(15) OFF
DOUT OT#(16) ON
END
