/JOB
//NAME GAUSSIANMOVING2
//POS
///NPOS 0,0,0,121,0,0
///TOOL 0
///POSTYPE ROBOT
///RECTAN
///RCONF 0,0,0,0,0,0,0,0,0,0,0,0,0,0,0,0,0,0,0,0,0,0,0,0
P00000=10.000,0.000,0.000,0.0000,0.0000,0.0000
///POSTYPE BASE
P00001=0368.25149490,0004.03009540,378.131,178.2426,-0.7296,-129.2918
P00002=0368.27729067,0003.98541583,378.131,178.2426,-0.7296,-129.2918
P00003=0368.31175652,0003.92571922,378.131,178.2426,-0.7296,-129.2918
P00004=0368.35734869,0003.84675126,378.131,178.2426,-0.7296,-129.2918
P00005=0368.41705940,0003.74332928,378.131,178.2426,-0.7296,-129.2918
P00006=0368.49448327,0003.60922721,378.131,178.2426,-0.7296,-129.2918
P00007=0368.59387680,0003.43707256,378.131,178.2426,-0.7296,-129.2918
P00008=0368.72020550,0003.21826483,378.131,178.2426,-0.7296,-129.2918
P00009=0368.87917238,0002.94292613,378.131,178.2426,-0.7296,-129.2918
P00010=0369.07722103,0002.59989580,378.131,178.2426,-0.7296,-129.2918
P00011=0369.32150660,0002.17678078,378.131,178.2426,-0.7296,-129.2918
P00012=0369.61982799,0001.66007297,378.131,178.2426,-0.7296,-129.2918
P00013=0369.98051596,0001.03534309,378.131,178.2426,-0.7296,-129.2918
P00014=0370.41227314,0000.28751771,378.131,178.2426,-0.7296,-129.2918
P00015=0370.92396458,-0000.59875787,378.131,178.2426,-0.7296,-129.2918
P00016=0371.52436006,-0001.63867335,378.131,178.2426,-0.7296,-129.2918
P00017=0372.22183296,-0002.84673184,378.131,178.2426,-0.7296,-129.2918
P00018=0373.02402423,-0004.23616787,378.131,178.2426,-0.7296,-129.2918
P00019=0373.93748351,-0005.81832576,378.131,178.2426,-0.7296,-129.2918
P00020=0374.96730305,-0007.60202552,378.131,178.2426,-0.7296,-129.2918
P00021=0376.11676270,-0009.59294803,378.131,178.2426,-0.7296,-129.2918
P00022=0377.38700627,-0011.79307444,378.131,178.2426,-0.7296,-129.2918
P00023=0378.77676993,-0014.20021571,378.131,178.2426,-0.7296,-129.2918
P00024=0380.28218261,-0016.80766696,378.131,178.2426,-0.7296,-129.2918
P00025=0381.89665589,-0019.60401670,378.131,178.2426,-0.7296,-129.2918
P00026=0383.61087694,-0022.57313466,378.131,178.2426,-0.7296,-129.2918
P00027=0385.41291292,-0025.69435254,378.131,178.2426,-0.7296,-129.2918
P00028=0387.28842889,-0028.94284149,378.131,178.2426,-0.7296,-129.2918
P00029=0389.22101453,-0032.29017800,378.131,178.2426,-0.7296,-129.2918
P00030=0391.19260814,-0035.70507830,378.131,178.2426,-0.7296,-129.2918
P00031=0393.18400000,-0039.15427019,378.131,178.2426,-0.7296,-129.2918
P00032=0395.17539186,-0042.60346208,378.131,178.2426,-0.7296,-129.2918
P00033=0397.14698547,-0046.01836238,378.131,178.2426,-0.7296,-129.2918
P00034=0399.07957111,-0049.36569889,378.131,178.2426,-0.7296,-129.2918
P00035=0400.95508708,-0052.61418784,378.131,178.2426,-0.7296,-129.2918
P00036=0402.75712306,-0055.73540572,378.131,178.2426,-0.7296,-129.2918
P00037=0404.47134411,-0058.70452367,378.131,178.2426,-0.7296,-129.2918
P00038=0406.08581739,-0061.50087342,378.131,178.2426,-0.7296,-129.2918
P00039=0407.59123007,-0064.10832467,378.131,178.2426,-0.7296,-129.2918
P00040=0408.98099373,-0066.51546594,378.131,178.2426,-0.7296,-129.2918
P00041=0410.25123730,-0068.71559234,378.131,178.2426,-0.7296,-129.2918
P00042=0411.40069695,-0070.70651486,378.131,178.2426,-0.7296,-129.2918
P00043=0412.43051649,-0072.49021462,378.131,178.2426,-0.7296,-129.2918
P00044=0413.34397577,-0074.07237250,378.131,178.2426,-0.7296,-129.2918
P00045=0414.14616704,-0075.46180854,378.131,178.2426,-0.7296,-129.2918
P00046=0414.84363994,-0076.66986703,378.131,178.2426,-0.7296,-129.2918
P00047=0415.44403542,-0077.70978251,378.131,178.2426,-0.7296,-129.2918
P00048=0415.95572686,-0078.59605809,378.131,178.2426,-0.7296,-129.2918
P00049=0416.38748404,-0079.34388347,378.131,178.2426,-0.7296,-129.2918
P00050=0416.74817201,-0079.96861335,378.131,178.2426,-0.7296,-129.2918
P00051=0417.04649340,-0080.48532116,378.131,178.2426,-0.7296,-129.2918
P00052=0417.29077897,-0080.90843618,378.131,178.2426,-0.7296,-129.2918
P00053=0417.48882762,-0081.25146650,378.131,178.2426,-0.7296,-129.2918
P00054=0417.64779450,-0081.52680521,378.131,178.2426,-0.7296,-129.2918
P00055=0417.77412320,-0081.74561294,378.131,178.2426,-0.7296,-129.2918
P00056=0417.87351673,-0081.91776759,378.131,178.2426,-0.7296,-129.2918
P00057=0417.95094060,-0082.05186965,378.131,178.2426,-0.7296,-129.2918
P00058=0418.01065131,-0082.15529164,378.131,178.2426,-0.7296,-129.2918
P00059=0418.05624348,-0082.23425960,378.131,178.2426,-0.7296,-129.2918
P00060=0418.09070933,-0082.29395621,378.131,178.2426,-0.7296,-129.2918
P00061=0303.28649490,0000.74890460,308.141,178.5590,4.5487,-19.7702
P00062=0303.31229067,0000.79358417,308.141,178.5590,4.5487,-19.7702
P00063=0303.34675652,0000.85328078,308.141,178.5590,4.5487,-19.7702
P00064=0303.39234869,0000.93224874,308.141,178.5590,4.5487,-19.7702
P00065=0303.45205940,0001.03567072,308.141,178.5590,4.5487,-19.7702
P00066=0303.52948327,0001.16977279,308.141,178.5590,4.5487,-19.7702
P00067=0303.62887680,0001.34192744,308.141,178.5590,4.5487,-19.7702
P00068=0303.75520550,0001.56073517,308.141,178.5590,4.5487,-19.7702
P00069=0303.91417238,0001.83607387,308.141,178.5590,4.5487,-19.7702
P00070=0304.11222103,0002.17910420,308.141,178.5590,4.5487,-19.7702
P00071=0304.35650660,0002.60221922,308.141,178.5590,4.5487,-19.7702
P00072=0304.65482799,0003.11892703,308.141,178.5590,4.5487,-19.7702
P00073=0305.01551596,0003.74365691,308.141,178.5590,4.5487,-19.7702
P00074=0305.44727314,0004.49148229,308.141,178.5590,4.5487,-19.7702
P00075=0305.95896458,0005.37775787,308.141,178.5590,4.5487,-19.7702
P00076=0306.55936006,0006.41767335,308.141,178.5590,4.5487,-19.7702
P00077=0307.25683296,0007.62573184,308.141,178.5590,4.5487,-19.7702
P00078=0308.05902423,0009.01516787,308.141,178.5590,4.5487,-19.7702
P00079=0308.97248351,0010.59732576,308.141,178.5590,4.5487,-19.7702
P00080=0310.00230305,0012.38102552,308.141,178.5590,4.5487,-19.7702
P00081=0311.15176270,0014.37194803,308.141,178.5590,4.5487,-19.7702
P00082=0312.42200627,0016.57207444,308.141,178.5590,4.5487,-19.7702
P00083=0313.81176993,0018.97921571,308.141,178.5590,4.5487,-19.7702
P00084=0315.31718261,0021.58666696,308.141,178.5590,4.5487,-19.7702
P00085=0316.93165589,0024.38301670,308.141,178.5590,4.5487,-19.7702
P00086=0318.64587694,0027.35213466,308.141,178.5590,4.5487,-19.7702
P00087=0320.44791292,0030.47335254,308.141,178.5590,4.5487,-19.7702
P00088=0322.32342889,0033.72184149,308.141,178.5590,4.5487,-19.7702
P00089=0324.25601453,0037.06917800,308.141,178.5590,4.5487,-19.7702
P00090=0326.22760814,0040.48407830,308.141,178.5590,4.5487,-19.7702
P00091=0328.21900000,0043.93327019,308.141,178.5590,4.5487,-19.7702
P00092=0330.21039186,0047.38246208,308.141,178.5590,4.5487,-19.7702
P00093=0332.18198547,0050.79736238,308.141,178.5590,4.5487,-19.7702
P00094=0334.11457111,0054.14469889,308.141,178.5590,4.5487,-19.7702
P00095=0335.99008708,0057.39318784,308.141,178.5590,4.5487,-19.7702
P00096=0337.79212306,0060.51440572,308.141,178.5590,4.5487,-19.7702
P00097=0339.50634411,0063.48352367,308.141,178.5590,4.5487,-19.7702
P00098=0341.12081739,0066.27987342,308.141,178.5590,4.5487,-19.7702
P00099=0342.62623007,0068.88732467,308.141,178.5590,4.5487,-19.7702
P00100=0344.01599373,0071.29446594,308.141,178.5590,4.5487,-19.7702
P00101=0345.28623730,0073.49459234,308.141,178.5590,4.5487,-19.7702
P00102=0346.43569695,0075.48551486,308.141,178.5590,4.5487,-19.7702
P00103=0347.46551649,0077.26921462,308.141,178.5590,4.5487,-19.7702
P00104=0348.37897577,0078.85137250,308.141,178.5590,4.5487,-19.7702
P00105=0349.18116704,0080.24080854,308.141,178.5590,4.5487,-19.7702
P00106=0349.87863994,0081.44886703,308.141,178.5590,4.5487,-19.7702
P00107=0350.47903542,0082.48878251,308.141,178.5590,4.5487,-19.7702
P00108=0350.99072686,0083.37505809,308.141,178.5590,4.5487,-19.7702
P00109=0351.42248404,0084.12288347,308.141,178.5590,4.5487,-19.7702
P00110=0351.78317201,0084.74761335,308.141,178.5590,4.5487,-19.7702
P00111=0352.08149340,0085.26432116,308.141,178.5590,4.5487,-19.7702
P00112=0352.32577897,0085.68743618,308.141,178.5590,4.5487,-19.7702
P00113=0352.52382762,0086.03046650,308.141,178.5590,4.5487,-19.7702
P00114=0352.68279450,0086.30580521,308.141,178.5590,4.5487,-19.7702
P00115=0352.80912320,0086.52461294,308.141,178.5590,4.5487,-19.7702
P00116=0352.90851673,0086.69676759,308.141,178.5590,4.5487,-19.7702
P00117=0352.98594060,0086.83086965,308.141,178.5590,4.5487,-19.7702
P00118=0353.04565131,0086.93429164,308.141,178.5590,4.5487,-19.7702
P00119=0353.09124348,0087.01325960,308.141,178.5590,4.5487,-19.7702
P00120=0353.12570933,0087.07295621,308.141,178.5590,4.5487,-19.7702
//INST
///DATE 2017/03/31 08:11
///COMM PLAYINGTWOROBOTS
///ATTR SC,RW
///GROUP1 RB1
///GROUP2 RB2
NOP
MOVL P00001 V=0003.2244704  +MOVL P00061 V=0003.2244704
MOVL P00002 V=0004.3082314  +MOVL P00062 V=0004.3082314
MOVL P00003 V=0005.6990217  +MOVL P00063 V=0005.6990217
MOVL P00004 V=0007.4638389  +MOVL P00064 V=0007.4638389
MOVL P00005 V=0009.6779831  +MOVL P00065 V=0009.6779831
MOVL P00006 V=0012.4241912  +MOVL P00066 V=0012.4241912
MOVL P00007 V=0015.7910881  +MOVL P00067 V=0015.7910881
MOVL P00008 V=0019.8708593  +MOVL P00068 V=0019.8708593
MOVL P00009 V=0024.7560816  +MOVL P00069 V=0024.7560816
MOVL P00010 V=0030.5356962  +MOVL P00070 V=0030.5356962
MOVL P00011 V=0037.2901742  +MOVL P00071 V=0037.2901742
MOVL P00012 V=0045.0859956  +MOVL P00072 V=0045.0859956
MOVL P00013 V=0053.9696478  +MOVL P00073 V=0053.9696478
MOVL P00014 V=0063.9614309  +MOVL P00074 V=0063.9614309
MOVL P00015 V=0075.0494348  +MOVL P00075 V=0075.0494348
MOVL P00016 V=0087.1841123  +MOVL P00076 V=0087.1841123
MOVL P00017 V=0100.2739084  +MOVL P00077 V=0100.2739084
MOVL P00018 V=0114.1824102  +MOVL P00078 V=0114.1824102
MOVL P00019 V=0128.7274420  +MOVL P00079 V=0128.7274420
MOVL P00020 V=0143.6824562  +MOVL P00080 V=0143.6824562
MOVL P00021 V=0158.7804463  +MOVL P00081 V=0158.7804463
MOVL P00022 V=0173.7204577  +MOVL P00082 V=0173.7204577
MOVL P00023 V=0188.1765852  +MOVL P00083 V=0188.1765852
MOVL P00024 V=0201.8091595  +MOVL P00084 V=0201.8091595
MOVL P00025 V=0214.2776311  +MOVL P00085 V=0214.2776311
MOVL P00026 V=0225.2544979  +MOVL P00086 V=0225.2544979
MOVL P00027 V=0234.4394964  +MOVL P00087 V=0234.4394964
MOVL P00028 V=0241.5732047  +MOVL P00088 V=0241.5732047
MOVL P00029 V=0246.4492010  +MOVL P00089 V=0246.4492010
MOVL P00030 V=0248.9239830  +MOVL P00090 V=0248.9239830
MOVL P00031 V=0248.9239830  +MOVL P00091 V=0248.9239830
MOVL P00032 V=0246.4492010  +MOVL P00092 V=0246.4492010
MOVL P00033 V=0241.5732047  +MOVL P00093 V=0241.5732047
MOVL P00034 V=0234.4394964  +MOVL P00094 V=0234.4394964
MOVL P00035 V=0225.2544979  +MOVL P00095 V=0225.2544979
MOVL P00036 V=0214.2776311  +MOVL P00096 V=0214.2776311
MOVL P00037 V=0201.8091595  +MOVL P00097 V=0201.8091595
MOVL P00038 V=0188.1765852  +MOVL P00098 V=0188.1765852
MOVL P00039 V=0173.7204577  +MOVL P00099 V=0173.7204577
MOVL P00040 V=0158.7804463  +MOVL P00100 V=0158.7804463
MOVL P00041 V=0143.6824562  +MOVL P00101 V=0143.6824562
MOVL P00042 V=0128.7274420  +MOVL P00102 V=0128.7274420
MOVL P00043 V=0114.1824102  +MOVL P00103 V=0114.1824102
MOVL P00044 V=0100.2739084  +MOVL P00104 V=0100.2739084
MOVL P00045 V=0087.1841123  +MOVL P00105 V=0087.1841123
MOVL P00046 V=0075.0494348  +MOVL P00106 V=0075.0494348
MOVL P00047 V=0063.9614309  +MOVL P00107 V=0063.9614309
MOVL P00048 V=0053.9696478  +MOVL P00108 V=0053.9696478
MOVL P00049 V=0045.0859956  +MOVL P00109 V=0045.0859956
MOVL P00050 V=0037.2901742  +MOVL P00110 V=0037.2901742
MOVL P00051 V=0030.5356962  +MOVL P00111 V=0030.5356962
MOVL P00052 V=0024.7560816  +MOVL P00112 V=0024.7560816
MOVL P00053 V=0019.8708593  +MOVL P00113 V=0019.8708593
MOVL P00054 V=0015.7910881  +MOVL P00114 V=0015.7910881
MOVL P00055 V=0012.4241912  +MOVL P00115 V=0012.4241912
MOVL P00056 V=0009.6779831  +MOVL P00116 V=0009.6779831
MOVL P00057 V=0007.4638389  +MOVL P00117 V=0007.4638389
MOVL P00058 V=0005.6990217  +MOVL P00118 V=0005.6990217
MOVL P00059 V=0004.3082314  +MOVL P00119 V=0004.3082314
MOVL P00060 V=0004.3082314  +MOVL P00120 V=0004.3082314
END
