/JOB
//NAME GAUSSIANMOVING2
//POS
///NPOS 0,0,0,121,0,0
///TOOL 0
///POSTYPE ROBOT
///RECTAN
///RCONF 0,0,0,0,0,0,0,0,0,0,0,0,0,0,0,0,0,0,0,0,0,0,0,0
P00000=10.000,0.000,0.000,0.0000,0.0000,0.0000
///POSTYPE BASE
P00001=0249.03964835,16.200,273.300,-179.4000,-0.79,-160.6000
P00002=0249.04666727,16.200,273.300,-179.4000,-0.79,-160.6000
P00003=0249.05480148,16.200,273.300,-179.4000,-0.79,-160.6000
P00004=0249.06420467,16.200,273.300,-179.4000,-0.79,-160.6000
P00005=0249.07504766,16.200,273.300,-179.4000,-0.79,-160.6000
P00006=0249.08751971,16.200,273.300,-179.4000,-0.79,-160.6000
P00007=0249.10182975,16.200,273.300,-179.4000,-0.79,-160.6000
P00008=0249.11820766,16.200,273.300,-179.4000,-0.79,-160.6000
P00009=0249.13690545,16.200,273.300,-179.4000,-0.79,-160.6000
P00010=0249.15819845,16.200,273.300,-179.4000,-0.79,-160.6000
P00011=0249.18238634,16.200,273.300,-179.4000,-0.79,-160.6000
P00012=0249.20979410,16.200,273.300,-179.4000,-0.79,-160.6000
P00013=0249.24077281,16.200,273.300,-179.4000,-0.79,-160.6000
P00014=0249.27570035,16.200,273.300,-179.4000,-0.79,-160.6000
P00015=0249.31498174,16.200,273.300,-179.4000,-0.79,-160.6000
P00016=0249.35904944,16.200,273.300,-179.4000,-0.79,-160.6000
P00017=0249.40836322,16.200,273.300,-179.4000,-0.79,-160.6000
P00018=0249.46340985,16.200,273.300,-179.4000,-0.79,-160.6000
P00019=0249.52470240,16.200,273.300,-179.4000,-0.79,-160.6000
P00020=0249.59277920,16.200,273.300,-179.4000,-0.79,-160.6000
P00021=0249.66820241,16.200,273.300,-179.4000,-0.79,-160.6000
P00022=0249.75155621,16.200,273.300,-179.4000,-0.79,-160.6000
P00023=0249.84344454,16.200,273.300,-179.4000,-0.79,-160.6000
P00024=0249.94448834,16.200,273.300,-179.4000,-0.79,-160.6000
P00025=0250.05532249,16.200,273.300,-179.4000,-0.79,-160.6000
P00026=0250.17659208,16.200,273.300,-179.4000,-0.79,-160.6000
P00027=0250.30894844,16.200,273.300,-179.4000,-0.79,-160.6000
P00028=0250.45304450,16.200,273.300,-179.4000,-0.79,-160.6000
P00029=0250.60952995,16.200,273.300,-179.4000,-0.79,-160.6000
P00030=0250.77904579,16.200,273.300,-179.4000,-0.79,-160.6000
P00031=0250.96221864,16.200,273.300,-179.4000,-0.79,-160.6000
P00032=0251.15965466,16.200,273.300,-179.4000,-0.79,-160.6000
P00033=0251.37193325,16.200,273.300,-179.4000,-0.79,-160.6000
P00034=0251.59960045,16.200,273.300,-179.4000,-0.79,-160.6000
P00035=0251.84316229,16.200,273.300,-179.4000,-0.79,-160.6000
P00036=0252.10307798,16.200,273.300,-179.4000,-0.79,-160.6000
P00037=0252.37975319,16.200,273.300,-179.4000,-0.79,-160.6000
P00038=0252.67353337,16.200,273.300,-179.4000,-0.79,-160.6000
P00039=0252.98469728,16.200,273.300,-179.4000,-0.79,-160.6000
P00040=0253.31345083,16.200,273.300,-179.4000,-0.79,-160.6000
P00041=0253.65992124,16.200,273.300,-179.4000,-0.79,-160.6000
P00042=0254.02415178,16.200,273.300,-179.4000,-0.79,-160.6000
P00043=0254.40609697,16.200,273.300,-179.4000,-0.79,-160.6000
P00044=0254.80561854,16.200,273.300,-179.4000,-0.79,-160.6000
P00045=0255.22248206,16.200,273.300,-179.4000,-0.79,-160.6000
P00046=0255.65635450,16.200,273.300,-179.4000,-0.79,-160.6000
P00047=0256.10680255,16.200,273.300,-179.4000,-0.79,-160.6000
P00048=0256.57329202,16.200,273.300,-179.4000,-0.79,-160.6000
P00049=0257.05518820,16.200,273.300,-179.4000,-0.79,-160.6000
P00050=0257.55175719,16.200,273.300,-179.4000,-0.79,-160.6000
P00051=0258.06216841,16.200,273.300,-179.4000,-0.79,-160.6000
P00052=0258.58549803,16.200,273.300,-179.4000,-0.79,-160.6000
P00053=0259.12073351,16.200,273.300,-179.4000,-0.79,-160.6000
P00054=0259.66677920,16.200,273.300,-179.4000,-0.79,-160.6000
P00055=0260.22246277,16.200,273.300,-179.4000,-0.79,-160.6000
P00056=0260.78654265,16.200,273.300,-179.4000,-0.79,-160.6000
P00057=0261.35771630,16.200,273.300,-179.4000,-0.79,-160.6000
P00058=0261.93462913,16.200,273.300,-179.4000,-0.79,-160.6000
P00059=0262.51588417,16.200,273.300,-179.4000,-0.79,-160.6000
P00060=0263.10005216,16.200,273.300,-179.4000,-0.79,-160.6000
P00061=0263.68568209,16.200,273.300,-179.4000,-0.79,-160.6000
P00062=0264.27131201,16.200,273.300,-179.4000,-0.79,-160.6000
P00063=0264.85548000,16.200,273.300,-179.4000,-0.79,-160.6000
P00064=0265.43673504,16.200,273.300,-179.4000,-0.79,-160.6000
P00065=0266.01364788,16.200,273.300,-179.4000,-0.79,-160.6000
P00066=0266.58482153,16.200,273.300,-179.4000,-0.79,-160.6000
P00067=0267.14890141,16.200,273.300,-179.4000,-0.79,-160.6000
P00068=0267.70458497,16.200,273.300,-179.4000,-0.79,-160.6000
P00069=0268.25063066,16.200,273.300,-179.4000,-0.79,-160.6000
P00070=0268.78586615,16.200,273.300,-179.4000,-0.79,-160.6000
P00071=0269.30919576,16.200,273.300,-179.4000,-0.79,-160.6000
P00072=0269.81960698,16.200,273.300,-179.4000,-0.79,-160.6000
P00073=0270.31617598,16.200,273.300,-179.4000,-0.79,-160.6000
P00074=0270.79807215,16.200,273.300,-179.4000,-0.79,-160.6000
P00075=0271.26456163,16.200,273.300,-179.4000,-0.79,-160.6000
P00076=0271.71500968,16.200,273.300,-179.4000,-0.79,-160.6000
P00077=0272.14888211,16.200,273.300,-179.4000,-0.79,-160.6000
P00078=0272.56574564,16.200,273.300,-179.4000,-0.79,-160.6000
P00079=0272.96526720,16.200,273.300,-179.4000,-0.79,-160.6000
P00080=0273.34721239,16.200,273.300,-179.4000,-0.79,-160.6000
P00081=0273.71144293,16.200,273.300,-179.4000,-0.79,-160.6000
P00082=0274.05791335,16.200,273.300,-179.4000,-0.79,-160.6000
P00083=0274.38666689,16.200,273.300,-179.4000,-0.79,-160.6000
P00084=0274.69783080,16.200,273.300,-179.4000,-0.79,-160.6000
P00085=0274.99161099,16.200,273.300,-179.4000,-0.79,-160.6000
P00086=0275.26828620,16.200,273.300,-179.4000,-0.79,-160.6000
P00087=0275.52820189,16.200,273.300,-179.4000,-0.79,-160.6000
P00088=0275.77176373,16.200,273.300,-179.4000,-0.79,-160.6000
P00089=0275.99943093,16.200,273.300,-179.4000,-0.79,-160.6000
P00090=0276.21170951,16.200,273.300,-179.4000,-0.79,-160.6000
P00091=0276.40914554,16.200,273.300,-179.4000,-0.79,-160.6000
P00092=0276.59231838,16.200,273.300,-179.4000,-0.79,-160.6000
P00093=0276.76183422,16.200,273.300,-179.4000,-0.79,-160.6000
P00094=0276.91831967,16.200,273.300,-179.4000,-0.79,-160.6000
P00095=0277.06241574,16.200,273.300,-179.4000,-0.79,-160.6000
P00096=0277.19477209,16.200,273.300,-179.4000,-0.79,-160.6000
P00097=0277.31604169,16.200,273.300,-179.4000,-0.79,-160.6000
P00098=0277.42687583,16.200,273.300,-179.4000,-0.79,-160.6000
P00099=0277.52791964,16.200,273.300,-179.4000,-0.79,-160.6000
P00100=0277.61980796,16.200,273.300,-179.4000,-0.79,-160.6000
P00101=0277.70316176,16.200,273.300,-179.4000,-0.79,-160.6000
P00102=0277.77858498,16.200,273.300,-179.4000,-0.79,-160.6000
P00103=0277.84666177,16.200,273.300,-179.4000,-0.79,-160.6000
P00104=0277.90795432,16.200,273.300,-179.4000,-0.79,-160.6000
P00105=0277.96300095,16.200,273.300,-179.4000,-0.79,-160.6000
P00106=0278.01231474,16.200,273.300,-179.4000,-0.79,-160.6000
P00107=0278.05638243,16.200,273.300,-179.4000,-0.79,-160.6000
P00108=0278.09566383,16.200,273.300,-179.4000,-0.79,-160.6000
P00109=0278.13059136,16.200,273.300,-179.4000,-0.79,-160.6000
P00110=0278.16157008,16.200,273.300,-179.4000,-0.79,-160.6000
P00111=0278.18897783,16.200,273.300,-179.4000,-0.79,-160.6000
P00112=0278.21316572,16.200,273.300,-179.4000,-0.79,-160.6000
P00113=0278.23445872,16.200,273.300,-179.4000,-0.79,-160.6000
P00114=0278.25315652,16.200,273.300,-179.4000,-0.79,-160.6000
P00115=0278.26953442,16.200,273.300,-179.4000,-0.79,-160.6000
P00116=0278.28384446,16.200,273.300,-179.4000,-0.79,-160.6000
P00117=0278.29631651,16.200,273.300,-179.4000,-0.79,-160.6000
P00118=0278.30715950,16.200,273.300,-179.4000,-0.79,-160.6000
P00119=0278.31656269,16.200,273.300,-179.4000,-0.79,-160.6000
P00120=0278.32469691,16.200,273.300,-179.4000,-0.79,-160.6000
//INST
///DATE 2017/03/31 08:11
///ATTR SC,RW
///GROUP1 RB1
NOP
MOVL P00001 V=0000.4386826
MOVL P00002 V=0000.5083883
MOVL P00003 V=0000.5876993
MOVL P00004 V=0000.6776871
MOVL P00005 V=0000.7795030
MOVL P00006 V=0000.8943774
MOVL P00007 V=0001.0236191
MOVL P00008 V=0001.1686122
MOVL P00009 V=0001.3308127
MOVL P00010 V=0001.5117430
MOVL P00011 V=0001.7129846
MOVL P00012 V=0001.9361699
MOVL P00013 V=0002.1829709
MOVL P00014 V=0002.4550871
MOVL P00015 V=0002.7542311
MOVL P00016 V=0003.0821114
MOVL P00017 V=0003.4404145
MOVL P00018 V=0003.8307844
MOVL P00019 V=0004.2547998
MOVL P00020 V=0004.7139507
MOVL P00021 V=0005.2096128
MOVL P00022 V=0005.7430201
MOVL P00023 V=0006.3152379
MOVL P00024 V=0006.9271340
MOVL P00025 V=0007.5793498
MOVL P00026 V=0008.2722720
MOVL P00027 V=0009.0060042
MOVL P00028 V=0009.7803406
MOVL P00029 V=0010.5947399
MOVL P00030 V=0011.4483029
MOVL P00031 V=0012.3397515
MOVL P00032 V=0013.2674116
MOVL P00033 V=0014.2292001
MOVL P00034 V=0015.2226148
MOVL P00035 V=0016.2447308
MOVL P00036 V=0017.2922008
MOVL P00037 V=0018.3612613
MOVL P00038 V=0019.4477445
MOVL P00039 V=0020.5470966
MOVL P00040 V=0021.6544009
MOVL P00041 V=0022.7644087
MOVL P00042 V=0023.8715745
MOVL P00043 V=0024.9700979
MOVL P00044 V=0026.0539704
MOVL P00045 V=0027.1170272
MOVL P00046 V=0028.1530030
MOVL P00047 V=0029.1555922
MOVL P00048 V=0030.1185110
MOVL P00049 V=0031.0355623
MOVL P00050 V=0031.9007011
MOVL P00051 V=0032.7081009
MOVL P00052 V=0033.4522180
MOVL P00053 V=0034.1278555
MOVL P00054 V=0034.7302228
MOVL P00055 V=0035.2549927
MOVL P00056 V=0035.6983530
MOVL P00057 V=0036.0570523
MOVL P00058 V=0036.3284401
MOVL P00059 V=0036.5104991
MOVL P00060 V=0036.6018705
MOVL P00061 V=0036.6018705
MOVL P00062 V=0036.5104991
MOVL P00063 V=0036.3284401
MOVL P00064 V=0036.0570523
MOVL P00065 V=0035.6983530
MOVL P00066 V=0035.2549927
MOVL P00067 V=0034.7302228
MOVL P00068 V=0034.1278555
MOVL P00069 V=0033.4522180
MOVL P00070 V=0032.7081009
MOVL P00071 V=0031.9007011
MOVL P00072 V=0031.0355623
MOVL P00073 V=0030.1185110
MOVL P00074 V=0029.1555922
MOVL P00075 V=0028.1530030
MOVL P00076 V=0027.1170272
MOVL P00077 V=0026.0539704
MOVL P00078 V=0024.9700979
MOVL P00079 V=0023.8715745
MOVL P00080 V=0022.7644087
MOVL P00081 V=0021.6544009
MOVL P00082 V=0020.5470966
MOVL P00083 V=0019.4477445
MOVL P00084 V=0018.3612613
MOVL P00085 V=0017.2922008
MOVL P00086 V=0016.2447308
MOVL P00087 V=0015.2226148
MOVL P00088 V=0014.2292001
MOVL P00089 V=0013.2674116
MOVL P00090 V=0012.3397515
MOVL P00091 V=0011.4483029
MOVL P00092 V=0010.5947399
MOVL P00093 V=0009.7803406
MOVL P00094 V=0009.0060042
MOVL P00095 V=0008.2722720
MOVL P00096 V=0007.5793498
MOVL P00097 V=0006.9271340
MOVL P00098 V=0006.3152379
MOVL P00099 V=0005.7430201
MOVL P00100 V=0005.2096128
MOVL P00101 V=0004.7139507
MOVL P00102 V=0004.2547998
MOVL P00103 V=0003.8307844
MOVL P00104 V=0003.4404145
MOVL P00105 V=0003.0821114
MOVL P00106 V=0002.7542311
MOVL P00107 V=0002.4550871
MOVL P00108 V=0002.1829709
MOVL P00109 V=0001.9361699
MOVL P00110 V=0001.7129846
MOVL P00111 V=0001.5117430
MOVL P00112 V=0001.3308127
MOVL P00113 V=0001.1686122
MOVL P00114 V=0001.0236191
MOVL P00115 V=0000.8943774
MOVL P00116 V=0000.7795030
MOVL P00117 V=0000.6776871
MOVL P00118 V=0000.5876993
MOVL P00119 V=0000.5083883
MOVL P00120 V=0000.5083883
END
