/JOB
//NAME GAUSSIANMOVING2
//POS
///NPOS 0,0,0,61,0,0
///TOOL 0
///POSTYPE ROBOT
///RECTAN
///RCONF 0,0,0,0,0,0,0,0,0,0,0,0,0,0,0,0,0,0,0,0,0,0,0,0
P00000=10.000,0.000,0.000,0.0000,0.0000,0.0000
///POSTYPE BASE
///TOOL1
P00001=0730.99299616,0056.46299616,0908.48000000,0180.00000000,0000.00000000,0000.00000000
P00002=0730.95400250,0056.42400250,0908.48000000,0180.00000000,0000.00000000,0000.00000000
P00003=0730.90242084,0056.37242084,0908.48000000,0180.00000000,0000.00000000,0000.00000000
P00004=0730.83486588,0056.30486588,0908.48000000,0180.00000000,0000.00000000,0000.00000000
P00005=0730.74727078,0056.21727078,0908.48000000,0180.00000000,0000.00000000,0000.00000000
P00006=0730.63481984,0056.10481984,0908.48000000,0180.00000000,0000.00000000,0000.00000000
P00007=0730.49189522,0055.96189522,0908.48000000,0180.00000000,0000.00000000,0000.00000000
P00008=0730.31204473,0055.78204473,0908.48000000,0180.00000000,0000.00000000,0000.00000000
P00009=0730.08797826,0055.55797826,0908.48000000,0180.00000000,0000.00000000,0000.00000000
P00010=0729.81160069,0055.28160069,0908.48000000,0180.00000000,0000.00000000,0000.00000000
P00011=0729.47408856,0054.94408856,0908.48000000,0180.00000000,0000.00000000,0000.00000000
P00012=0729.06601671,0054.53601671,0908.48000000,0180.00000000,0000.00000000,0000.00000000
P00013=0728.57753922,0054.04753922,0908.48000000,0180.00000000,0000.00000000,0000.00000000
P00014=0727.99862643,0053.46862643,0908.48000000,0180.00000000,0000.00000000,0000.00000000
P00015=0727.31935649,0052.78935649,0908.48000000,0180.00000000,0000.00000000,0000.00000000
P00016=0726.53025599,0052.00025599,0908.48000000,0180.00000000,0000.00000000,0000.00000000
P00017=0725.62268017,0051.09268017,0908.48000000,0180.00000000,0000.00000000,0000.00000000
P00018=0724.58921897,0050.05921897,0908.48000000,0180.00000000,0000.00000000,0000.00000000
P00019=0723.42411116,0048.89411116,0908.48000000,0180.00000000,0000.00000000,0000.00000000
P00020=0722.12364602,0047.59364602,0908.48000000,0180.00000000,0000.00000000,0000.00000000
P00021=0720.68652947,0046.15652947,0908.48000000,0180.00000000,0000.00000000,0000.00000000
P00022=0719.11419138,0044.58419138,0908.48000000,0180.00000000,0000.00000000,0000.00000000
P00023=0717.41101135,0042.88101135,0908.48000000,0180.00000000,0000.00000000,0000.00000000
P00024=0715.58444335,0041.05444335,0908.48000000,0180.00000000,0000.00000000,0000.00000000
P00025=0713.64502362,0039.11502362,0908.48000000,0180.00000000,0000.00000000,0000.00000000
P00026=0711.60625264,0037.07625264,0908.48000000,0180.00000000,0000.00000000,0000.00000000
P00027=0709.48434854,0034.95434854,0908.48000000,0180.00000000,0000.00000000,0000.00000000
P00028=0707.29787749,0032.76787749,0908.48000000,0180.00000000,0000.00000000,0000.00000000
P00029=0705.06727395,0030.53727395,0908.48000000,0180.00000000,0000.00000000,0000.00000000
P00030=0702.81427125,0028.28427125,0908.48000000,0180.00000000,0000.00000000,0000.00000000
P00031=0700.56126854,0026.03126854,0908.48000000,0180.00000000,0000.00000000,0000.00000000
P00032=0698.33066501,0023.80066501,0908.48000000,0180.00000000,0000.00000000,0000.00000000
P00033=0696.14419395,0021.61419395,0908.48000000,0180.00000000,0000.00000000,0000.00000000
P00034=0694.02228985,0019.49228985,0908.48000000,0180.00000000,0000.00000000,0000.00000000
P00035=0691.98351887,0017.45351887,0908.48000000,0180.00000000,0000.00000000,0000.00000000
P00036=0690.04409915,0015.51409915,0908.48000000,0180.00000000,0000.00000000,0000.00000000
P00037=0688.21753114,0013.68753114,0908.48000000,0180.00000000,0000.00000000,0000.00000000
P00038=0686.51435112,0011.98435112,0908.48000000,0180.00000000,0000.00000000,0000.00000000
P00039=0684.94201302,0010.41201302,0908.48000000,0180.00000000,0000.00000000,0000.00000000
P00040=0683.50489647,0008.97489647,0908.48000000,0180.00000000,0000.00000000,0000.00000000
P00041=0682.20443133,0007.67443133,0908.48000000,0180.00000000,0000.00000000,0000.00000000
P00042=0681.03932353,0006.50932353,0908.48000000,0180.00000000,0000.00000000,0000.00000000
P00043=0680.00586233,0005.47586233,0908.48000000,0180.00000000,0000.00000000,0000.00000000
P00044=0679.09828651,0004.56828651,0908.48000000,0180.00000000,0000.00000000,0000.00000000
P00045=0678.30918600,0003.77918600,0908.48000000,0180.00000000,0000.00000000,0000.00000000
P00046=0677.62991606,0003.09991606,0908.48000000,0180.00000000,0000.00000000,0000.00000000
P00047=0677.05100327,0002.52100327,0908.48000000,0180.00000000,0000.00000000,0000.00000000
P00048=0676.56252578,0002.03252578,0908.48000000,0180.00000000,0000.00000000,0000.00000000
P00049=0676.15445393,0001.62445393,0908.48000000,0180.00000000,0000.00000000,0000.00000000
P00050=0675.81694181,0001.28694181,0908.48000000,0180.00000000,0000.00000000,0000.00000000
P00051=0675.54056423,0001.01056423,0908.48000000,0180.00000000,0000.00000000,0000.00000000
P00052=0675.31649776,0000.78649776,0908.48000000,0180.00000000,0000.00000000,0000.00000000
P00053=0675.13664727,0000.60664727,0908.48000000,0180.00000000,0000.00000000,0000.00000000
P00054=0674.99372266,0000.46372266,0908.48000000,0180.00000000,0000.00000000,0000.00000000
P00055=0674.88127172,0000.35127172,0908.48000000,0180.00000000,0000.00000000,0000.00000000
P00056=0674.79367661,0000.26367661,0908.48000000,0180.00000000,0000.00000000,0000.00000000
P00057=0674.72612165,0000.19612165,0908.48000000,0180.00000000,0000.00000000,0000.00000000
P00058=0674.67454000,0000.14454000,0908.48000000,0180.00000000,0000.00000000,0000.00000000
P00059=0674.63554634,0000.10554634,0908.48000000,0180.00000000,0000.00000000,0000.00000000
P00060=0674.60636176,0000.07636176,0908.48000000,0180.00000000,0000.00000000,0000.00000000
//INST
///DATE 2017/03/31 08:11
///ATTR SC,RW
///GROUP1 RB2
NOP
DOUT OT#(16) OFF
DOUT OT#(15) ON
DOUT OT#(16) ON
MOVL P00001 V=0003.4465852
MOVL P00002 V=0004.5592174
MOVL P00003 V=0005.9710711
MOVL P00004 V=0007.7423865
MOVL P00005 V=0009.9393530
MOVL P00006 V=0012.6328705
MOVL P00007 V=0015.8966875
MOVL P00008 V=0019.8048652
MOVL P00009 V=0024.4285569
MOVL P00010 V=0029.8321393
MOVL P00011 V=0036.0687965
MOVL P00012 V=0043.1757182
MOVL P00013 V=0051.1691447
MOVL P00014 V=0060.0395478
MOVL P00015 V=0069.7472898
MOVL P00016 V=0080.2191268
MOVL P00017 V=0091.3459282
MOVL P00018 V=0102.9819536
MOVL P00019 V=0114.9459649
MOVL P00020 V=0127.0243571
MOVL P00021 V=0138.9763662
MOVL P00022 V=0150.5412682
MOVL P00023 V=0161.4473276
MOVL P00024 V=0171.4221049
MOVL P00025 V=0180.2035983
MOVL P00026 V=0187.5515971
MOVL P00027 V=0193.2585637
MOVL P00028 V=0197.1593608
MOVL P00029 V=0199.1391864
MOVL P00030 V=0199.1391864
MOVL P00031 V=0197.1593608
MOVL P00032 V=0193.2585637
MOVL P00033 V=0187.5515971
MOVL P00034 V=0180.2035983
MOVL P00035 V=0171.4221049
MOVL P00036 V=0161.4473276
MOVL P00037 V=0150.5412682
MOVL P00038 V=0138.9763662
MOVL P00039 V=0127.0243571
MOVL P00040 V=0114.9459649
MOVL P00041 V=0102.9819536
MOVL P00042 V=0091.3459282
MOVL P00043 V=0080.2191268
MOVL P00044 V=0069.7472898
MOVL P00045 V=0060.0395478
MOVL P00046 V=0051.1691447
MOVL P00047 V=0043.1757182
MOVL P00048 V=0036.0687965
MOVL P00049 V=0029.8321393
MOVL P00050 V=0024.4285569
MOVL P00051 V=0019.8048652
MOVL P00052 V=0015.8966875
MOVL P00053 V=0012.6328705
MOVL P00054 V=0009.9393530
MOVL P00055 V=0007.7423865
MOVL P00056 V=0005.9710711
MOVL P00057 V=0004.5592174
MOVL P00058 V=0003.4465852
MOVL P00059 V=0002.5795763
MOVL P00060 V=0002.5795763
DOUT OT#(16) OFF
DOUT OT#(15) OFF
DOUT OT#(16) ON
END
