/JOB
//NAME GAUSSIANMOVING2
//POS
///NPOS 0,0,0,121,0,0
///TOOL 0
///POSTYPE ROBOT
///RECTAN
///RCONF 0,0,0,0,0,0,0,0,0,0,0,0,0,0,0,0,0,0,0,0,0,0,0,0
P00000=10.000,0.000,0.000,0.0000,0.0000,0.0000
///POSTYPE BASE
P00001=0368.31898980,0004.14700000,378.131,178.2426,-0.7296,-129.2918
P00002=0368.37058133,0004.14700000,378.131,178.2426,-0.7296,-129.2918
P00003=0368.43951303,0004.14700000,378.131,178.2426,-0.7296,-129.2918
P00004=0368.53069738,0004.14700000,378.131,178.2426,-0.7296,-129.2918
P00005=0368.65011880,0004.14700000,378.131,178.2426,-0.7296,-129.2918
P00006=0368.80496653,0004.14700000,378.131,178.2426,-0.7296,-129.2918
P00007=0369.00375359,0004.14700000,378.131,178.2426,-0.7296,-129.2918
P00008=0369.25641100,0004.14700000,378.131,178.2426,-0.7296,-129.2918
P00009=0369.57434475,0004.14700000,378.131,178.2426,-0.7296,-129.2918
P00010=0369.97044206,0004.14700000,378.131,178.2426,-0.7296,-129.2918
P00011=0370.45901319,0004.14700000,378.131,178.2426,-0.7296,-129.2918
P00012=0371.05565598,0004.14700000,378.131,178.2426,-0.7296,-129.2918
P00013=0371.77703191,0004.14700000,378.131,178.2426,-0.7296,-129.2918
P00014=0372.64054628,0004.14700000,378.131,178.2426,-0.7296,-129.2918
P00015=0373.66392917,0004.14700000,378.131,178.2426,-0.7296,-129.2918
P00016=0374.86472013,0004.14700000,378.131,178.2426,-0.7296,-129.2918
P00017=0376.25966592,0004.14700000,378.131,178.2426,-0.7296,-129.2918
P00018=0377.86404846,0004.14700000,378.131,178.2426,-0.7296,-129.2918
P00019=0379.69096702,0004.14700000,378.131,178.2426,-0.7296,-129.2918
P00020=0381.75060609,0004.14700000,378.131,178.2426,-0.7296,-129.2918
P00021=0384.04952539,0004.14700000,378.131,178.2426,-0.7296,-129.2918
P00022=0386.59001253,0004.14700000,378.131,178.2426,-0.7296,-129.2918
P00023=0389.36953986,0004.14700000,378.131,178.2426,-0.7296,-129.2918
P00024=0392.38036522,0004.14700000,378.131,178.2426,-0.7296,-129.2918
P00025=0395.60931178,0004.14700000,378.131,178.2426,-0.7296,-129.2918
P00026=0399.03775387,0004.14700000,378.131,178.2426,-0.7296,-129.2918
P00027=0402.64182584,0004.14700000,378.131,178.2426,-0.7296,-129.2918
P00028=0406.39285778,0004.14700000,378.131,178.2426,-0.7296,-129.2918
P00029=0410.25802906,0004.14700000,378.131,178.2426,-0.7296,-129.2918
P00030=0414.20121627,0004.14700000,378.131,178.2426,-0.7296,-129.2918
P00031=0418.18400000,0004.14700000,378.131,178.2426,-0.7296,-129.2918
P00032=0422.16678373,0004.14700000,378.131,178.2426,-0.7296,-129.2918
P00033=0426.10997094,0004.14700000,378.131,178.2426,-0.7296,-129.2918
P00034=0429.97514222,0004.14700000,378.131,178.2426,-0.7296,-129.2918
P00035=0433.72617416,0004.14700000,378.131,178.2426,-0.7296,-129.2918
P00036=0437.33024613,0004.14700000,378.131,178.2426,-0.7296,-129.2918
P00037=0440.75868822,0004.14700000,378.131,178.2426,-0.7296,-129.2918
P00038=0443.98763478,0004.14700000,378.131,178.2426,-0.7296,-129.2918
P00039=0446.99846014,0004.14700000,378.131,178.2426,-0.7296,-129.2918
P00040=0449.77798747,0004.14700000,378.131,178.2426,-0.7296,-129.2918
P00041=0452.31847461,0004.14700000,378.131,178.2426,-0.7296,-129.2918
P00042=0454.61739391,0004.14700000,378.131,178.2426,-0.7296,-129.2918
P00043=0456.67703298,0004.14700000,378.131,178.2426,-0.7296,-129.2918
P00044=0458.50395154,0004.14700000,378.131,178.2426,-0.7296,-129.2918
P00045=0460.10833408,0004.14700000,378.131,178.2426,-0.7296,-129.2918
P00046=0461.50327987,0004.14700000,378.131,178.2426,-0.7296,-129.2918
P00047=0462.70407083,0004.14700000,378.131,178.2426,-0.7296,-129.2918
P00048=0463.72745372,0004.14700000,378.131,178.2426,-0.7296,-129.2918
P00049=0464.59096809,0004.14700000,378.131,178.2426,-0.7296,-129.2918
P00050=0465.31234402,0004.14700000,378.131,178.2426,-0.7296,-129.2918
P00051=0465.90898681,0004.14700000,378.131,178.2426,-0.7296,-129.2918
P00052=0466.39755794,0004.14700000,378.131,178.2426,-0.7296,-129.2918
P00053=0466.79365525,0004.14700000,378.131,178.2426,-0.7296,-129.2918
P00054=0467.11158900,0004.14700000,378.131,178.2426,-0.7296,-129.2918
P00055=0467.36424641,0004.14700000,378.131,178.2426,-0.7296,-129.2918
P00056=0467.56303347,0004.14700000,378.131,178.2426,-0.7296,-129.2918
P00057=0467.71788120,0004.14700000,378.131,178.2426,-0.7296,-129.2918
P00058=0467.83730262,0004.14700000,378.131,178.2426,-0.7296,-129.2918
P00059=0467.92848697,0004.14700000,378.131,178.2426,-0.7296,-129.2918
P00060=0467.99741867,0004.14700000,378.131,178.2426,-0.7296,-129.2918
P00061=0303.08401020,0000.63200000,308.141,178.5590,4.5487,-19.7702
P00062=0303.03241867,0000.63200000,308.141,178.5590,4.5487,-19.7702
P00063=0302.96348697,0000.63200000,308.141,178.5590,4.5487,-19.7702
P00064=0302.87230262,0000.63200000,308.141,178.5590,4.5487,-19.7702
P00065=0302.75288120,0000.63200000,308.141,178.5590,4.5487,-19.7702
P00066=0302.59803347,0000.63200000,308.141,178.5590,4.5487,-19.7702
P00067=0302.39924641,0000.63200000,308.141,178.5590,4.5487,-19.7702
P00068=0302.14658900,0000.63200000,308.141,178.5590,4.5487,-19.7702
P00069=0301.82865525,0000.63200000,308.141,178.5590,4.5487,-19.7702
P00070=0301.43255794,0000.63200000,308.141,178.5590,4.5487,-19.7702
P00071=0300.94398681,0000.63200000,308.141,178.5590,4.5487,-19.7702
P00072=0300.34734402,0000.63200000,308.141,178.5590,4.5487,-19.7702
P00073=0299.62596809,0000.63200000,308.141,178.5590,4.5487,-19.7702
P00074=0298.76245372,0000.63200000,308.141,178.5590,4.5487,-19.7702
P00075=0297.73907083,0000.63200000,308.141,178.5590,4.5487,-19.7702
P00076=0296.53827987,0000.63200000,308.141,178.5590,4.5487,-19.7702
P00077=0295.14333408,0000.63200000,308.141,178.5590,4.5487,-19.7702
P00078=0293.53895154,0000.63200000,308.141,178.5590,4.5487,-19.7702
P00079=0291.71203298,0000.63200000,308.141,178.5590,4.5487,-19.7702
P00080=0289.65239391,0000.63200000,308.141,178.5590,4.5487,-19.7702
P00081=0287.35347461,0000.63200000,308.141,178.5590,4.5487,-19.7702
P00082=0284.81298747,0000.63200000,308.141,178.5590,4.5487,-19.7702
P00083=0282.03346014,0000.63200000,308.141,178.5590,4.5487,-19.7702
P00084=0279.02263478,0000.63200000,308.141,178.5590,4.5487,-19.7702
P00085=0275.79368822,0000.63200000,308.141,178.5590,4.5487,-19.7702
P00086=0272.36524613,0000.63200000,308.141,178.5590,4.5487,-19.7702
P00087=0268.76117416,0000.63200000,308.141,178.5590,4.5487,-19.7702
P00088=0265.01014222,0000.63200000,308.141,178.5590,4.5487,-19.7702
P00089=0261.14497094,0000.63200000,308.141,178.5590,4.5487,-19.7702
P00090=0257.20178373,0000.63200000,308.141,178.5590,4.5487,-19.7702
P00091=0253.21900000,0000.63200000,308.141,178.5590,4.5487,-19.7702
P00092=0249.23621627,0000.63200000,308.141,178.5590,4.5487,-19.7702
P00093=0245.29302906,0000.63200000,308.141,178.5590,4.5487,-19.7702
P00094=0241.42785778,0000.63200000,308.141,178.5590,4.5487,-19.7702
P00095=0237.67682584,0000.63200000,308.141,178.5590,4.5487,-19.7702
P00096=0234.07275387,0000.63200000,308.141,178.5590,4.5487,-19.7702
P00097=0230.64431178,0000.63200000,308.141,178.5590,4.5487,-19.7702
P00098=0227.41536522,0000.63200000,308.141,178.5590,4.5487,-19.7702
P00099=0224.40453986,0000.63200000,308.141,178.5590,4.5487,-19.7702
P00100=0221.62501253,0000.63200000,308.141,178.5590,4.5487,-19.7702
P00101=0219.08452539,0000.63200000,308.141,178.5590,4.5487,-19.7702
P00102=0216.78560609,0000.63200000,308.141,178.5590,4.5487,-19.7702
P00103=0214.72596702,0000.63200000,308.141,178.5590,4.5487,-19.7702
P00104=0212.89904846,0000.63200000,308.141,178.5590,4.5487,-19.7702
P00105=0211.29466592,0000.63200000,308.141,178.5590,4.5487,-19.7702
P00106=0209.89972013,0000.63200000,308.141,178.5590,4.5487,-19.7702
P00107=0208.69892917,0000.63200000,308.141,178.5590,4.5487,-19.7702
P00108=0207.67554628,0000.63200000,308.141,178.5590,4.5487,-19.7702
P00109=0206.81203191,0000.63200000,308.141,178.5590,4.5487,-19.7702
P00110=0206.09065598,0000.63200000,308.141,178.5590,4.5487,-19.7702
P00111=0205.49401319,0000.63200000,308.141,178.5590,4.5487,-19.7702
P00112=0205.00544206,0000.63200000,308.141,178.5590,4.5487,-19.7702
P00113=0204.60934475,0000.63200000,308.141,178.5590,4.5487,-19.7702
P00114=0204.29141100,0000.63200000,308.141,178.5590,4.5487,-19.7702
P00115=0204.03875359,0000.63200000,308.141,178.5590,4.5487,-19.7702
P00116=0203.83996653,0000.63200000,308.141,178.5590,4.5487,-19.7702
P00117=0203.68511880,0000.63200000,308.141,178.5590,4.5487,-19.7702
P00118=0203.56569738,0000.63200000,308.141,178.5590,4.5487,-19.7702
P00119=0203.47451303,0000.63200000,308.141,178.5590,4.5487,-19.7702
P00120=0203.40558133,0000.63200000,308.141,178.5590,4.5487,-19.7702
//INST
///DATE 2017/03/31 08:11
///COMM PLAYINGTWOROBOTS
///ATTR SC,RW
///GROUP1 RB1
///GROUP2 RB2
NOP
MOVL P00001 V=0003.2244704  +MOVL P00061 V=0003.2244704
MOVL P00002 V=0004.3082314  +MOVL P00062 V=0004.3082314
MOVL P00003 V=0005.6990217  +MOVL P00063 V=0005.6990217
MOVL P00004 V=0007.4638389  +MOVL P00064 V=0007.4638389
MOVL P00005 V=0009.6779831  +MOVL P00065 V=0009.6779831
MOVL P00006 V=0012.4241912  +MOVL P00066 V=0012.4241912
MOVL P00007 V=0015.7910881  +MOVL P00067 V=0015.7910881
MOVL P00008 V=0019.8708593  +MOVL P00068 V=0019.8708593
MOVL P00009 V=0024.7560816  +MOVL P00069 V=0024.7560816
MOVL P00010 V=0030.5356962  +MOVL P00070 V=0030.5356962
MOVL P00011 V=0037.2901742  +MOVL P00071 V=0037.2901742
MOVL P00012 V=0045.0859956  +MOVL P00072 V=0045.0859956
MOVL P00013 V=0053.9696478  +MOVL P00073 V=0053.9696478
MOVL P00014 V=0063.9614309  +MOVL P00074 V=0063.9614309
MOVL P00015 V=0075.0494348  +MOVL P00075 V=0075.0494348
MOVL P00016 V=0087.1841123  +MOVL P00076 V=0087.1841123
MOVL P00017 V=0100.2739084  +MOVL P00077 V=0100.2739084
MOVL P00018 V=0114.1824102  +MOVL P00078 V=0114.1824102
MOVL P00019 V=0128.7274420  +MOVL P00079 V=0128.7274420
MOVL P00020 V=0143.6824562  +MOVL P00080 V=0143.6824562
MOVL P00021 V=0158.7804463  +MOVL P00081 V=0158.7804463
MOVL P00022 V=0173.7204577  +MOVL P00082 V=0173.7204577
MOVL P00023 V=0188.1765852  +MOVL P00083 V=0188.1765852
MOVL P00024 V=0201.8091595  +MOVL P00084 V=0201.8091595
MOVL P00025 V=0214.2776311  +MOVL P00085 V=0214.2776311
MOVL P00026 V=0225.2544979  +MOVL P00086 V=0225.2544979
MOVL P00027 V=0234.4394964  +MOVL P00087 V=0234.4394964
MOVL P00028 V=0241.5732047  +MOVL P00088 V=0241.5732047
MOVL P00029 V=0246.4492010  +MOVL P00089 V=0246.4492010
MOVL P00030 V=0248.9239830  +MOVL P00090 V=0248.9239830
MOVL P00031 V=0248.9239830  +MOVL P00091 V=0248.9239830
MOVL P00032 V=0246.4492010  +MOVL P00092 V=0246.4492010
MOVL P00033 V=0241.5732047  +MOVL P00093 V=0241.5732047
MOVL P00034 V=0234.4394964  +MOVL P00094 V=0234.4394964
MOVL P00035 V=0225.2544979  +MOVL P00095 V=0225.2544979
MOVL P00036 V=0214.2776311  +MOVL P00096 V=0214.2776311
MOVL P00037 V=0201.8091595  +MOVL P00097 V=0201.8091595
MOVL P00038 V=0188.1765852  +MOVL P00098 V=0188.1765852
MOVL P00039 V=0173.7204577  +MOVL P00099 V=0173.7204577
MOVL P00040 V=0158.7804463  +MOVL P00100 V=0158.7804463
MOVL P00041 V=0143.6824562  +MOVL P00101 V=0143.6824562
MOVL P00042 V=0128.7274420  +MOVL P00102 V=0128.7274420
MOVL P00043 V=0114.1824102  +MOVL P00103 V=0114.1824102
MOVL P00044 V=0100.2739084  +MOVL P00104 V=0100.2739084
MOVL P00045 V=0087.1841123  +MOVL P00105 V=0087.1841123
MOVL P00046 V=0075.0494348  +MOVL P00106 V=0075.0494348
MOVL P00047 V=0063.9614309  +MOVL P00107 V=0063.9614309
MOVL P00048 V=0053.9696478  +MOVL P00108 V=0053.9696478
MOVL P00049 V=0045.0859956  +MOVL P00109 V=0045.0859956
MOVL P00050 V=0037.2901742  +MOVL P00110 V=0037.2901742
MOVL P00051 V=0030.5356962  +MOVL P00111 V=0030.5356962
MOVL P00052 V=0024.7560816  +MOVL P00112 V=0024.7560816
MOVL P00053 V=0019.8708593  +MOVL P00113 V=0019.8708593
MOVL P00054 V=0015.7910881  +MOVL P00114 V=0015.7910881
MOVL P00055 V=0012.4241912  +MOVL P00115 V=0012.4241912
MOVL P00056 V=0009.6779831  +MOVL P00116 V=0009.6779831
MOVL P00057 V=0007.4638389  +MOVL P00117 V=0007.4638389
MOVL P00058 V=0005.6990217  +MOVL P00118 V=0005.6990217
MOVL P00059 V=0004.3082314  +MOVL P00119 V=0004.3082314
MOVL P00060 V=0004.3082314  +MOVL P00120 V=0004.3082314
END
