/JOB
//NAME GAUSSIANMOVING2
//POS
///NPOS 0,0,0,61,0,0
///TOOL 0
///POSTYPE ROBOT
///RECTAN
///RCONF 0,0,0,0,0,0,0,0,0,0,0,0,0,0,0,0,0,0,0,0,0,0,0,0
P00000=10.000,0.000,0.000,0.0000,0.0000,0.0000
///POSTYPE BASE
///TOOL1
P00001=0679.52067093,0008.64409562,0898.48000000,0180.00000000,0000.00000000,0000.00000000
P00002=0679.51722435,0008.63812596,0898.48000000,0180.00000000,0000.00000000,0000.00000000
P00003=0679.51266513,0008.63022916,0898.48000000,0180.00000000,0000.00000000,0000.00000000
P00004=0679.50669406,0008.61988697,0898.48000000,0180.00000000,0000.00000000,0000.00000000
P00005=0679.49895167,0008.60647676,0898.48000000,0180.00000000,0000.00000000,0000.00000000
P00006=0679.48901232,0008.58926129,0898.48000000,0180.00000000,0000.00000000,0000.00000000
P00007=0679.47637945,0008.56738052,0898.48000000,0180.00000000,0000.00000000,0000.00000000
P00008=0679.46048276,0008.53984665,0898.48000000,0180.00000000,0000.00000000,0000.00000000
P00009=0679.44067790,0008.50554362,0898.48000000,0180.00000000,0000.00000000,0000.00000000
P00010=0679.41624934,0008.46323212,0898.48000000,0180.00000000,0000.00000000,0000.00000000
P00011=0679.38641720,0008.41156133,0898.48000000,0180.00000000,0000.00000000,0000.00000000
P00012=0679.35034840,0008.34908835,0898.48000000,0180.00000000,0000.00000000,0000.00000000
P00013=0679.30717269,0008.27430581,0898.48000000,0180.00000000,0000.00000000,0000.00000000
P00014=0679.25600354,0008.18567825,0898.48000000,0180.00000000,0000.00000000,0000.00000000
P00015=0679.19596399,0008.08168670,0898.48000000,0180.00000000,0000.00000000,0000.00000000
P00016=0679.12621670,0007.96088085,0898.48000000,0180.00000000,0000.00000000,0000.00000000
P00017=0679.04599758,0007.82193725,0898.48000000,0180.00000000,0000.00000000,0000.00000000
P00018=0678.95465165,0007.66372146,0898.48000000,0180.00000000,0000.00000000,0000.00000000
P00019=0678.85166970,0007.48535149,0898.48000000,0180.00000000,0000.00000000,0000.00000000
P00020=0678.73672373,0007.28625923,0898.48000000,0180.00000000,0000.00000000,0000.00000000
P00021=0678.60969937,0007.06624659,0898.48000000,0180.00000000,0000.00000000,0000.00000000
P00022=0678.47072301,0006.82553247,0898.48000000,0180.00000000,0000.00000000,0000.00000000
P00023=0678.32018174,0006.56478734,0898.48000000,0180.00000000,0000.00000000,0000.00000000
P00024=0678.15873441,0006.28515237,0898.48000000,0180.00000000,0000.00000000,0000.00000000
P00025=0677.98731231,0005.98824057,0898.48000000,0180.00000000,0000.00000000,0000.00000000
P00026=0677.80710871,0005.67611878,0898.48000000,0180.00000000,0000.00000000,0000.00000000
P00027=0677.61955711,0005.35126989,0898.48000000,0180.00000000,0000.00000000,0000.00000000
P00028=0677.42629855,0005.01653624,0898.48000000,0180.00000000,0000.00000000,0000.00000000
P00029=0677.22913919,0004.67504621,0898.48000000,0180.00000000,0000.00000000,0000.00000000
P00030=0677.03000000,0004.33012702,0898.48000000,0180.00000000,0000.00000000,0000.00000000
P00031=0676.83086081,0003.98520783,0898.48000000,0180.00000000,0000.00000000,0000.00000000
P00032=0676.63370145,0003.64371780,0898.48000000,0180.00000000,0000.00000000,0000.00000000
P00033=0676.44044289,0003.30898415,0898.48000000,0180.00000000,0000.00000000,0000.00000000
P00034=0676.25289129,0002.98413525,0898.48000000,0180.00000000,0000.00000000,0000.00000000
P00035=0676.07268769,0002.67201347,0898.48000000,0180.00000000,0000.00000000,0000.00000000
P00036=0675.90126559,0002.37510167,0898.48000000,0180.00000000,0000.00000000,0000.00000000
P00037=0675.73981826,0002.09546670,0898.48000000,0180.00000000,0000.00000000,0000.00000000
P00038=0675.58927699,0001.83472157,0898.48000000,0180.00000000,0000.00000000,0000.00000000
P00039=0675.45030063,0001.59400744,0898.48000000,0180.00000000,0000.00000000,0000.00000000
P00040=0675.32327627,0001.37399480,0898.48000000,0180.00000000,0000.00000000,0000.00000000
P00041=0675.20833030,0001.17490255,0898.48000000,0180.00000000,0000.00000000,0000.00000000
P00042=0675.10534835,0000.99653258,0898.48000000,0180.00000000,0000.00000000,0000.00000000
P00043=0675.01400242,0000.83831679,0898.48000000,0180.00000000,0000.00000000,0000.00000000
P00044=0674.93378330,0000.69937318,0898.48000000,0180.00000000,0000.00000000,0000.00000000
P00045=0674.86403601,0000.57856733,0898.48000000,0180.00000000,0000.00000000,0000.00000000
P00046=0674.80399646,0000.47457579,0898.48000000,0180.00000000,0000.00000000,0000.00000000
P00047=0674.75282731,0000.38594823,0898.48000000,0180.00000000,0000.00000000,0000.00000000
P00048=0674.70965160,0000.31116569,0898.48000000,0180.00000000,0000.00000000,0000.00000000
P00049=0674.67358280,0000.24869270,0898.48000000,0180.00000000,0000.00000000,0000.00000000
P00050=0674.64375066,0000.19702192,0898.48000000,0180.00000000,0000.00000000,0000.00000000
P00051=0674.61932210,0000.15471042,0898.48000000,0180.00000000,0000.00000000,0000.00000000
P00052=0674.59951724,0000.12040739,0898.48000000,0180.00000000,0000.00000000,0000.00000000
P00053=0674.58362055,0000.09287352,0898.48000000,0180.00000000,0000.00000000,0000.00000000
P00054=0674.57098768,0000.07099274,0898.48000000,0180.00000000,0000.00000000,0000.00000000
P00055=0674.56104833,0000.05377728,0898.48000000,0180.00000000,0000.00000000,0000.00000000
P00056=0674.55330594,0000.04036707,0898.48000000,0180.00000000,0000.00000000,0000.00000000
P00057=0674.54733487,0000.03002487,0898.48000000,0180.00000000,0000.00000000,0000.00000000
P00058=0674.54277565,0000.02212808,0898.48000000,0180.00000000,0000.00000000,0000.00000000
P00059=0674.53932907,0000.01615842,0898.48000000,0180.00000000,0000.00000000,0000.00000000
P00060=0674.53674949,0000.01169046,0898.48000000,0180.00000000,0000.00000000,0000.00000000
//INST
///DATE 2017/03/31 08:11
///ATTR SC,RW
///GROUP1 RB2
NOP
DOUT OT#(15) ON
MOVL P00001 V=0000.4308231
MOVL P00002 V=0000.5699022
MOVL P00003 V=0000.7463839
MOVL P00004 V=0000.9677983
MOVL P00005 V=0001.2424191
MOVL P00006 V=0001.5791088
MOVL P00007 V=0001.9870859
MOVL P00008 V=0002.4756082
MOVL P00009 V=0003.0535696
MOVL P00010 V=0003.7290174
MOVL P00011 V=0004.5085996
MOVL P00012 V=0005.3969648
MOVL P00013 V=0006.3961431
MOVL P00014 V=0007.5049435
MOVL P00015 V=0008.7184112
MOVL P00016 V=0010.0273908
MOVL P00017 V=0011.4182410
MOVL P00018 V=0012.8727442
MOVL P00019 V=0014.3682456
MOVL P00020 V=0015.8780446
MOVL P00021 V=0017.3720458
MOVL P00022 V=0018.8176585
MOVL P00023 V=0020.1809160
MOVL P00024 V=0021.4277631
MOVL P00025 V=0022.5254498
MOVL P00026 V=0023.4439496
MOVL P00027 V=0024.1573205
MOVL P00028 V=0024.6449201
MOVL P00029 V=0024.8923983
MOVL P00030 V=0024.8923983
MOVL P00031 V=0024.6449201
MOVL P00032 V=0024.1573205
MOVL P00033 V=0023.4439496
MOVL P00034 V=0022.5254498
MOVL P00035 V=0021.4277631
MOVL P00036 V=0020.1809160
MOVL P00037 V=0018.8176585
MOVL P00038 V=0017.3720458
MOVL P00039 V=0015.8780446
MOVL P00040 V=0014.3682456
MOVL P00041 V=0012.8727442
MOVL P00042 V=0011.4182410
MOVL P00043 V=0010.0273908
MOVL P00044 V=0008.7184112
MOVL P00045 V=0007.5049435
MOVL P00046 V=0006.3961431
MOVL P00047 V=0005.3969648
MOVL P00048 V=0004.5085996
MOVL P00049 V=0003.7290174
MOVL P00050 V=0003.0535696
MOVL P00051 V=0002.4756082
MOVL P00052 V=0001.9870859
MOVL P00053 V=0001.5791088
MOVL P00054 V=0001.2424191
MOVL P00055 V=0000.9677983
MOVL P00056 V=0000.7463839
MOVL P00057 V=0000.5699022
MOVL P00058 V=0000.4308231
MOVL P00059 V=0000.3224470
MOVL P00060 V=0000.3224470
DOUT OT#(15) OFF
END
