/JOB
//NAME GAUSSIANMOVING2
//POS
///NPOS 0,0,0,61,0,0
///TOOL 0
///POSTYPE ROBOT
///RECTAN
///RCONF 0,0,0,0,0,0,0,0,0,0,0,0,0,0,0,0,0,0,0,0,0,0,0,0
P00000=10.000,0.000,0.000,0.0000,0.0000,0.0000
///POSTYPE BASE
P00001=0368.28822402,0004.10970712,0538.85800000,-0000.57780000,-0000.47430000,-0050.70270000,
P00002=0368.32843941,0004.10042267,0538.85800000,-0000.57780000,-0000.47430000,-0050.70270000,
P00003=0368.38217140,0004.08801766,0538.85800000,-0000.57780000,-0000.47430000,-0050.70270000,
P00004=0368.45324924,0004.07160805,0538.85800000,-0000.57780000,-0000.47430000,-0050.70270000,
P00005=0368.54633777,0004.05011687,0538.85800000,-0000.57780000,-0000.47430000,-0050.70270000,
P00006=0368.66704096,0004.02225034,0538.85800000,-0000.57780000,-0000.47430000,-0050.70270000,
P00007=0368.82199469,0003.98647645,0538.85800000,-0000.57780000,-0000.47430000,-0050.70270000,
P00008=0369.01894014,0003.94100801,0538.85800000,-0000.57780000,-0000.47430000,-0050.70270000,
P00009=0369.26676824,0003.88379239,0538.85800000,-0000.57780000,-0000.47430000,-0050.70270000,
P00010=0369.57552453,0003.81251038,0538.85800000,-0000.57780000,-0000.47430000,-0050.70270000,
P00011=0369.95636380,0003.72458671,0538.85800000,-0000.57780000,-0000.47430000,-0050.70270000,
P00012=0370.42144450,0003.61721437,0538.85800000,-0000.57780000,-0000.47430000,-0050.70270000,
P00013=0370.98375419,0003.48739495,0538.85800000,-0000.57780000,-0000.47430000,-0050.70270000,
P00014=0371.65686023,0003.33199617,0538.85800000,-0000.57780000,-0000.47430000,-0050.70270000,
P00015=0372.45458315,0003.14782732,0538.85800000,-0000.57780000,-0000.47430000,-0050.70270000,
P00016=0373.39059496,0002.93173197,0538.85800000,-0000.57780000,-0000.47430000,-0050.70270000,
P00017=0374.47794970,0002.68069635,0538.85800000,-0000.57780000,-0000.47430000,-0050.70270000,
P00018=0375.72855955,0002.39197031,0538.85800000,-0000.57780000,-0000.47430000,-0050.70270000,
P00019=0377.15263536,0002.06319651,0538.85800000,-0000.57780000,-0000.47430000,-0050.70270000,
P00020=0378.75811589,0001.69254212,0538.85800000,-0000.57780000,-0000.47430000,-0050.70270000,
P00021=0380.55011440,0001.27882667,0538.85800000,-0000.57780000,-0000.47430000,-0050.70270000,
P00022=0382.53041410,0000.82163846,0538.85800000,-0000.57780000,-0000.47430000,-0050.70270000,
P00023=0384.69704468,0000.32143238,0538.85800000,-0000.57780000,-0000.47430000,-0050.70270000,
P00024=0387.04397116,-0000.22039829,0538.85800000,-0000.57780000,-0000.47430000,-0050.70270000,
P00025=0389.56092225,-0000.80148224,0538.85800000,-0000.57780000,-0000.47430000,-0050.70270000,
P00026=0392.23337933,-0001.41846757,0538.85800000,-0000.57780000,-0000.47430000,-0050.70270000,
P00027=0395.04273920,-0002.06705940,0538.85800000,-0000.57780000,-0000.47430000,-0050.70270000,
P00028=0397.96665379,-0002.74209827,0538.85800000,-0000.57780000,-0000.47430000,-0050.70270000,
P00029=0400.97953953,-0003.43767776,0538.85800000,-0000.57780000,-0000.47430000,-0050.70270000,
P00030=0404.05323840,-0004.14729705,0538.85800000,-0000.57780000,-0000.47430000,-0050.70270000,
P00031=0407.15780259,-0004.86404217,0538.85800000,-0000.57780000,-0000.47430000,-0050.70270000,
P00032=0410.26236678,-0005.58078729,0538.85800000,-0000.57780000,-0000.47430000,-0050.70270000,
P00033=0413.33606565,-0006.29040659,0538.85800000,-0000.57780000,-0000.47430000,-0050.70270000,
P00034=0416.34895140,-0006.98598607,0538.85800000,-0000.57780000,-0000.47430000,-0050.70270000,
P00035=0419.27286599,-0007.66102495,0538.85800000,-0000.57780000,-0000.47430000,-0050.70270000,
P00036=0422.08222586,-0008.30961678,0538.85800000,-0000.57780000,-0000.47430000,-0050.70270000,
P00037=0424.75468293,-0008.92660211,0538.85800000,-0000.57780000,-0000.47430000,-0050.70270000,
P00038=0427.27163402,-0009.50768605,0538.85800000,-0000.57780000,-0000.47430000,-0050.70270000,
P00039=0429.61856051,-0010.04951673,0538.85800000,-0000.57780000,-0000.47430000,-0050.70270000,
P00040=0431.78519108,-0010.54972281,0538.85800000,-0000.57780000,-0000.47430000,-0050.70270000,
P00041=0433.76549078,-0011.00691102,0538.85800000,-0000.57780000,-0000.47430000,-0050.70270000,
P00042=0435.55748930,-0011.42062647,0538.85800000,-0000.57780000,-0000.47430000,-0050.70270000,
P00043=0437.16296982,-0011.79128086,0538.85800000,-0000.57780000,-0000.47430000,-0050.70270000,
P00044=0438.58704563,-0012.12005466,0538.85800000,-0000.57780000,-0000.47430000,-0050.70270000,
P00045=0439.83765548,-0012.40878070,0538.85800000,-0000.57780000,-0000.47430000,-0050.70270000,
P00046=0440.92501022,-0012.65981632,0538.85800000,-0000.57780000,-0000.47430000,-0050.70270000,
P00047=0441.86102203,-0012.87591167,0538.85800000,-0000.57780000,-0000.47430000,-0050.70270000,
P00048=0442.65874496,-0013.06008052,0538.85800000,-0000.57780000,-0000.47430000,-0050.70270000,
P00049=0443.33185099,-0013.21547929,0538.85800000,-0000.57780000,-0000.47430000,-0050.70270000,
P00050=0443.89416068,-0013.34529871,0538.85800000,-0000.57780000,-0000.47430000,-0050.70270000,
P00051=0444.35924138,-0013.45267105,0538.85800000,-0000.57780000,-0000.47430000,-0050.70270000,
P00052=0444.74008065,-0013.54059473,0538.85800000,-0000.57780000,-0000.47430000,-0050.70270000,
P00053=0445.04883694,-0013.61187673,0538.85800000,-0000.57780000,-0000.47430000,-0050.70270000,
P00054=0445.29666504,-0013.66909236,0538.85800000,-0000.57780000,-0000.47430000,-0050.70270000,
P00055=0445.49361049,-0013.71456080,0538.85800000,-0000.57780000,-0000.47430000,-0050.70270000,
P00056=0445.64856422,-0013.75033469,0538.85800000,-0000.57780000,-0000.47430000,-0050.70270000,
P00057=0445.76926742,-0013.77820121,0538.85800000,-0000.57780000,-0000.47430000,-0050.70270000,
P00058=0445.86235594,-0013.79969239,0538.85800000,-0000.57780000,-0000.47430000,-0050.70270000,
P00059=0445.93343378,-0013.81610201,0538.85800000,-0000.57780000,-0000.47430000,-0050.70270000,
P00060=0445.98716577,-0013.82850701,0538.85800000,-0000.57780000,-0000.47430000,-0050.70270000,
//INST
///DATE 2017/03/31 08:11
///ATTR SC,RW
///GROUP1 RB1
NOP
MOVL P00001 V=0002.5795763
MOVL P00002 V=0003.4465852
MOVL P00003 V=0004.5592174
MOVL P00004 V=0005.9710711
MOVL P00005 V=0007.7423865
MOVL P00006 V=0009.9393530
MOVL P00007 V=0012.6328705
MOVL P00008 V=0015.8966875
MOVL P00009 V=0019.8048652
MOVL P00010 V=0024.4285569
MOVL P00011 V=0029.8321393
MOVL P00012 V=0036.0687965
MOVL P00013 V=0043.1757182
MOVL P00014 V=0051.1691447
MOVL P00015 V=0060.0395478
MOVL P00016 V=0069.7472898
MOVL P00017 V=0080.2191268
MOVL P00018 V=0091.3459282
MOVL P00019 V=0102.9819536
MOVL P00020 V=0114.9459649
MOVL P00021 V=0127.0243571
MOVL P00022 V=0138.9763662
MOVL P00023 V=0150.5412682
MOVL P00024 V=0161.4473276
MOVL P00025 V=0171.4221049
MOVL P00026 V=0180.2035983
MOVL P00027 V=0187.5515971
MOVL P00028 V=0193.2585637
MOVL P00029 V=0197.1593608
MOVL P00030 V=0199.1391864
MOVL P00031 V=0199.1391864
MOVL P00032 V=0197.1593608
MOVL P00033 V=0193.2585637
MOVL P00034 V=0187.5515971
MOVL P00035 V=0180.2035983
MOVL P00036 V=0171.4221049
MOVL P00037 V=0161.4473276
MOVL P00038 V=0150.5412682
MOVL P00039 V=0138.9763662
MOVL P00040 V=0127.0243571
MOVL P00041 V=0114.9459649
MOVL P00042 V=0102.9819536
MOVL P00043 V=0091.3459282
MOVL P00044 V=0080.2191268
MOVL P00045 V=0069.7472898
MOVL P00046 V=0060.0395478
MOVL P00047 V=0051.1691447
MOVL P00048 V=0043.1757182
MOVL P00049 V=0036.0687965
MOVL P00050 V=0029.8321393
MOVL P00051 V=0024.4285569
MOVL P00052 V=0019.8048652
MOVL P00053 V=0015.8966875
MOVL P00054 V=0012.6328705
MOVL P00055 V=0009.9393530
MOVL P00056 V=0007.7423865
MOVL P00057 V=0005.9710711
MOVL P00058 V=0004.5592174
MOVL P00059 V=0003.4465852
MOVL P00060 V=0003.4465852
END
