/JOB
//NAME GAUSSIANMOVING2
//POS
///NPOS 0,0,0,61,0,0
///TOOL 0
///POSTYPE ROBOT
///RECTAN
///RCONF 0,0,0,0,0,0,0,0,0,0,0,0,0,0,0,0,0,0,0,0,0,0,0,0
P00000=10.000,0.000,0.000,0.0000,0.0000,0.0000
///POSTYPE BASE
///TOOL0
P00001=0272.80500000,-0000.17548674,0483.09500000,0000.00000000,0000.00400000,0180.00000000,
P00002=0272.80500000,-0000.24255573,0483.09500000,0000.00000000,0000.00400000,0180.00000000,
P00003=0272.80500000,-0000.33216694,0483.09500000,0000.00000000,0000.00400000,0180.00000000,
P00004=0272.80500000,-0000.45070659,0483.09500000,0000.00000000,0000.00400000,0180.00000000,
P00005=0272.80500000,-0000.60595444,0483.09500000,0000.00000000,0000.00400000,0180.00000000,
P00006=0272.80500000,-0000.80725649,0483.09500000,0000.00000000,0000.00400000,0180.00000000,
P00007=0272.80500000,-0001.06567967,0483.09500000,0000.00000000,0000.00400000,0180.00000000,
P00008=0272.80500000,-0001.39413430,0483.09500000,0000.00000000,0000.00400000,0180.00000000,
P00009=0272.80500000,-0001.80744818,0483.09500000,0000.00000000,0000.00400000,0180.00000000,
P00010=0272.80500000,-0002.32237467,0483.09500000,0000.00000000,0000.00400000,0180.00000000,
P00011=0272.80500000,-0002.95751715,0483.09500000,0000.00000000,0000.00400000,0180.00000000,
P00012=0272.80500000,-0003.73315278,0483.09500000,0000.00000000,0000.00400000,0180.00000000,
P00013=0272.80500000,-0004.67094148,0483.09500000,0000.00000000,0000.00400000,0180.00000000,
P00014=0272.80500000,-0005.79351016,0483.09500000,0000.00000000,0000.00400000,0180.00000000,
P00015=0272.80500000,-0007.12390792,0483.09500000,0000.00000000,0000.00400000,0180.00000000,
P00016=0272.80500000,-0008.68493616,0483.09500000,0000.00000000,0000.00400000,0180.00000000,
P00017=0272.80500000,-0010.49836570,0483.09500000,0000.00000000,0000.00400000,0180.00000000,
P00018=0272.80500000,-0012.58406300,0483.09500000,0000.00000000,0000.00400000,0180.00000000,
P00019=0272.80500000,-0014.95905713,0483.09500000,0000.00000000,0000.00400000,0180.00000000,
P00020=0272.80500000,-0017.63658792,0483.09500000,0000.00000000,0000.00400000,0180.00000000,
P00021=0272.80500000,-0020.62518301,0483.09500000,0000.00000000,0000.00400000,0180.00000000,
P00022=0272.80500000,-0023.92781630,0483.09500000,0000.00000000,0000.00400000,0180.00000000,
P00023=0272.80500000,-0027.54120182,0483.09500000,0000.00000000,0000.00400000,0180.00000000,
P00024=0272.80500000,-0031.45527479,0483.09500000,0000.00000000,0000.00400000,0180.00000000,
P00025=0272.80500000,-0035.65290531,0483.09500000,0000.00000000,0000.00400000,0180.00000000,
P00026=0272.80500000,-0040.10988003,0483.09500000,0000.00000000,0000.00400000,0180.00000000,
P00027=0272.80500000,-0044.79517359,0483.09500000,0000.00000000,0000.00400000,0180.00000000,
P00028=0272.80500000,-0049.67151512,0483.09500000,0000.00000000,0000.00400000,0180.00000000,
P00029=0272.80500000,-0054.69623777,0483.09500000,0000.00000000,0000.00400000,0180.00000000,
P00030=0272.80500000,-0059.82238115,0483.09500000,0000.00000000,0000.00400000,0180.00000000,
P00031=0272.80500000,-0065.00000000,0483.09500000,0000.00000000,0000.00400000,0180.00000000,
P00032=0272.80500000,-0070.17761885,0483.09500000,0000.00000000,0000.00400000,0180.00000000,
P00033=0272.80500000,-0075.30376223,0483.09500000,0000.00000000,0000.00400000,0180.00000000,
P00034=0272.80500000,-0080.32848488,0483.09500000,0000.00000000,0000.00400000,0180.00000000,
P00035=0272.80500000,-0085.20482641,0483.09500000,0000.00000000,0000.00400000,0180.00000000,
P00036=0272.80500000,-0089.89011997,0483.09500000,0000.00000000,0000.00400000,0180.00000000,
P00037=0272.80500000,-0094.34709469,0483.09500000,0000.00000000,0000.00400000,0180.00000000,
P00038=0272.80500000,-0098.54472521,0483.09500000,0000.00000000,0000.00400000,0180.00000000,
P00039=0272.80500000,-0102.45879818,0483.09500000,0000.00000000,0000.00400000,0180.00000000,
P00040=0272.80500000,-0106.07218370,0483.09500000,0000.00000000,0000.00400000,0180.00000000,
P00041=0272.80500000,-0109.37481699,0483.09500000,0000.00000000,0000.00400000,0180.00000000,
P00042=0272.80500000,-0112.36341208,0483.09500000,0000.00000000,0000.00400000,0180.00000000,
P00043=0272.80500000,-0115.04094287,0483.09500000,0000.00000000,0000.00400000,0180.00000000,
P00044=0272.80500000,-0117.41593700,0483.09500000,0000.00000000,0000.00400000,0180.00000000,
P00045=0272.80500000,-0119.50163430,0483.09500000,0000.00000000,0000.00400000,0180.00000000,
P00046=0272.80500000,-0121.31506384,0483.09500000,0000.00000000,0000.00400000,0180.00000000,
P00047=0272.80500000,-0122.87609208,0483.09500000,0000.00000000,0000.00400000,0180.00000000,
P00048=0272.80500000,-0124.20648984,0483.09500000,0000.00000000,0000.00400000,0180.00000000,
P00049=0272.80500000,-0125.32905852,0483.09500000,0000.00000000,0000.00400000,0180.00000000,
P00050=0272.80500000,-0126.26684722,0483.09500000,0000.00000000,0000.00400000,0180.00000000,
P00051=0272.80500000,-0127.04248285,0483.09500000,0000.00000000,0000.00400000,0180.00000000,
P00052=0272.80500000,-0127.67762533,0483.09500000,0000.00000000,0000.00400000,0180.00000000,
P00053=0272.80500000,-0128.19255182,0483.09500000,0000.00000000,0000.00400000,0180.00000000,
P00054=0272.80500000,-0128.60586570,0483.09500000,0000.00000000,0000.00400000,0180.00000000,
P00055=0272.80500000,-0128.93432033,0483.09500000,0000.00000000,0000.00400000,0180.00000000,
P00056=0272.80500000,-0129.19274351,0483.09500000,0000.00000000,0000.00400000,0180.00000000,
P00057=0272.80500000,-0129.39404556,0483.09500000,0000.00000000,0000.00400000,0180.00000000,
P00058=0272.80500000,-0129.54929341,0483.09500000,0000.00000000,0000.00400000,0180.00000000,
P00059=0272.80500000,-0129.66783306,0483.09500000,0000.00000000,0000.00400000,0180.00000000,
P00060=0272.80500000,-0129.75744427,0483.09500000,0000.00000000,0000.00400000,0180.00000000,
//INST
///DATE 2017/03/31 08:11
///ATTR SC,RW
///GROUP1 RB1
NOP
DOUT OT#(1) ON
DOUT OT#(2) OFF
DOUT OT#(3) OFF
DOUT OT#(4) OFF
DOUT OT#(5) OFF
DOUT OT#(6) OFF
DOUT OT#(7) OFF
DOUT OT#(8) OFF
MOVL P00001 V=0004.1918116
MOVL P00002 V=0005.6007009
MOVL P00003 V=0007.4087282
MOVL P00004 V=0009.7029905
MOVL P00005 V=0012.5813781
MOVL P00006 V=0016.1514486
MOVL P00007 V=0020.5284145
MOVL P00008 V=0025.8321171
MOVL P00009 V=0032.1829060
MOVL P00010 V=0039.6964050
MOVL P00011 V=0048.4772264
MOVL P00012 V=0058.6117943
MOVL P00013 V=0070.1605421
MOVL P00014 V=0083.1498601
MOVL P00015 V=0097.5642653
MOVL P00016 V=0113.3393460
MOVL P00017 V=0130.3560810
MOVL P00018 V=0148.4371333
MOVL P00019 V=0167.3456746
MOVL P00020 V=0186.7871930
MOVL P00021 V=0206.4145802
MOVL P00022 V=0225.8365950
MOVL P00023 V=0244.6295608
MOVL P00024 V=0262.3519074
MOVL P00025 V=0278.5609204
MOVL P00026 V=0292.8308473
MOVL P00027 V=0304.7713453
MOVL P00028 V=0314.0451661
MOVL P00029 V=0320.3839613
MOVL P00030 V=0323.6011779
MOVL P00031 V=0323.6011779
MOVL P00032 V=0320.3839613
MOVL P00033 V=0314.0451661
MOVL P00034 V=0304.7713453
MOVL P00035 V=0292.8308473
MOVL P00036 V=0278.5609204
MOVL P00037 V=0262.3519074
MOVL P00038 V=0244.6295608
MOVL P00039 V=0225.8365950
MOVL P00040 V=0206.4145802
MOVL P00041 V=0186.7871930
MOVL P00042 V=0167.3456746
MOVL P00043 V=0148.4371333
MOVL P00044 V=0130.3560810
MOVL P00045 V=0113.3393460
MOVL P00046 V=0097.5642653
MOVL P00047 V=0083.1498601
MOVL P00048 V=0070.1605421
MOVL P00049 V=0058.6117943
MOVL P00050 V=0048.4772264
MOVL P00051 V=0039.6964050
MOVL P00052 V=0032.1829060
MOVL P00053 V=0025.8321171
MOVL P00054 V=0020.5284145
MOVL P00055 V=0016.1514486
MOVL P00056 V=0012.5813781
MOVL P00057 V=0009.7029905
MOVL P00058 V=0007.4087282
MOVL P00059 V=0005.6007009
MOVL P00060 V=0005.6007009
DOUT OT#(2) OFF
DOUT OT#(3) OFF
DOUT OT#(4) OFF
DOUT OT#(5) OFF
DOUT OT#(6) OFF
DOUT OT#(7) ON
DOUT OT#(8) ON
DOUT OT#(1) OFF
END
