/JOB
//NAME GAUSSIANMOVING2
//POS
///NPOS 0,0,0,61,0,0
///TOOL 0
///POSTYPE ROBOT
///RECTAN
///RCONF 0,0,0,0,0,0,0,0,0,0,0,0,0,0,0,0,0,0,0,0,0,0,0,0
P00000=10.000,0.000,0.000,0.0000,0.0000,0.0000
///POSTYPE BASE
///TOOL0
P00001=0597.75835467,-0043.22047810,0523.09500000,0000.00000000,0000.00400000,0180.00000000,
P00002=0597.74112174,-0043.19062980,0523.09500000,0000.00000000,0000.00400000,0180.00000000,
P00003=0597.71832565,-0043.15114582,0523.09500000,0000.00000000,0000.00400000,0180.00000000,
P00004=0597.68847030,-0043.09943483,0523.09500000,0000.00000000,0000.00400000,0180.00000000,
P00005=0597.64975837,-0043.03238379,0523.09500000,0000.00000000,0000.00400000,0180.00000000,
P00006=0597.60006160,-0042.94630647,0523.09500000,0000.00000000,0000.00400000,0180.00000000,
P00007=0597.53689725,-0042.83690260,0523.09500000,0000.00000000,0000.00400000,0180.00000000,
P00008=0597.45741381,-0042.69923325,0523.09500000,0000.00000000,0000.00400000,0180.00000000,
P00009=0597.35838949,-0042.52771809,0523.09500000,0000.00000000,0000.00400000,0180.00000000,
P00010=0597.23624670,-0042.31616058,0523.09500000,0000.00000000,0000.00400000,0180.00000000,
P00011=0597.08708600,-0042.05780667,0523.09500000,0000.00000000,0000.00400000,0180.00000000,
P00012=0596.90674202,-0041.74544173,0523.09500000,0000.00000000,0000.00400000,0180.00000000,
P00013=0596.69086343,-0041.37152905,0523.09500000,0000.00000000,0000.00400000,0180.00000000,
P00014=0596.43501771,-0040.92839125,0523.09500000,0000.00000000,0000.00400000,0180.00000000,
P00015=0596.13481997,-0040.40843352,0523.09500000,0000.00000000,0000.00400000,0180.00000000,
P00016=0595.78608352,-0039.80440427,0523.09500000,0000.00000000,0000.00400000,0180.00000000,
P00017=0595.38498789,-0039.10968625,0523.09500000,0000.00000000,0000.00400000,0180.00000000,
P00018=0594.92825824,-0038.31860731,0523.09500000,0000.00000000,0000.00400000,0180.00000000,
P00019=0594.41334848,-0037.42675743,0523.09500000,0000.00000000,0000.00400000,0180.00000000,
P00020=0593.83861865,-0036.43129617,0523.09500000,0000.00000000,0000.00400000,0180.00000000,
P00021=0593.20349687,-0035.33123297,0523.09500000,0000.00000000,0000.00400000,0180.00000000,
P00022=0592.50861504,-0034.12766233,0523.09500000,0000.00000000,0000.00400000,0180.00000000,
P00023=0591.75590869,-0032.82393671,0523.09500000,0000.00000000,0000.00400000,0180.00000000,
P00024=0590.94867206,-0031.42576184,0523.09500000,0000.00000000,0000.00400000,0180.00000000,
P00025=0590.09156153,-0029.94120286,0523.09500000,0000.00000000,0000.00400000,0180.00000000,
P00026=0589.19054354,-0028.38059392,0523.09500000,0000.00000000,0000.00400000,0180.00000000,
P00027=0588.25278555,-0026.75634945,0523.09500000,0000.00000000,0000.00400000,0180.00000000,
P00028=0587.28649274,-0025.08268119,0523.09500000,0000.00000000,0000.00400000,0180.00000000,
P00029=0586.30069593,-0023.37523104,0523.09500000,0000.00000000,0000.00400000,0180.00000000,
P00030=0585.30500000,-0021.65063509,0523.09500000,0000.00000000,0000.00400000,0180.00000000,
P00031=0584.30930407,-0019.92603915,0523.09500000,0000.00000000,0000.00400000,0180.00000000,
P00032=0583.32350726,-0018.21858900,0523.09500000,0000.00000000,0000.00400000,0180.00000000,
P00033=0582.35721445,-0016.54492074,0523.09500000,0000.00000000,0000.00400000,0180.00000000,
P00034=0581.41945646,-0014.92067627,0523.09500000,0000.00000000,0000.00400000,0180.00000000,
P00035=0580.51843847,-0013.36006733,0523.09500000,0000.00000000,0000.00400000,0180.00000000,
P00036=0579.66132794,-0011.87550835,0523.09500000,0000.00000000,0000.00400000,0180.00000000,
P00037=0578.85409131,-0010.47733348,0523.09500000,0000.00000000,0000.00400000,0180.00000000,
P00038=0578.10138496,-0009.17360786,0523.09500000,0000.00000000,0000.00400000,0180.00000000,
P00039=0577.40650313,-0007.97003722,0523.09500000,0000.00000000,0000.00400000,0180.00000000,
P00040=0576.77138135,-0006.86997402,0523.09500000,0000.00000000,0000.00400000,0180.00000000,
P00041=0576.19665152,-0005.87451276,0523.09500000,0000.00000000,0000.00400000,0180.00000000,
P00042=0575.68174176,-0004.98266288,0523.09500000,0000.00000000,0000.00400000,0180.00000000,
P00043=0575.22501211,-0004.19158394,0523.09500000,0000.00000000,0000.00400000,0180.00000000,
P00044=0574.82391648,-0003.49686592,0523.09500000,0000.00000000,0000.00400000,0180.00000000,
P00045=0574.47518003,-0002.89283667,0523.09500000,0000.00000000,0000.00400000,0180.00000000,
P00046=0574.17498229,-0002.37287894,0523.09500000,0000.00000000,0000.00400000,0180.00000000,
P00047=0573.91913657,-0001.92974114,0523.09500000,0000.00000000,0000.00400000,0180.00000000,
P00048=0573.70325798,-0001.55582846,0523.09500000,0000.00000000,0000.00400000,0180.00000000,
P00049=0573.52291400,-0001.24346352,0523.09500000,0000.00000000,0000.00400000,0180.00000000,
P00050=0573.37375330,-0000.98510961,0523.09500000,0000.00000000,0000.00400000,0180.00000000,
P00051=0573.25161051,-0000.77355210,0523.09500000,0000.00000000,0000.00400000,0180.00000000,
P00052=0573.15258619,-0000.60203694,0523.09500000,0000.00000000,0000.00400000,0180.00000000,
P00053=0573.07310275,-0000.46436759,0523.09500000,0000.00000000,0000.00400000,0180.00000000,
P00054=0573.00993840,-0000.35496372,0523.09500000,0000.00000000,0000.00400000,0180.00000000,
P00055=0572.96024163,-0000.26888640,0523.09500000,0000.00000000,0000.00400000,0180.00000000,
P00056=0572.92152970,-0000.20183536,0523.09500000,0000.00000000,0000.00400000,0180.00000000,
P00057=0572.89167435,-0000.15012437,0523.09500000,0000.00000000,0000.00400000,0180.00000000,
P00058=0572.86887826,-0000.11064039,0523.09500000,0000.00000000,0000.00400000,0180.00000000,
P00059=0572.85164533,-0000.08079209,0523.09500000,0000.00000000,0000.00400000,0180.00000000,
P00060=0572.83874745,-0000.05845230,0523.09500000,0000.00000000,0000.00400000,0180.00000000,
//INST
///DATE 2017/03/31 08:11
///ATTR SC,RW
///GROUP1 RB1
NOP
DOUT OT#(15) ON
MOVL P00001 V=0002.1541157
MOVL P00002 V=0002.8495109
MOVL P00003 V=0003.7319194
MOVL P00004 V=0004.8389916
MOVL P00005 V=0006.2120956
MOVL P00006 V=0007.8955441
MOVL P00007 V=0009.9354297
MOVL P00008 V=0012.3780408
MOVL P00009 V=0015.2678481
MOVL P00010 V=0018.6450871
MOVL P00011 V=0022.5429978
MOVL P00012 V=0026.9848239
MOVL P00013 V=0031.9807154
MOVL P00014 V=0037.5247174
MOVL P00015 V=0043.5920561
MOVL P00016 V=0050.1369542
MOVL P00017 V=0057.0912051
MOVL P00018 V=0064.3637210
MOVL P00019 V=0071.8412281
MOVL P00020 V=0079.3902232
MOVL P00021 V=0086.8602289
MOVL P00022 V=0094.0882926
MOVL P00023 V=0100.9045798
MOVL P00024 V=0107.1388155
MOVL P00025 V=0112.6272489
MOVL P00026 V=0117.2197482
MOVL P00027 V=0120.7866023
MOVL P00028 V=0123.2246005
MOVL P00029 V=0124.4619915
MOVL P00030 V=0124.4619915
MOVL P00031 V=0123.2246005
MOVL P00032 V=0120.7866023
MOVL P00033 V=0117.2197482
MOVL P00034 V=0112.6272489
MOVL P00035 V=0107.1388155
MOVL P00036 V=0100.9045798
MOVL P00037 V=0094.0882926
MOVL P00038 V=0086.8602289
MOVL P00039 V=0079.3902232
MOVL P00040 V=0071.8412281
MOVL P00041 V=0064.3637210
MOVL P00042 V=0057.0912051
MOVL P00043 V=0050.1369542
MOVL P00044 V=0043.5920561
MOVL P00045 V=0037.5247174
MOVL P00046 V=0031.9807154
MOVL P00047 V=0026.9848239
MOVL P00048 V=0022.5429978
MOVL P00049 V=0018.6450871
MOVL P00050 V=0015.2678481
MOVL P00051 V=0012.3780408
MOVL P00052 V=0009.9354297
MOVL P00053 V=0007.8955441
MOVL P00054 V=0006.2120956
MOVL P00055 V=0004.8389916
MOVL P00056 V=0003.7319194
MOVL P00057 V=0002.8495109
MOVL P00058 V=0002.1541157
MOVL P00059 V=0001.6122352
MOVL P00060 V=0001.6122352
DOUT OT#(15) OFF
END
