/JOB
//NAME GAUSSIANMOVING2
//POS
///NPOS 0,0,0,121,0,0
///TOOL 0
///POSTYPE ROBOT
///RECTAN
///RCONF 0,0,0,0,0,0,0,0,0,0,0,0,0,0,0,0,0,0,0,0,0,0,0,0
P00000=10.000,0.000,0.000,0.0000,0.0000,0.0000
///POSTYPE BASE
///TOOL0
P00001=0652.65573494,0000.00000000,0523.09500000,0000.00000000,0000.00400000,0180.00000000,
P00002=0652.60058957,0000.00000000,0523.09500000,0000.00000000,0000.00400000,0180.00000000,
P00003=0652.52764210,0000.00000000,0523.09500000,0000.00000000,0000.00400000,0180.00000000,
P00004=0652.43210496,0000.00000000,0523.09500000,0000.00000000,0000.00400000,0180.00000000,
P00005=0652.30822677,0000.00000000,0523.09500000,0000.00000000,0000.00400000,0180.00000000,
P00006=0652.14919713,0000.00000000,0523.09500000,0000.00000000,0000.00400000,0180.00000000,
P00007=0651.94707120,0000.00000000,0523.09500000,0000.00000000,0000.00400000,0180.00000000,
P00008=0651.69272420,0000.00000000,0523.09500000,0000.00000000,0000.00400000,0180.00000000,
P00009=0651.37584635,0000.00000000,0523.09500000,0000.00000000,0000.00400000,0180.00000000,
P00010=0650.98498944,0000.00000000,0523.09500000,0000.00000000,0000.00400000,0180.00000000,
P00011=0650.50767521,0000.00000000,0523.09500000,0000.00000000,0000.00400000,0180.00000000,
P00012=0649.93057447,0000.00000000,0523.09500000,0000.00000000,0000.00400000,0180.00000000,
P00013=0649.23976298,0000.00000000,0523.09500000,0000.00000000,0000.00400000,0180.00000000,
P00014=0648.42105666,0000.00000000,0523.09500000,0000.00000000,0000.00400000,0180.00000000,
P00015=0647.46042390,0000.00000000,0523.09500000,0000.00000000,0000.00400000,0180.00000000,
P00016=0646.34446726,0000.00000000,0523.09500000,0000.00000000,0000.00400000,0180.00000000,
P00017=0645.06096123,0000.00000000,0523.09500000,0000.00000000,0000.00400000,0180.00000000,
P00018=0643.59942638,0000.00000000,0523.09500000,0000.00000000,0000.00400000,0180.00000000,
P00019=0641.95171512,0000.00000000,0523.09500000,0000.00000000,0000.00400000,0180.00000000,
P00020=0640.11257969,0000.00000000,0523.09500000,0000.00000000,0000.00400000,0180.00000000,
P00021=0638.08018997,0000.00000000,0523.09500000,0000.00000000,0000.00400000,0180.00000000,
P00022=0635.85656811,0000.00000000,0523.09500000,0000.00000000,0000.00400000,0180.00000000,
P00023=0633.44790782,0000.00000000,0523.09500000,0000.00000000,0000.00400000,0180.00000000,
P00024=0630.86475058,0000.00000000,0523.09500000,0000.00000000,0000.00400000,0180.00000000,
P00025=0628.12199690,0000.00000000,0523.09500000,0000.00000000,0000.00400000,0180.00000000,
P00026=0625.23873933,0000.00000000,0523.09500000,0000.00000000,0000.00400000,0180.00000000,
P00027=0622.23791378,0000.00000000,0523.09500000,0000.00000000,0000.00400000,0180.00000000,
P00028=0619.14577676,0000.00000000,0523.09500000,0000.00000000,0000.00400000,0180.00000000,
P00029=0615.99122698,0000.00000000,0523.09500000,0000.00000000,0000.00400000,0180.00000000,
P00030=0612.80500000,0000.00000000,0523.09500000,0000.00000000,0000.00400000,0180.00000000,
P00031=0609.61877302,0000.00000000,0523.09500000,0000.00000000,0000.00400000,0180.00000000,
P00032=0606.46422324,0000.00000000,0523.09500000,0000.00000000,0000.00400000,0180.00000000,
P00033=0603.37208622,0000.00000000,0523.09500000,0000.00000000,0000.00400000,0180.00000000,
P00034=0600.37126067,0000.00000000,0523.09500000,0000.00000000,0000.00400000,0180.00000000,
P00035=0597.48800310,0000.00000000,0523.09500000,0000.00000000,0000.00400000,0180.00000000,
P00036=0594.74524942,0000.00000000,0523.09500000,0000.00000000,0000.00400000,0180.00000000,
P00037=0592.16209218,0000.00000000,0523.09500000,0000.00000000,0000.00400000,0180.00000000,
P00038=0589.75343189,0000.00000000,0523.09500000,0000.00000000,0000.00400000,0180.00000000,
P00039=0587.52981003,0000.00000000,0523.09500000,0000.00000000,0000.00400000,0180.00000000,
P00040=0585.49742031,0000.00000000,0523.09500000,0000.00000000,0000.00400000,0180.00000000,
P00041=0583.65828488,0000.00000000,0523.09500000,0000.00000000,0000.00400000,0180.00000000,
P00042=0582.01057362,0000.00000000,0523.09500000,0000.00000000,0000.00400000,0180.00000000,
P00043=0580.54903877,0000.00000000,0523.09500000,0000.00000000,0000.00400000,0180.00000000,
P00044=0579.26553274,0000.00000000,0523.09500000,0000.00000000,0000.00400000,0180.00000000,
P00045=0578.14957610,0000.00000000,0523.09500000,0000.00000000,0000.00400000,0180.00000000,
P00046=0577.18894334,0000.00000000,0523.09500000,0000.00000000,0000.00400000,0180.00000000,
P00047=0576.37023702,0000.00000000,0523.09500000,0000.00000000,0000.00400000,0180.00000000,
P00048=0575.67942553,0000.00000000,0523.09500000,0000.00000000,0000.00400000,0180.00000000,
P00049=0575.10232479,0000.00000000,0523.09500000,0000.00000000,0000.00400000,0180.00000000,
P00050=0574.62501056,0000.00000000,0523.09500000,0000.00000000,0000.00400000,0180.00000000,
P00051=0574.23415365,0000.00000000,0523.09500000,0000.00000000,0000.00400000,0180.00000000,
P00052=0573.91727580,0000.00000000,0523.09500000,0000.00000000,0000.00400000,0180.00000000,
P00053=0573.66292880,0000.00000000,0523.09500000,0000.00000000,0000.00400000,0180.00000000,
P00054=0573.46080287,0000.00000000,0523.09500000,0000.00000000,0000.00400000,0180.00000000,
P00055=0573.30177323,0000.00000000,0523.09500000,0000.00000000,0000.00400000,0180.00000000,
P00056=0573.17789504,0000.00000000,0523.09500000,0000.00000000,0000.00400000,0180.00000000,
P00057=0573.08235790,0000.00000000,0523.09500000,0000.00000000,0000.00400000,0180.00000000,
P00058=0573.00941043,0000.00000000,0523.09500000,0000.00000000,0000.00400000,0180.00000000,
P00059=0572.95426506,0000.00000000,0523.09500000,0000.00000000,0000.00400000,0180.00000000,
P00060=0572.91299184,0000.00000000,0523.09500000,0000.00000000,0000.00400000,0180.00000000,
///TOOL1
P00061=0594.67926506,0000.00000000,0908.48000000,0180.00000000,0000.00000000,0000.00000000
P00062=0594.73441043,0000.00000000,0908.48000000,0180.00000000,0000.00000000,0000.00000000
P00063=0594.80735790,0000.00000000,0908.48000000,0180.00000000,0000.00000000,0000.00000000
P00064=0594.90289504,0000.00000000,0908.48000000,0180.00000000,0000.00000000,0000.00000000
P00065=0595.02677323,0000.00000000,0908.48000000,0180.00000000,0000.00000000,0000.00000000
P00066=0595.18580287,0000.00000000,0908.48000000,0180.00000000,0000.00000000,0000.00000000
P00067=0595.38792880,0000.00000000,0908.48000000,0180.00000000,0000.00000000,0000.00000000
P00068=0595.64227580,0000.00000000,0908.48000000,0180.00000000,0000.00000000,0000.00000000
P00069=0595.95915365,0000.00000000,0908.48000000,0180.00000000,0000.00000000,0000.00000000
P00070=0596.35001056,0000.00000000,0908.48000000,0180.00000000,0000.00000000,0000.00000000
P00071=0596.82732479,0000.00000000,0908.48000000,0180.00000000,0000.00000000,0000.00000000
P00072=0597.40442553,0000.00000000,0908.48000000,0180.00000000,0000.00000000,0000.00000000
P00073=0598.09523702,0000.00000000,0908.48000000,0180.00000000,0000.00000000,0000.00000000
P00074=0598.91394334,0000.00000000,0908.48000000,0180.00000000,0000.00000000,0000.00000000
P00075=0599.87457610,0000.00000000,0908.48000000,0180.00000000,0000.00000000,0000.00000000
P00076=0600.99053274,0000.00000000,0908.48000000,0180.00000000,0000.00000000,0000.00000000
P00077=0602.27403877,0000.00000000,0908.48000000,0180.00000000,0000.00000000,0000.00000000
P00078=0603.73557362,0000.00000000,0908.48000000,0180.00000000,0000.00000000,0000.00000000
P00079=0605.38328488,0000.00000000,0908.48000000,0180.00000000,0000.00000000,0000.00000000
P00080=0607.22242031,0000.00000000,0908.48000000,0180.00000000,0000.00000000,0000.00000000
P00081=0609.25481003,0000.00000000,0908.48000000,0180.00000000,0000.00000000,0000.00000000
P00082=0611.47843189,0000.00000000,0908.48000000,0180.00000000,0000.00000000,0000.00000000
P00083=0613.88709218,0000.00000000,0908.48000000,0180.00000000,0000.00000000,0000.00000000
P00084=0616.47024942,0000.00000000,0908.48000000,0180.00000000,0000.00000000,0000.00000000
P00085=0619.21300310,0000.00000000,0908.48000000,0180.00000000,0000.00000000,0000.00000000
P00086=0622.09626067,0000.00000000,0908.48000000,0180.00000000,0000.00000000,0000.00000000
P00087=0625.09708622,0000.00000000,0908.48000000,0180.00000000,0000.00000000,0000.00000000
P00088=0628.18922324,0000.00000000,0908.48000000,0180.00000000,0000.00000000,0000.00000000
P00089=0631.34377302,0000.00000000,0908.48000000,0180.00000000,0000.00000000,0000.00000000
P00090=0634.53000000,0000.00000000,0908.48000000,0180.00000000,0000.00000000,0000.00000000
P00091=0637.71622698,0000.00000000,0908.48000000,0180.00000000,0000.00000000,0000.00000000
P00092=0640.87077676,0000.00000000,0908.48000000,0180.00000000,0000.00000000,0000.00000000
P00093=0643.96291378,0000.00000000,0908.48000000,0180.00000000,0000.00000000,0000.00000000
P00094=0646.96373933,0000.00000000,0908.48000000,0180.00000000,0000.00000000,0000.00000000
P00095=0649.84699690,0000.00000000,0908.48000000,0180.00000000,0000.00000000,0000.00000000
P00096=0652.58975058,0000.00000000,0908.48000000,0180.00000000,0000.00000000,0000.00000000
P00097=0655.17290782,0000.00000000,0908.48000000,0180.00000000,0000.00000000,0000.00000000
P00098=0657.58156811,0000.00000000,0908.48000000,0180.00000000,0000.00000000,0000.00000000
P00099=0659.80518997,0000.00000000,0908.48000000,0180.00000000,0000.00000000,0000.00000000
P00100=0661.83757969,0000.00000000,0908.48000000,0180.00000000,0000.00000000,0000.00000000
P00101=0663.67671512,0000.00000000,0908.48000000,0180.00000000,0000.00000000,0000.00000000
P00102=0665.32442638,0000.00000000,0908.48000000,0180.00000000,0000.00000000,0000.00000000
P00103=0666.78596123,0000.00000000,0908.48000000,0180.00000000,0000.00000000,0000.00000000
P00104=0668.06946726,0000.00000000,0908.48000000,0180.00000000,0000.00000000,0000.00000000
P00105=0669.18542390,0000.00000000,0908.48000000,0180.00000000,0000.00000000,0000.00000000
P00106=0670.14605666,0000.00000000,0908.48000000,0180.00000000,0000.00000000,0000.00000000
P00107=0670.96476298,0000.00000000,0908.48000000,0180.00000000,0000.00000000,0000.00000000
P00108=0671.65557447,0000.00000000,0908.48000000,0180.00000000,0000.00000000,0000.00000000
P00109=0672.23267521,0000.00000000,0908.48000000,0180.00000000,0000.00000000,0000.00000000
P00110=0672.70998944,0000.00000000,0908.48000000,0180.00000000,0000.00000000,0000.00000000
P00111=0673.10084635,0000.00000000,0908.48000000,0180.00000000,0000.00000000,0000.00000000
P00112=0673.41772420,0000.00000000,0908.48000000,0180.00000000,0000.00000000,0000.00000000
P00113=0673.67207120,0000.00000000,0908.48000000,0180.00000000,0000.00000000,0000.00000000
P00114=0673.87419713,0000.00000000,0908.48000000,0180.00000000,0000.00000000,0000.00000000
P00115=0674.03322677,0000.00000000,0908.48000000,0180.00000000,0000.00000000,0000.00000000
P00116=0674.15710496,0000.00000000,0908.48000000,0180.00000000,0000.00000000,0000.00000000
P00117=0674.25264210,0000.00000000,0908.48000000,0180.00000000,0000.00000000,0000.00000000
P00118=0674.32558957,0000.00000000,0908.48000000,0180.00000000,0000.00000000,0000.00000000
P00119=0674.38073494,0000.00000000,0908.48000000,0180.00000000,0000.00000000,0000.00000000
P00120=0674.42200816,0000.00000000,0908.48000000,0180.00000000,0000.00000000,0000.00000000
//INST
///DATE 2017/03/31 08:11
///COMM PLAYINGTWOROBOTS
///ATTR SC,RW
///GROUP1 RB1
///GROUP2 RB2
NOP
DOUT OT#(15) ON
MOVL P00001 V=0003.4465852  +MOVL P00061 V=0003.4465852
MOVL P00002 V=0004.5592174  +MOVL P00062 V=0004.5592174
MOVL P00003 V=0005.9710711  +MOVL P00063 V=0005.9710711
MOVL P00004 V=0007.7423865  +MOVL P00064 V=0007.7423865
MOVL P00005 V=0009.9393530  +MOVL P00065 V=0009.9393530
MOVL P00006 V=0012.6328705  +MOVL P00066 V=0012.6328705
MOVL P00007 V=0015.8966875  +MOVL P00067 V=0015.8966875
MOVL P00008 V=0019.8048652  +MOVL P00068 V=0019.8048652
MOVL P00009 V=0024.4285569  +MOVL P00069 V=0024.4285569
MOVL P00010 V=0029.8321393  +MOVL P00070 V=0029.8321393
MOVL P00011 V=0036.0687965  +MOVL P00071 V=0036.0687965
MOVL P00012 V=0043.1757182  +MOVL P00072 V=0043.1757182
MOVL P00013 V=0051.1691447  +MOVL P00073 V=0051.1691447
MOVL P00014 V=0060.0395478  +MOVL P00074 V=0060.0395478
MOVL P00015 V=0069.7472898  +MOVL P00075 V=0069.7472898
MOVL P00016 V=0080.2191268  +MOVL P00076 V=0080.2191268
MOVL P00017 V=0091.3459282  +MOVL P00077 V=0091.3459282
MOVL P00018 V=0102.9819536  +MOVL P00078 V=0102.9819536
MOVL P00019 V=0114.9459649  +MOVL P00079 V=0114.9459649
MOVL P00020 V=0127.0243571  +MOVL P00080 V=0127.0243571
MOVL P00021 V=0138.9763662  +MOVL P00081 V=0138.9763662
MOVL P00022 V=0150.5412682  +MOVL P00082 V=0150.5412682
MOVL P00023 V=0161.4473276  +MOVL P00083 V=0161.4473276
MOVL P00024 V=0171.4221049  +MOVL P00084 V=0171.4221049
MOVL P00025 V=0180.2035983  +MOVL P00085 V=0180.2035983
MOVL P00026 V=0187.5515971  +MOVL P00086 V=0187.5515971
MOVL P00027 V=0193.2585637  +MOVL P00087 V=0193.2585637
MOVL P00028 V=0197.1593608  +MOVL P00088 V=0197.1593608
MOVL P00029 V=0199.1391864  +MOVL P00089 V=0199.1391864
MOVL P00030 V=0199.1391864  +MOVL P00090 V=0199.1391864
MOVL P00031 V=0197.1593608  +MOVL P00091 V=0197.1593608
MOVL P00032 V=0193.2585637  +MOVL P00092 V=0193.2585637
MOVL P00033 V=0187.5515971  +MOVL P00093 V=0187.5515971
MOVL P00034 V=0180.2035983  +MOVL P00094 V=0180.2035983
MOVL P00035 V=0171.4221049  +MOVL P00095 V=0171.4221049
MOVL P00036 V=0161.4473276  +MOVL P00096 V=0161.4473276
MOVL P00037 V=0150.5412682  +MOVL P00097 V=0150.5412682
MOVL P00038 V=0138.9763662  +MOVL P00098 V=0138.9763662
MOVL P00039 V=0127.0243571  +MOVL P00099 V=0127.0243571
MOVL P00040 V=0114.9459649  +MOVL P00100 V=0114.9459649
MOVL P00041 V=0102.9819536  +MOVL P00101 V=0102.9819536
MOVL P00042 V=0091.3459282  +MOVL P00102 V=0091.3459282
MOVL P00043 V=0080.2191268  +MOVL P00103 V=0080.2191268
MOVL P00044 V=0069.7472898  +MOVL P00104 V=0069.7472898
MOVL P00045 V=0060.0395478  +MOVL P00105 V=0060.0395478
MOVL P00046 V=0051.1691447  +MOVL P00106 V=0051.1691447
MOVL P00047 V=0043.1757182  +MOVL P00107 V=0043.1757182
MOVL P00048 V=0036.0687965  +MOVL P00108 V=0036.0687965
MOVL P00049 V=0029.8321393  +MOVL P00109 V=0029.8321393
MOVL P00050 V=0024.4285569  +MOVL P00110 V=0024.4285569
MOVL P00051 V=0019.8048652  +MOVL P00111 V=0019.8048652
MOVL P00052 V=0015.8966875  +MOVL P00112 V=0015.8966875
MOVL P00053 V=0012.6328705  +MOVL P00113 V=0012.6328705
MOVL P00054 V=0009.9393530  +MOVL P00114 V=0009.9393530
MOVL P00055 V=0007.7423865  +MOVL P00115 V=0007.7423865
MOVL P00056 V=0005.9710711  +MOVL P00116 V=0005.9710711
MOVL P00057 V=0004.5592174  +MOVL P00117 V=0004.5592174
MOVL P00058 V=0003.4465852  +MOVL P00118 V=0003.4465852
MOVL P00059 V=0002.5795763  +MOVL P00119 V=0002.5795763
MOVL P00060 V=0002.5795763  +MOVL P00120 V=0002.5795763
DOUT OT#(15) OFF
END
