/JOB
//NAME GAUSSIANMOVING2
//POS
///NPOS 0,0,0,61,0,0
///TOOL 0
///POSTYPE ROBOT
///RECTAN
///RCONF 0,0,0,0,0,0,0,0,0,0,0,0,0,0,0,0,0,0,0,0,0,0,0,0
P00000=10.000,0.000,0.000,0.0000,0.0000,0.0000
///POSTYPE BASE
///TOOL0
P00001=0612.73036747,-0048.89838904,0571.99338904,0000.00000000,0000.00400000,0180.00000000,
P00002=0612.70279479,-0048.86461954,0571.95961954,0000.00000000,0000.00400000,0180.00000000,
P00003=0612.66632105,-0048.81994852,0571.91494852,0000.00000000,0000.00400000,0180.00000000,
P00004=0612.61855248,-0048.76144421,0571.85644421,0000.00000000,0000.00400000,0180.00000000,
P00005=0612.55661339,-0048.68558463,0571.78058463,0000.00000000,0000.00400000,0180.00000000,
P00006=0612.47709856,-0048.58819925,0571.68319925,0000.00000000,0000.00400000,0180.00000000,
P00007=0612.37603560,-0048.46442291,0571.55942291,0000.00000000,0000.00400000,0180.00000000,
P00008=0612.24886210,-0048.30866781,0571.40366781,0000.00000000,0000.00400000,0180.00000000,
P00009=0612.09042318,-0048.11462056,0571.20962056,0000.00000000,0000.00400000,0180.00000000,
P00010=0611.89499472,-0047.87527056,0570.97027056,0000.00000000,0000.00400000,0180.00000000,
P00011=0611.65633761,-0047.58297648,0570.67797648,0000.00000000,0000.00400000,0180.00000000,
P00012=0611.36778724,-0047.22957589,0570.32457589,0000.00000000,0000.00400000,0180.00000000,
P00013=0611.02238149,-0046.80654198,0569.90154198,0000.00000000,0000.00400000,0180.00000000,
P00014=0610.61302833,-0046.30518880,0569.40018880,0000.00000000,0000.00400000,0180.00000000,
P00015=0610.13271195,-0045.71692377,0568.81192377,0000.00000000,0000.00400000,0180.00000000,
P00016=0609.57473363,-0045.03354269,0568.12854269,0000.00000000,0000.00400000,0180.00000000,
P00017=0608.93298062,-0044.24755897,0567.34255897,0000.00000000,0000.00400000,0180.00000000,
P00018=0608.20221319,-0043.35255532,0566.44755532,0000.00000000,0000.00400000,0180.00000000,
P00019=0607.37835756,-0042.34354236,0565.43854236,0000.00000000,0000.00400000,0180.00000000,
P00020=0606.45878984,-0041.21730651,0564.31230651,0000.00000000,0000.00400000,0180.00000000,
P00021=0605.44259499,-0039.97272707,0563.06772707,0000.00000000,0000.00400000,0180.00000000,
P00022=0604.33078406,-0038.61104234,0561.70604234,0000.00000000,0000.00400000,0180.00000000,
P00023=0603.12645391,-0037.13604517,0560.23104517,0000.00000000,0000.00400000,0180.00000000,
P00024=0601.83487529,-0035.55419088,0558.64919088,0000.00000000,0000.00400000,0180.00000000,
P00025=0600.46349845,-0033.87460413,0556.96960413,0000.00000000,0000.00400000,0180.00000000,
P00026=0599.02186966,-0032.10897667,0555.20397667,0000.00000000,0000.00400000,0180.00000000,
P00027=0597.52145689,-0030.27135381,0553.36635381,0000.00000000,0000.00400000,0180.00000000,
P00028=0595.97538838,-0028.37781433,0551.47281433,0000.00000000,0000.00400000,0180.00000000,
P00029=0594.39811349,-0026.44605501,0549.54105501,0000.00000000,0000.00400000,0180.00000000,
P00030=0592.80500000,-0024.49489743,0547.58989743,0000.00000000,0000.00400000,0180.00000000,
P00031=0591.21188651,-0022.54373985,0545.63873985,0000.00000000,0000.00400000,0180.00000000,
P00032=0589.63461162,-0020.61198052,0543.70698052,0000.00000000,0000.00400000,0180.00000000,
P00033=0588.08854311,-0018.71844104,0541.81344104,0000.00000000,0000.00400000,0180.00000000,
P00034=0586.58813034,-0016.88081819,0539.97581819,0000.00000000,0000.00400000,0180.00000000,
P00035=0585.14650155,-0015.11519073,0538.21019073,0000.00000000,0000.00400000,0180.00000000,
P00036=0583.77512471,-0013.43560398,0536.53060398,0000.00000000,0000.00400000,0180.00000000,
P00037=0582.48354609,-0011.85374968,0534.94874968,0000.00000000,0000.00400000,0180.00000000,
P00038=0581.27921594,-0010.37875252,0533.47375252,0000.00000000,0000.00400000,0180.00000000,
P00039=0580.16740501,-0009.01706778,0532.11206778,0000.00000000,0000.00400000,0180.00000000,
P00040=0579.15121016,-0007.77248834,0530.86748834,0000.00000000,0000.00400000,0180.00000000,
P00041=0578.23164244,-0006.64625249,0529.74125249,0000.00000000,0000.00400000,0180.00000000,
P00042=0577.40778681,-0005.63723954,0528.73223954,0000.00000000,0000.00400000,0180.00000000,
P00043=0576.67701938,-0004.74223588,0527.83723588,0000.00000000,0000.00400000,0180.00000000,
P00044=0576.03526637,-0003.95625217,0527.05125217,0000.00000000,0000.00400000,0180.00000000,
P00045=0575.47728805,-0003.27287109,0526.36787109,0000.00000000,0000.00400000,0180.00000000,
P00046=0574.99697167,-0002.68460606,0525.77960606,0000.00000000,0000.00400000,0180.00000000,
P00047=0574.58761851,-0002.18325288,0525.27825288,0000.00000000,0000.00400000,0180.00000000,
P00048=0574.24221276,-0001.76021896,0524.85521896,0000.00000000,0000.00400000,0180.00000000,
P00049=0573.95366239,-0001.40681837,0524.50181837,0000.00000000,0000.00400000,0180.00000000,
P00050=0573.71500528,-0001.11452430,0524.20952430,0000.00000000,0000.00400000,0180.00000000,
P00051=0573.51957682,-0000.87517430,0523.97017430,0000.00000000,0000.00400000,0180.00000000,
P00052=0573.36113790,-0000.68112704,0523.77612704,0000.00000000,0000.00400000,0180.00000000,
P00053=0573.23396440,-0000.52537195,0523.62037195,0000.00000000,0000.00400000,0180.00000000,
P00054=0573.13290144,-0000.40159560,0523.49659560,0000.00000000,0000.00400000,0180.00000000,
P00055=0573.05338661,-0000.30421023,0523.39921023,0000.00000000,0000.00400000,0180.00000000,
P00056=0572.99144752,-0000.22835065,0523.32335065,0000.00000000,0000.00400000,0180.00000000,
P00057=0572.94367895,-0000.16984634,0523.26484634,0000.00000000,0000.00400000,0180.00000000,
P00058=0572.90720521,-0000.12517531,0523.22017531,0000.00000000,0000.00400000,0180.00000000,
P00059=0572.87963253,-0000.09140581,0523.18640581,0000.00000000,0000.00400000,0180.00000000,
P00060=0572.85899592,-0000.06613123,0523.16113123,0000.00000000,0000.00400000,0180.00000000,
//INST
///DATE 2017/03/31 08:11
///ATTR SC,RW
///GROUP1 RB1
NOP
DOUT OT#(15) ON
MOVL P00001 V=0003.4465852
MOVL P00002 V=0004.5592174
MOVL P00003 V=0005.9710711
MOVL P00004 V=0007.7423865
MOVL P00005 V=0009.9393530
MOVL P00006 V=0012.6328705
MOVL P00007 V=0015.8966875
MOVL P00008 V=0019.8048652
MOVL P00009 V=0024.4285569
MOVL P00010 V=0029.8321393
MOVL P00011 V=0036.0687965
MOVL P00012 V=0043.1757182
MOVL P00013 V=0051.1691447
MOVL P00014 V=0060.0395478
MOVL P00015 V=0069.7472898
MOVL P00016 V=0080.2191268
MOVL P00017 V=0091.3459282
MOVL P00018 V=0102.9819536
MOVL P00019 V=0114.9459649
MOVL P00020 V=0127.0243571
MOVL P00021 V=0138.9763662
MOVL P00022 V=0150.5412682
MOVL P00023 V=0161.4473276
MOVL P00024 V=0171.4221049
MOVL P00025 V=0180.2035983
MOVL P00026 V=0187.5515971
MOVL P00027 V=0193.2585637
MOVL P00028 V=0197.1593608
MOVL P00029 V=0199.1391864
MOVL P00030 V=0199.1391864
MOVL P00031 V=0197.1593608
MOVL P00032 V=0193.2585637
MOVL P00033 V=0187.5515971
MOVL P00034 V=0180.2035983
MOVL P00035 V=0171.4221049
MOVL P00036 V=0161.4473276
MOVL P00037 V=0150.5412682
MOVL P00038 V=0138.9763662
MOVL P00039 V=0127.0243571
MOVL P00040 V=0114.9459649
MOVL P00041 V=0102.9819536
MOVL P00042 V=0091.3459282
MOVL P00043 V=0080.2191268
MOVL P00044 V=0069.7472898
MOVL P00045 V=0060.0395478
MOVL P00046 V=0051.1691447
MOVL P00047 V=0043.1757182
MOVL P00048 V=0036.0687965
MOVL P00049 V=0029.8321393
MOVL P00050 V=0024.4285569
MOVL P00051 V=0019.8048652
MOVL P00052 V=0015.8966875
MOVL P00053 V=0012.6328705
MOVL P00054 V=0009.9393530
MOVL P00055 V=0007.7423865
MOVL P00056 V=0005.9710711
MOVL P00057 V=0004.5592174
MOVL P00058 V=0003.4465852
MOVL P00059 V=0002.5795763
MOVL P00060 V=0002.5795763
DOUT OT#(15) OFF
END
