/JOB
//NAME GAUSSIANMOVING2
//POS
///NPOS 0,0,0,61,0,0
///TOOL 0
///POSTYPE ROBOT
///RECTAN
///RCONF 0,0,0,0,0,0,0,0,0,0,0,0,0,0,0,0,0,0,0,0,0,0,0,0
P00000=10.000,0.000,0.000,0.0000,0.0000,0.0000
///POSTYPE BASE
///TOOL0
P00001=0349.93488712,0020.66689097,0483.09500000,0000.00000000,0000.00400000,0180.00000000,
P00002=0349.88162079,0020.65261830,0483.09500000,0000.00000000,0000.00400000,0180.00000000,
P00003=0349.81115894,0020.63373810,0483.09500000,0000.00000000,0000.00400000,0180.00000000,
P00004=0349.71887715,0020.60901127,0483.09500000,0000.00000000,0000.00400000,0180.00000000,
P00005=0349.59922001,0020.57694924,0483.09500000,0000.00000000,0000.00400000,0180.00000000,
P00006=0349.44560917,0020.53578933,0483.09500000,0000.00000000,0000.00400000,0180.00000000,
P00007=0349.25037052,0020.48347529,0483.09500000,0000.00000000,0000.00400000,0180.00000000,
P00008=0349.00469018,0020.41764545,0483.09500000,0000.00000000,0000.00400000,0180.00000000,
P00009=0348.69860969,0020.33563143,0483.09500000,0000.00000000,0000.00400000,0180.00000000,
P00010=0348.32107090,0020.23447021,0483.09500000,0000.00000000,0000.00400000,0180.00000000,
P00011=0347.86002076,0020.11093220,0483.09500000,0000.00000000,0000.00400000,0180.00000000,
P00012=0347.30258425,0019.96156754,0483.09500000,0000.00000000,0000.00400000,0180.00000000,
P00013=0346.63531159,0019.78277237,0483.09500000,0000.00000000,0000.00400000,0180.00000000,
P00014=0345.84450201,0019.57087558,0483.09500000,0000.00000000,0000.00400000,0180.00000000,
P00015=0344.91660202,0019.32224553,0483.09500000,0000.00000000,0000.00400000,0180.00000000,
P00016=0343.83867068,0019.03341469,0483.09500000,0000.00000000,0000.00400000,0180.00000000,
P00017=0342.59889906,0018.70121889,0483.09500000,0000.00000000,0000.00400000,0180.00000000,
P00018=0341.18716480,0018.32294583,0483.09500000,0000.00000000,0000.00400000,0180.00000000,
P00019=0339.59559794,0017.89648678,0483.09500000,0000.00000000,0000.00400000,0180.00000000,
P00020=0337.81912952,0017.42048350,0483.09500000,0000.00000000,0000.00400000,0180.00000000,
P00021=0335.85599181,0016.89446234,0483.09500000,0000.00000000,0000.00400000,0180.00000000,
P00022=0333.70813803,0016.31894665,0483.09500000,0000.00000000,0000.00400000,0180.00000000,
P00023=0331.38155085,0015.69553949,0483.09500000,0000.00000000,0000.00400000,0180.00000000,
P00024=0328.88641255,0015.02696920,0483.09500000,0000.00000000,0000.00400000,0180.00000000,
P00025=0326.23711594,0014.31709232,0483.09500000,0000.00000000,0000.00400000,0180.00000000,
P00026=0323.45210299,0013.57085034,0483.09500000,0000.00000000,0000.00400000,0180.00000000,
P00027=0320.55352808,0012.79417954,0483.09500000,0000.00000000,0000.00400000,0180.00000000,
P00028=0317.56675308,0011.99387559,0483.09500000,0000.00000000,0000.00400000,0180.00000000,
P00029=0314.51969198,0011.17741803,0483.09500000,0000.00000000,0000.00400000,0180.00000000,
P00030=0311.44203305,0010.35276180,0483.09500000,0000.00000000,0000.00400000,0180.00000000,
P00031=0308.36437412,0009.52810558,0483.09500000,0000.00000000,0000.00400000,0180.00000000,
P00032=0305.31731303,0008.71164802,0483.09500000,0000.00000000,0000.00400000,0180.00000000,
P00033=0302.33053802,0007.91134407,0483.09500000,0000.00000000,0000.00400000,0180.00000000,
P00034=0299.43196312,0007.13467326,0483.09500000,0000.00000000,0000.00400000,0180.00000000,
P00035=0296.64695016,0006.38843129,0483.09500000,0000.00000000,0000.00400000,0180.00000000,
P00036=0293.99765355,0005.67855440,0483.09500000,0000.00000000,0000.00400000,0180.00000000,
P00037=0291.50251526,0005.00998411,0483.09500000,0000.00000000,0000.00400000,0180.00000000,
P00038=0289.17592807,0004.38657696,0483.09500000,0000.00000000,0000.00400000,0180.00000000,
P00039=0287.02807429,0003.81106127,0483.09500000,0000.00000000,0000.00400000,0180.00000000,
P00040=0285.06493658,0003.28504011,0483.09500000,0000.00000000,0000.00400000,0180.00000000,
P00041=0283.28846816,0002.80903683,0483.09500000,0000.00000000,0000.00400000,0180.00000000,
P00042=0281.69690130,0002.38257777,0483.09500000,0000.00000000,0000.00400000,0180.00000000,
P00043=0280.28516704,0002.00430472,0483.09500000,0000.00000000,0000.00400000,0180.00000000,
P00044=0279.04539542,0001.67210891,0483.09500000,0000.00000000,0000.00400000,0180.00000000,
P00045=0277.96746409,0001.38327808,0483.09500000,0000.00000000,0000.00400000,0180.00000000,
P00046=0277.03956409,0001.13464803,0483.09500000,0000.00000000,0000.00400000,0180.00000000,
P00047=0276.24875452,0000.92275124,0483.09500000,0000.00000000,0000.00400000,0180.00000000,
P00048=0275.58148185,0000.74395607,0483.09500000,0000.00000000,0000.00400000,0180.00000000,
P00049=0275.02404534,0000.59459141,0483.09500000,0000.00000000,0000.00400000,0180.00000000,
P00050=0274.56299520,0000.47105339,0483.09500000,0000.00000000,0000.00400000,0180.00000000,
P00051=0274.18545642,0000.36989218,0483.09500000,0000.00000000,0000.00400000,0180.00000000,
P00052=0273.87937592,0000.28787816,0483.09500000,0000.00000000,0000.00400000,0180.00000000,
P00053=0273.63369559,0000.22204831,0483.09500000,0000.00000000,0000.00400000,0180.00000000,
P00054=0273.43845693,0000.16973427,0483.09500000,0000.00000000,0000.00400000,0180.00000000,
P00055=0273.28484609,0000.12857437,0483.09500000,0000.00000000,0000.00400000,0180.00000000,
P00056=0273.16518895,0000.09651234,0483.09500000,0000.00000000,0000.00400000,0180.00000000,
P00057=0273.07290716,0000.07178551,0483.09500000,0000.00000000,0000.00400000,0180.00000000,
P00058=0273.00244531,0000.05290531,0483.09500000,0000.00000000,0000.00400000,0180.00000000,
P00059=0272.94917898,0000.03863264,0483.09500000,0000.00000000,0000.00400000,0180.00000000,
P00060=0272.90931211,0000.02795035,0483.09500000,0000.00000000,0000.00400000,0180.00000000,
//INST
///DATE 2017/03/31 08:11
///ATTR SC,RW
///GROUP1 RB1
NOP
MOVL P00001 V=0003.4465852
MOVL P00002 V=0004.5592174
MOVL P00003 V=0005.9710711
MOVL P00004 V=0007.7423865
MOVL P00005 V=0009.9393530
MOVL P00006 V=0012.6328705
MOVL P00007 V=0015.8966875
MOVL P00008 V=0019.8048652
MOVL P00009 V=0024.4285569
MOVL P00010 V=0029.8321393
MOVL P00011 V=0036.0687965
MOVL P00012 V=0043.1757182
MOVL P00013 V=0051.1691447
MOVL P00014 V=0060.0395478
MOVL P00015 V=0069.7472898
MOVL P00016 V=0080.2191268
MOVL P00017 V=0091.3459282
MOVL P00018 V=0102.9819536
MOVL P00019 V=0114.9459649
MOVL P00020 V=0127.0243571
MOVL P00021 V=0138.9763662
MOVL P00022 V=0150.5412682
MOVL P00023 V=0161.4473276
MOVL P00024 V=0171.4221049
MOVL P00025 V=0180.2035983
MOVL P00026 V=0187.5515971
MOVL P00027 V=0193.2585637
MOVL P00028 V=0197.1593608
MOVL P00029 V=0199.1391864
MOVL P00030 V=0199.1391864
MOVL P00031 V=0197.1593608
MOVL P00032 V=0193.2585637
MOVL P00033 V=0187.5515971
MOVL P00034 V=0180.2035983
MOVL P00035 V=0171.4221049
MOVL P00036 V=0161.4473276
MOVL P00037 V=0150.5412682
MOVL P00038 V=0138.9763662
MOVL P00039 V=0127.0243571
MOVL P00040 V=0114.9459649
MOVL P00041 V=0102.9819536
MOVL P00042 V=0091.3459282
MOVL P00043 V=0080.2191268
MOVL P00044 V=0069.7472898
MOVL P00045 V=0060.0395478
MOVL P00046 V=0051.1691447
MOVL P00047 V=0043.1757182
MOVL P00048 V=0036.0687965
MOVL P00049 V=0029.8321393
MOVL P00050 V=0024.4285569
MOVL P00051 V=0019.8048652
MOVL P00052 V=0015.8966875
MOVL P00053 V=0012.6328705
MOVL P00054 V=0009.9393530
MOVL P00055 V=0007.7423865
MOVL P00056 V=0005.9710711
MOVL P00057 V=0004.5592174
MOVL P00058 V=0003.4465852
MOVL P00059 V=0002.5795763
MOVL P00060 V=0002.5795763
END
