/JOB
//NAME GAUSSIANMOVING2
//POS
///NPOS 0,0,0,121,0,0
///TOOL 0
///POSTYPE ROBOT
///RECTAN
///RCONF 0,0,0,0,0,0,0,0,0,0,0,0,0,0,0,0,0,0,0,0,0,0,0,0
P00000=10.000,0.000,0.000,0.0000,0.0000,0.0000
///POSTYPE BASE
P00001=0368.31798980,0004.13400000,0538.85800000,-0000.57780000,-0000.47430000,-0050.70270000,
P00002=0368.36958133,0004.13400000,0538.85800000,-0000.57780000,-0000.47430000,-0050.70270000,
P00003=0368.43851303,0004.13400000,0538.85800000,-0000.57780000,-0000.47430000,-0050.70270000,
P00004=0368.52969738,0004.13400000,0538.85800000,-0000.57780000,-0000.47430000,-0050.70270000,
P00005=0368.64911880,0004.13400000,0538.85800000,-0000.57780000,-0000.47430000,-0050.70270000,
P00006=0368.80396653,0004.13400000,0538.85800000,-0000.57780000,-0000.47430000,-0050.70270000,
P00007=0369.00275359,0004.13400000,0538.85800000,-0000.57780000,-0000.47430000,-0050.70270000,
P00008=0369.25541100,0004.13400000,0538.85800000,-0000.57780000,-0000.47430000,-0050.70270000,
P00009=0369.57334475,0004.13400000,0538.85800000,-0000.57780000,-0000.47430000,-0050.70270000,
P00010=0369.96944206,0004.13400000,0538.85800000,-0000.57780000,-0000.47430000,-0050.70270000,
P00011=0370.45801319,0004.13400000,0538.85800000,-0000.57780000,-0000.47430000,-0050.70270000,
P00012=0371.05465598,0004.13400000,0538.85800000,-0000.57780000,-0000.47430000,-0050.70270000,
P00013=0371.77603191,0004.13400000,0538.85800000,-0000.57780000,-0000.47430000,-0050.70270000,
P00014=0372.63954628,0004.13400000,0538.85800000,-0000.57780000,-0000.47430000,-0050.70270000,
P00015=0373.66292917,0004.13400000,0538.85800000,-0000.57780000,-0000.47430000,-0050.70270000,
P00016=0374.86372013,0004.13400000,0538.85800000,-0000.57780000,-0000.47430000,-0050.70270000,
P00017=0376.25866592,0004.13400000,0538.85800000,-0000.57780000,-0000.47430000,-0050.70270000,
P00018=0377.86304846,0004.13400000,0538.85800000,-0000.57780000,-0000.47430000,-0050.70270000,
P00019=0379.68996702,0004.13400000,0538.85800000,-0000.57780000,-0000.47430000,-0050.70270000,
P00020=0381.74960609,0004.13400000,0538.85800000,-0000.57780000,-0000.47430000,-0050.70270000,
P00021=0384.04852539,0004.13400000,0538.85800000,-0000.57780000,-0000.47430000,-0050.70270000,
P00022=0386.58901253,0004.13400000,0538.85800000,-0000.57780000,-0000.47430000,-0050.70270000,
P00023=0389.36853986,0004.13400000,0538.85800000,-0000.57780000,-0000.47430000,-0050.70270000,
P00024=0392.37936522,0004.13400000,0538.85800000,-0000.57780000,-0000.47430000,-0050.70270000,
P00025=0395.60831178,0004.13400000,0538.85800000,-0000.57780000,-0000.47430000,-0050.70270000,
P00026=0399.03675387,0004.13400000,0538.85800000,-0000.57780000,-0000.47430000,-0050.70270000,
P00027=0402.64082584,0004.13400000,0538.85800000,-0000.57780000,-0000.47430000,-0050.70270000,
P00028=0406.39185778,0004.13400000,0538.85800000,-0000.57780000,-0000.47430000,-0050.70270000,
P00029=0410.25702906,0004.13400000,0538.85800000,-0000.57780000,-0000.47430000,-0050.70270000,
P00030=0414.20021627,0004.13400000,0538.85800000,-0000.57780000,-0000.47430000,-0050.70270000,
P00031=0418.18300000,0004.13400000,0538.85800000,-0000.57780000,-0000.47430000,-0050.70270000,
P00032=0422.16578373,0004.13400000,0538.85800000,-0000.57780000,-0000.47430000,-0050.70270000,
P00033=0426.10897094,0004.13400000,0538.85800000,-0000.57780000,-0000.47430000,-0050.70270000,
P00034=0429.97414222,0004.13400000,0538.85800000,-0000.57780000,-0000.47430000,-0050.70270000,
P00035=0433.72517416,0004.13400000,0538.85800000,-0000.57780000,-0000.47430000,-0050.70270000,
P00036=0437.32924613,0004.13400000,0538.85800000,-0000.57780000,-0000.47430000,-0050.70270000,
P00037=0440.75768822,0004.13400000,0538.85800000,-0000.57780000,-0000.47430000,-0050.70270000,
P00038=0443.98663478,0004.13400000,0538.85800000,-0000.57780000,-0000.47430000,-0050.70270000,
P00039=0446.99746014,0004.13400000,0538.85800000,-0000.57780000,-0000.47430000,-0050.70270000,
P00040=0449.77698747,0004.13400000,0538.85800000,-0000.57780000,-0000.47430000,-0050.70270000,
P00041=0452.31747461,0004.13400000,0538.85800000,-0000.57780000,-0000.47430000,-0050.70270000,
P00042=0454.61639391,0004.13400000,0538.85800000,-0000.57780000,-0000.47430000,-0050.70270000,
P00043=0456.67603298,0004.13400000,0538.85800000,-0000.57780000,-0000.47430000,-0050.70270000,
P00044=0458.50295154,0004.13400000,0538.85800000,-0000.57780000,-0000.47430000,-0050.70270000,
P00045=0460.10733408,0004.13400000,0538.85800000,-0000.57780000,-0000.47430000,-0050.70270000,
P00046=0461.50227987,0004.13400000,0538.85800000,-0000.57780000,-0000.47430000,-0050.70270000,
P00047=0462.70307083,0004.13400000,0538.85800000,-0000.57780000,-0000.47430000,-0050.70270000,
P00048=0463.72645372,0004.13400000,0538.85800000,-0000.57780000,-0000.47430000,-0050.70270000,
P00049=0464.58996809,0004.13400000,0538.85800000,-0000.57780000,-0000.47430000,-0050.70270000,
P00050=0465.31134402,0004.13400000,0538.85800000,-0000.57780000,-0000.47430000,-0050.70270000,
P00051=0465.90798681,0004.13400000,0538.85800000,-0000.57780000,-0000.47430000,-0050.70270000,
P00052=0466.39655794,0004.13400000,0538.85800000,-0000.57780000,-0000.47430000,-0050.70270000,
P00053=0466.79265525,0004.13400000,0538.85800000,-0000.57780000,-0000.47430000,-0050.70270000,
P00054=0467.11058900,0004.13400000,0538.85800000,-0000.57780000,-0000.47430000,-0050.70270000,
P00055=0467.36324641,0004.13400000,0538.85800000,-0000.57780000,-0000.47430000,-0050.70270000,
P00056=0467.56203347,0004.13400000,0538.85800000,-0000.57780000,-0000.47430000,-0050.70270000,
P00057=0467.71688120,0004.13400000,0538.85800000,-0000.57780000,-0000.47430000,-0050.70270000,
P00058=0467.83630262,0004.13400000,0538.85800000,-0000.57780000,-0000.47430000,-0050.70270000,
P00059=0467.92748697,0004.13400000,0538.85800000,-0000.57780000,-0000.47430000,-0050.70270000,
P00060=0467.99641867,0004.13400000,0538.85800000,-0000.57780000,-0000.47430000,-0050.70270000,
P00061=0303.04901020,0000.62300000,0474.03100000,-0000.22600000,-0000.81470000,-0160.29600000
P00062=0302.99741867,0000.62300000,0474.03100000,-0000.22600000,-0000.81470000,-0160.29600000
P00063=0302.92848697,0000.62300000,0474.03100000,-0000.22600000,-0000.81470000,-0160.29600000
P00064=0302.83730262,0000.62300000,0474.03100000,-0000.22600000,-0000.81470000,-0160.29600000
P00065=0302.71788120,0000.62300000,0474.03100000,-0000.22600000,-0000.81470000,-0160.29600000
P00066=0302.56303347,0000.62300000,0474.03100000,-0000.22600000,-0000.81470000,-0160.29600000
P00067=0302.36424641,0000.62300000,0474.03100000,-0000.22600000,-0000.81470000,-0160.29600000
P00068=0302.11158900,0000.62300000,0474.03100000,-0000.22600000,-0000.81470000,-0160.29600000
P00069=0301.79365525,0000.62300000,0474.03100000,-0000.22600000,-0000.81470000,-0160.29600000
P00070=0301.39755794,0000.62300000,0474.03100000,-0000.22600000,-0000.81470000,-0160.29600000
P00071=0300.90898681,0000.62300000,0474.03100000,-0000.22600000,-0000.81470000,-0160.29600000
P00072=0300.31234402,0000.62300000,0474.03100000,-0000.22600000,-0000.81470000,-0160.29600000
P00073=0299.59096809,0000.62300000,0474.03100000,-0000.22600000,-0000.81470000,-0160.29600000
P00074=0298.72745372,0000.62300000,0474.03100000,-0000.22600000,-0000.81470000,-0160.29600000
P00075=0297.70407083,0000.62300000,0474.03100000,-0000.22600000,-0000.81470000,-0160.29600000
P00076=0296.50327987,0000.62300000,0474.03100000,-0000.22600000,-0000.81470000,-0160.29600000
P00077=0295.10833408,0000.62300000,0474.03100000,-0000.22600000,-0000.81470000,-0160.29600000
P00078=0293.50395154,0000.62300000,0474.03100000,-0000.22600000,-0000.81470000,-0160.29600000
P00079=0291.67703298,0000.62300000,0474.03100000,-0000.22600000,-0000.81470000,-0160.29600000
P00080=0289.61739391,0000.62300000,0474.03100000,-0000.22600000,-0000.81470000,-0160.29600000
P00081=0287.31847461,0000.62300000,0474.03100000,-0000.22600000,-0000.81470000,-0160.29600000
P00082=0284.77798747,0000.62300000,0474.03100000,-0000.22600000,-0000.81470000,-0160.29600000
P00083=0281.99846014,0000.62300000,0474.03100000,-0000.22600000,-0000.81470000,-0160.29600000
P00084=0278.98763478,0000.62300000,0474.03100000,-0000.22600000,-0000.81470000,-0160.29600000
P00085=0275.75868822,0000.62300000,0474.03100000,-0000.22600000,-0000.81470000,-0160.29600000
P00086=0272.33024613,0000.62300000,0474.03100000,-0000.22600000,-0000.81470000,-0160.29600000
P00087=0268.72617416,0000.62300000,0474.03100000,-0000.22600000,-0000.81470000,-0160.29600000
P00088=0264.97514222,0000.62300000,0474.03100000,-0000.22600000,-0000.81470000,-0160.29600000
P00089=0261.10997094,0000.62300000,0474.03100000,-0000.22600000,-0000.81470000,-0160.29600000
P00090=0257.16678373,0000.62300000,0474.03100000,-0000.22600000,-0000.81470000,-0160.29600000
P00091=0253.18400000,0000.62300000,0474.03100000,-0000.22600000,-0000.81470000,-0160.29600000
P00092=0249.20121627,0000.62300000,0474.03100000,-0000.22600000,-0000.81470000,-0160.29600000
P00093=0245.25802906,0000.62300000,0474.03100000,-0000.22600000,-0000.81470000,-0160.29600000
P00094=0241.39285778,0000.62300000,0474.03100000,-0000.22600000,-0000.81470000,-0160.29600000
P00095=0237.64182584,0000.62300000,0474.03100000,-0000.22600000,-0000.81470000,-0160.29600000
P00096=0234.03775387,0000.62300000,0474.03100000,-0000.22600000,-0000.81470000,-0160.29600000
P00097=0230.60931178,0000.62300000,0474.03100000,-0000.22600000,-0000.81470000,-0160.29600000
P00098=0227.38036522,0000.62300000,0474.03100000,-0000.22600000,-0000.81470000,-0160.29600000
P00099=0224.36953986,0000.62300000,0474.03100000,-0000.22600000,-0000.81470000,-0160.29600000
P00100=0221.59001253,0000.62300000,0474.03100000,-0000.22600000,-0000.81470000,-0160.29600000
P00101=0219.04952539,0000.62300000,0474.03100000,-0000.22600000,-0000.81470000,-0160.29600000
P00102=0216.75060609,0000.62300000,0474.03100000,-0000.22600000,-0000.81470000,-0160.29600000
P00103=0214.69096702,0000.62300000,0474.03100000,-0000.22600000,-0000.81470000,-0160.29600000
P00104=0212.86404846,0000.62300000,0474.03100000,-0000.22600000,-0000.81470000,-0160.29600000
P00105=0211.25966592,0000.62300000,0474.03100000,-0000.22600000,-0000.81470000,-0160.29600000
P00106=0209.86472013,0000.62300000,0474.03100000,-0000.22600000,-0000.81470000,-0160.29600000
P00107=0208.66392917,0000.62300000,0474.03100000,-0000.22600000,-0000.81470000,-0160.29600000
P00108=0207.64054628,0000.62300000,0474.03100000,-0000.22600000,-0000.81470000,-0160.29600000
P00109=0206.77703191,0000.62300000,0474.03100000,-0000.22600000,-0000.81470000,-0160.29600000
P00110=0206.05565598,0000.62300000,0474.03100000,-0000.22600000,-0000.81470000,-0160.29600000
P00111=0205.45901319,0000.62300000,0474.03100000,-0000.22600000,-0000.81470000,-0160.29600000
P00112=0204.97044206,0000.62300000,0474.03100000,-0000.22600000,-0000.81470000,-0160.29600000
P00113=0204.57434475,0000.62300000,0474.03100000,-0000.22600000,-0000.81470000,-0160.29600000
P00114=0204.25641100,0000.62300000,0474.03100000,-0000.22600000,-0000.81470000,-0160.29600000
P00115=0204.00375359,0000.62300000,0474.03100000,-0000.22600000,-0000.81470000,-0160.29600000
P00116=0203.80496653,0000.62300000,0474.03100000,-0000.22600000,-0000.81470000,-0160.29600000
P00117=0203.65011880,0000.62300000,0474.03100000,-0000.22600000,-0000.81470000,-0160.29600000
P00118=0203.53069738,0000.62300000,0474.03100000,-0000.22600000,-0000.81470000,-0160.29600000
P00119=0203.43951303,0000.62300000,0474.03100000,-0000.22600000,-0000.81470000,-0160.29600000
P00120=0203.37058133,0000.62300000,0474.03100000,-0000.22600000,-0000.81470000,-0160.29600000
//INST
///DATE 2017/03/31 08:11
///COMM PLAYINGTWOROBOTS
///ATTR SC,RW
///GROUP1 RB1
///GROUP2 RB2
NOP
MOVL P00001 V=0003.2244704  +MOVL P00061 V=0003.2244704
MOVL P00002 V=0004.3082314  +MOVL P00062 V=0004.3082314
MOVL P00003 V=0005.6990217  +MOVL P00063 V=0005.6990217
MOVL P00004 V=0007.4638389  +MOVL P00064 V=0007.4638389
MOVL P00005 V=0009.6779831  +MOVL P00065 V=0009.6779831
MOVL P00006 V=0012.4241912  +MOVL P00066 V=0012.4241912
MOVL P00007 V=0015.7910881  +MOVL P00067 V=0015.7910881
MOVL P00008 V=0019.8708593  +MOVL P00068 V=0019.8708593
MOVL P00009 V=0024.7560816  +MOVL P00069 V=0024.7560816
MOVL P00010 V=0030.5356962  +MOVL P00070 V=0030.5356962
MOVL P00011 V=0037.2901742  +MOVL P00071 V=0037.2901742
MOVL P00012 V=0045.0859956  +MOVL P00072 V=0045.0859956
MOVL P00013 V=0053.9696478  +MOVL P00073 V=0053.9696478
MOVL P00014 V=0063.9614309  +MOVL P00074 V=0063.9614309
MOVL P00015 V=0075.0494348  +MOVL P00075 V=0075.0494348
MOVL P00016 V=0087.1841123  +MOVL P00076 V=0087.1841123
MOVL P00017 V=0100.2739084  +MOVL P00077 V=0100.2739084
MOVL P00018 V=0114.1824102  +MOVL P00078 V=0114.1824102
MOVL P00019 V=0128.7274420  +MOVL P00079 V=0128.7274420
MOVL P00020 V=0143.6824562  +MOVL P00080 V=0143.6824562
MOVL P00021 V=0158.7804463  +MOVL P00081 V=0158.7804463
MOVL P00022 V=0173.7204577  +MOVL P00082 V=0173.7204577
MOVL P00023 V=0188.1765852  +MOVL P00083 V=0188.1765852
MOVL P00024 V=0201.8091595  +MOVL P00084 V=0201.8091595
MOVL P00025 V=0214.2776311  +MOVL P00085 V=0214.2776311
MOVL P00026 V=0225.2544979  +MOVL P00086 V=0225.2544979
MOVL P00027 V=0234.4394964  +MOVL P00087 V=0234.4394964
MOVL P00028 V=0241.5732047  +MOVL P00088 V=0241.5732047
MOVL P00029 V=0246.4492010  +MOVL P00089 V=0246.4492010
MOVL P00030 V=0248.9239830  +MOVL P00090 V=0248.9239830
MOVL P00031 V=0248.9239830  +MOVL P00091 V=0248.9239830
MOVL P00032 V=0246.4492010  +MOVL P00092 V=0246.4492010
MOVL P00033 V=0241.5732047  +MOVL P00093 V=0241.5732047
MOVL P00034 V=0234.4394964  +MOVL P00094 V=0234.4394964
MOVL P00035 V=0225.2544979  +MOVL P00095 V=0225.2544979
MOVL P00036 V=0214.2776311  +MOVL P00096 V=0214.2776311
MOVL P00037 V=0201.8091595  +MOVL P00097 V=0201.8091595
MOVL P00038 V=0188.1765852  +MOVL P00098 V=0188.1765852
MOVL P00039 V=0173.7204577  +MOVL P00099 V=0173.7204577
MOVL P00040 V=0158.7804463  +MOVL P00100 V=0158.7804463
MOVL P00041 V=0143.6824562  +MOVL P00101 V=0143.6824562
MOVL P00042 V=0128.7274420  +MOVL P00102 V=0128.7274420
MOVL P00043 V=0114.1824102  +MOVL P00103 V=0114.1824102
MOVL P00044 V=0100.2739084  +MOVL P00104 V=0100.2739084
MOVL P00045 V=0087.1841123  +MOVL P00105 V=0087.1841123
MOVL P00046 V=0075.0494348  +MOVL P00106 V=0075.0494348
MOVL P00047 V=0063.9614309  +MOVL P00107 V=0063.9614309
MOVL P00048 V=0053.9696478  +MOVL P00108 V=0053.9696478
MOVL P00049 V=0045.0859956  +MOVL P00109 V=0045.0859956
MOVL P00050 V=0037.2901742  +MOVL P00110 V=0037.2901742
MOVL P00051 V=0030.5356962  +MOVL P00111 V=0030.5356962
MOVL P00052 V=0024.7560816  +MOVL P00112 V=0024.7560816
MOVL P00053 V=0019.8708593  +MOVL P00113 V=0019.8708593
MOVL P00054 V=0015.7910881  +MOVL P00114 V=0015.7910881
MOVL P00055 V=0012.4241912  +MOVL P00115 V=0012.4241912
MOVL P00056 V=0009.6779831  +MOVL P00116 V=0009.6779831
MOVL P00057 V=0007.4638389  +MOVL P00117 V=0007.4638389
MOVL P00058 V=0005.6990217  +MOVL P00118 V=0005.6990217
MOVL P00059 V=0004.3082314  +MOVL P00119 V=0004.3082314
MOVL P00060 V=0004.3082314  +MOVL P00120 V=0004.3082314
END
