/JOB
//NAME GAUSSIANMOVING2
//POS
///NPOS 0,0,0,61,0,0
///TOOL 0
///POSTYPE ROBOT
///RECTAN
///RCONF 0,0,0,0,0,0,0,0,0,0,0,0,0,0,0,0,0,0,0,0,0,0,0,0
P00000=10.000,0.000,0.000,0.0000,0.0000,0.0000
///POSTYPE BASE
P00001=0272.89852368,0000.05399592,0483.09500000,0000.00000000,0000.00400000,0180.00000000,
P00002=0272.93426734,0000.07463253,0483.09500000,0000.00000000,0000.00400000,0180.00000000,
P00003=0272.98202462,0000.10220521,0483.09500000,0000.00000000,0000.00400000,0180.00000000,
P00004=0273.04519899,0000.13867895,0483.09500000,0000.00000000,0000.00400000,0180.00000000,
P00005=0273.12793658,0000.18644752,0483.09500000,0000.00000000,0000.00400000,0180.00000000,
P00006=0273.23521823,0000.24838661,0483.09500000,0000.00000000,0000.00400000,0180.00000000,
P00007=0273.37294195,0000.32790144,0483.09500000,0000.00000000,0000.00400000,0180.00000000,
P00008=0273.54798814,0000.42896440,0483.09500000,0000.00000000,0000.00400000,0180.00000000,
P00009=0273.76825910,0000.55613790,0483.09500000,0000.00000000,0000.00400000,0180.00000000,
P00010=0274.04268336,0000.71457682,0483.09500000,0000.00000000,0000.00400000,0180.00000000,
P00011=0274.38117538,0000.91000528,0483.09500000,0000.00000000,0000.00400000,0180.00000000,
P00012=0274.79454162,0001.14866239,0483.09500000,0000.00000000,0000.00400000,0180.00000000,
P00013=0275.29432553,0001.43721276,0483.09500000,0000.00000000,0000.00400000,0180.00000000,
P00014=0275.89258583,0001.78261851,0483.09500000,0000.00000000,0000.00400000,0180.00000000,
P00015=0276.60160630,0002.19197167,0483.09500000,0000.00000000,0000.00400000,0180.00000000,
P00016=0277.43353868,0002.67228805,0483.09500000,0000.00000000,0000.00400000,0180.00000000,
P00017=0278.39998547,0003.23026637,0483.09500000,0000.00000000,0000.00400000,0180.00000000,
P00018=0279.51153430,0003.87201938,0483.09500000,0000.00000000,0000.00400000,0180.00000000,
P00019=0280.77726061,0004.60278681,0483.09500000,0000.00000000,0000.00400000,0180.00000000,
P00020=0282.20422042,0005.42664244,0483.09500000,0000.00000000,0000.00400000,0180.00000000,
P00021=0283.79695843,0006.34621016,0483.09500000,0000.00000000,0000.00400000,0180.00000000,
P00022=0285.55705955,0007.36240501,0483.09500000,0000.00000000,0000.00400000,0180.00000000,
P00023=0287.48277257,0008.47421594,0483.09500000,0000.00000000,0000.00400000,0180.00000000,
P00024=0289.56873357,0009.67854609,0483.09500000,0000.00000000,0000.00400000,0180.00000000,
P00025=0291.80581336,0010.97012471,0483.09500000,0000.00000000,0000.00400000,0180.00000000,
P00026=0294.18110772,0012.34150155,0483.09500000,0000.00000000,0000.00400000,0180.00000000,
P00027=0296.67808203,0013.78313034,0483.09500000,0000.00000000,0000.00400000,0180.00000000,
P00028=0299.27687319,0015.28354311,0483.09500000,0000.00000000,0000.00400000,0180.00000000,
P00029=0301.95474240,0016.82961162,0483.09500000,0000.00000000,0000.00400000,0180.00000000,
P00030=0304.68666264,0018.40688651,0483.09500000,0000.00000000,0000.00400000,0180.00000000,
P00031=0307.44601615,0020.00000000,0483.09500000,0000.00000000,0000.00400000,0180.00000000,
P00032=0310.20536966,0021.59311349,0483.09500000,0000.00000000,0000.00400000,0180.00000000,
P00033=0312.93728990,0023.17038838,0483.09500000,0000.00000000,0000.00400000,0180.00000000,
P00034=0315.61515911,0024.71645689,0483.09500000,0000.00000000,0000.00400000,0180.00000000,
P00035=0318.21395027,0026.21686966,0483.09500000,0000.00000000,0000.00400000,0180.00000000,
P00036=0320.71092458,0027.65849845,0483.09500000,0000.00000000,0000.00400000,0180.00000000,
P00037=0323.08621894,0029.02987529,0483.09500000,0000.00000000,0000.00400000,0180.00000000,
P00038=0325.32329873,0030.32145391,0483.09500000,0000.00000000,0000.00400000,0180.00000000,
P00039=0327.40925973,0031.52578406,0483.09500000,0000.00000000,0000.00400000,0180.00000000,
P00040=0329.33497275,0032.63759499,0483.09500000,0000.00000000,0000.00400000,0180.00000000,
P00041=0331.09507387,0033.65378984,0483.09500000,0000.00000000,0000.00400000,0180.00000000,
P00042=0332.68781189,0034.57335756,0483.09500000,0000.00000000,0000.00400000,0180.00000000,
P00043=0334.11477169,0035.39721319,0483.09500000,0000.00000000,0000.00400000,0180.00000000,
P00044=0335.38049800,0036.12798062,0483.09500000,0000.00000000,0000.00400000,0180.00000000,
P00045=0336.49204683,0036.76973363,0483.09500000,0000.00000000,0000.00400000,0180.00000000,
P00046=0337.45849363,0037.32771195,0483.09500000,0000.00000000,0000.00400000,0180.00000000,
P00047=0338.29042601,0037.80802833,0483.09500000,0000.00000000,0000.00400000,0180.00000000,
P00048=0338.99944647,0038.21738149,0483.09500000,0000.00000000,0000.00400000,0180.00000000,
P00049=0339.59770677,0038.56278724,0483.09500000,0000.00000000,0000.00400000,0180.00000000,
P00050=0340.09749068,0038.85133761,0483.09500000,0000.00000000,0000.00400000,0180.00000000,
P00051=0340.51085693,0039.08999472,0483.09500000,0000.00000000,0000.00400000,0180.00000000,
P00052=0340.84934894,0039.28542318,0483.09500000,0000.00000000,0000.00400000,0180.00000000,
P00053=0341.12377320,0039.44386210,0483.09500000,0000.00000000,0000.00400000,0180.00000000,
P00054=0341.34404417,0039.57103560,0483.09500000,0000.00000000,0000.00400000,0180.00000000,
P00055=0341.51909035,0039.67209856,0483.09500000,0000.00000000,0000.00400000,0180.00000000,
P00056=0341.65681407,0039.75161339,0483.09500000,0000.00000000,0000.00400000,0180.00000000,
P00057=0341.76409572,0039.81355248,0483.09500000,0000.00000000,0000.00400000,0180.00000000,
P00058=0341.84683331,0039.86132105,0483.09500000,0000.00000000,0000.00400000,0180.00000000,
P00059=0341.91000768,0039.89779479,0483.09500000,0000.00000000,0000.00400000,0180.00000000,
P00060=0341.95776497,0039.92536747,0483.09500000,0000.00000000,0000.00400000,0180.00000000,
//INST
///DATE 2017/03/31 08:11
///ATTR SC,RW
///GROUP1 RB1
NOP
MOVL P00001 V=0002.5795763
MOVL P00002 V=0003.4465852
MOVL P00003 V=0004.5592174
MOVL P00004 V=0005.9710711
MOVL P00005 V=0007.7423865
MOVL P00006 V=0009.9393530
MOVL P00007 V=0012.6328705
MOVL P00008 V=0015.8966875
MOVL P00009 V=0019.8048652
MOVL P00010 V=0024.4285569
MOVL P00011 V=0029.8321393
MOVL P00012 V=0036.0687965
MOVL P00013 V=0043.1757182
MOVL P00014 V=0051.1691447
MOVL P00015 V=0060.0395478
MOVL P00016 V=0069.7472898
MOVL P00017 V=0080.2191268
MOVL P00018 V=0091.3459282
MOVL P00019 V=0102.9819536
MOVL P00020 V=0114.9459649
MOVL P00021 V=0127.0243571
MOVL P00022 V=0138.9763662
MOVL P00023 V=0150.5412682
MOVL P00024 V=0161.4473276
MOVL P00025 V=0171.4221049
MOVL P00026 V=0180.2035983
MOVL P00027 V=0187.5515971
MOVL P00028 V=0193.2585637
MOVL P00029 V=0197.1593608
MOVL P00030 V=0199.1391864
MOVL P00031 V=0199.1391864
MOVL P00032 V=0197.1593608
MOVL P00033 V=0193.2585637
MOVL P00034 V=0187.5515971
MOVL P00035 V=0180.2035983
MOVL P00036 V=0171.4221049
MOVL P00037 V=0161.4473276
MOVL P00038 V=0150.5412682
MOVL P00039 V=0138.9763662
MOVL P00040 V=0127.0243571
MOVL P00041 V=0114.9459649
MOVL P00042 V=0102.9819536
MOVL P00043 V=0091.3459282
MOVL P00044 V=0080.2191268
MOVL P00045 V=0069.7472898
MOVL P00046 V=0060.0395478
MOVL P00047 V=0051.1691447
MOVL P00048 V=0043.1757182
MOVL P00049 V=0036.0687965
MOVL P00050 V=0029.8321393
MOVL P00051 V=0024.4285569
MOVL P00052 V=0019.8048652
MOVL P00053 V=0015.8966875
MOVL P00054 V=0012.6328705
MOVL P00055 V=0009.9393530
MOVL P00056 V=0007.7423865
MOVL P00057 V=0005.9710711
MOVL P00058 V=0004.5592174
MOVL P00059 V=0003.4465852
MOVL P00060 V=0003.4465852
END
