/JOB
//NAME GAUSSIANMOVING2
//POS
///NPOS 0,0,0,121,0,0
///TOOL 0
///POSTYPE ROBOT
///RECTAN
///RCONF 0,0,0,0,0,0,0,0,0,0,0,0,0,0,0,0,0,0,0,0,0,0,0,0
P00000=10.000,0.000,0.000,0.0000,0.0000,0.0000
///POSTYPE BASE
P00001=0368.22278624,0004.12644635,0538.85800000,-0000.57780000,-0000.47430000,-0050.70270000,
P00002=0368.23799207,0004.12355943,0538.85800000,-0000.57780000,-0000.47430000,-0050.70270000,
P00003=0368.25830866,0004.11970220,0538.85800000,-0000.57780000,-0000.47430000,-0050.70270000,
P00004=0368.28518389,0004.11459978,0538.85800000,-0000.57780000,-0000.47430000,-0050.70270000,
P00005=0368.32038158,0004.10791729,0538.85800000,-0000.57780000,-0000.47430000,-0050.70270000,
P00006=0368.36602065,0004.09925244,0538.85800000,-0000.57780000,-0000.47430000,-0050.70270000,
P00007=0368.42461017,0004.08812888,0538.85800000,-0000.57780000,-0000.47430000,-0050.70270000,
P00008=0368.49907718,0004.07399087,0538.85800000,-0000.57780000,-0000.47430000,-0050.70270000,
P00009=0368.59278343,0004.05620019,0538.85800000,-0000.57780000,-0000.47430000,-0050.70270000,
P00010=0368.70952721,0004.03403569,0538.85800000,-0000.57780000,-0000.47430000,-0050.70270000,
P00011=0368.85352629,0004.00669661,0538.85800000,-0000.57780000,-0000.47430000,-0050.70270000,
P00012=0369.02937787,0003.97331014,0538.85800000,-0000.57780000,-0000.47430000,-0050.70270000,
P00013=0369.24199269,0003.93294396,0538.85800000,-0000.57780000,-0000.47430000,-0050.70270000,
P00014=0369.49650070,0003.88462410,0538.85800000,-0000.57780000,-0000.47430000,-0050.70270000,
P00015=0369.79812758,0003.82735845,0538.85800000,-0000.57780000,-0000.47430000,-0050.70270000,
P00016=0370.15204284,0003.76016554,0538.85800000,-0000.57780000,-0000.47430000,-0050.70270000,
P00017=0370.56318236,0003.68210826,0538.85800000,-0000.57780000,-0000.47430000,-0050.70270000,
P00018=0371.03605024,0003.59233149,0538.85800000,-0000.57780000,-0000.47430000,-0050.70270000,
P00019=0371.57450730,0003.49010222,0538.85800000,-0000.57780000,-0000.47430000,-0050.70270000,
P00020=0372.18155527,0003.37485056,0538.85800000,-0000.57780000,-0000.47430000,-0050.70270000,
P00021=0372.85912752,0003.24620945,0538.85800000,-0000.57780000,-0000.47430000,-0050.70270000,
P00022=0373.60789830,0003.10405088,0538.85800000,-0000.57780000,-0000.47430000,-0050.70270000,
P00023=0374.42712262,0002.94851628,0538.85800000,-0000.57780000,-0000.47430000,-0050.70270000,
P00024=0375.31451859,0002.78003889,0538.85800000,-0000.57780000,-0000.47430000,-0050.70270000,
P00025=0376.26620254,0002.59935605,0538.85800000,-0000.57780000,-0000.47430000,-0050.70270000,
P00026=0377.27668483,0002.40750999,0538.85800000,-0000.57780000,-0000.47430000,-0050.70270000,
P00027=0378.33893141,0002.20583618,0538.85800000,-0000.57780000,-0000.47430000,-0050.70270000,
P00028=0379.44449226,0001.99593889,0538.85800000,-0000.57780000,-0000.47430000,-0050.70270000,
P00029=0380.58369397,0001.77965469,0538.85800000,-0000.57780000,-0000.47430000,-0050.70270000,
P00030=0381.74588973,0001.55900493,0538.85800000,-0000.57780000,-0000.47430000,-0050.70270000,
P00031=0382.91975597,0001.33613946,0538.85800000,-0000.57780000,-0000.47430000,-0050.70270000,
P00032=0384.09362220,0001.11327399,0538.85800000,-0000.57780000,-0000.47430000,-0050.70270000,
P00033=0385.25581796,0000.89262423,0538.85800000,-0000.57780000,-0000.47430000,-0050.70270000,
P00034=0386.39501967,0000.67634003,0538.85800000,-0000.57780000,-0000.47430000,-0050.70270000,
P00035=0387.50058052,0000.46644274,0538.85800000,-0000.57780000,-0000.47430000,-0050.70270000,
P00036=0388.56282710,0000.26476893,0538.85800000,-0000.57780000,-0000.47430000,-0050.70270000,
P00037=0389.57330939,0000.07292287,0538.85800000,-0000.57780000,-0000.47430000,-0050.70270000,
P00038=0390.52499334,-0000.10775997,0538.85800000,-0000.57780000,-0000.47430000,-0050.70270000,
P00039=0391.41238931,-0000.27623736,0538.85800000,-0000.57780000,-0000.47430000,-0050.70270000,
P00040=0392.23161363,-0000.43177196,0538.85800000,-0000.57780000,-0000.47430000,-0050.70270000,
P00041=0392.98038441,-0000.57393053,0538.85800000,-0000.57780000,-0000.47430000,-0050.70270000,
P00042=0393.65795667,-0000.70257164,0538.85800000,-0000.57780000,-0000.47430000,-0050.70270000,
P00043=0394.26500463,-0000.81782330,0538.85800000,-0000.57780000,-0000.47430000,-0050.70270000,
P00044=0394.80346169,-0000.92005257,0538.85800000,-0000.57780000,-0000.47430000,-0050.70270000,
P00045=0395.27632957,-0001.00982934,0538.85800000,-0000.57780000,-0000.47430000,-0050.70270000,
P00046=0395.68746909,-0001.08788662,0538.85800000,-0000.57780000,-0000.47430000,-0050.70270000,
P00047=0396.04138435,-0001.15507953,0538.85800000,-0000.57780000,-0000.47430000,-0050.70270000,
P00048=0396.34301123,-0001.21234518,0538.85800000,-0000.57780000,-0000.47430000,-0050.70270000,
P00049=0396.59751924,-0001.26066504,0538.85800000,-0000.57780000,-0000.47430000,-0050.70270000,
P00050=0396.81013406,-0001.30103122,0538.85800000,-0000.57780000,-0000.47430000,-0050.70270000,
P00051=0396.98598565,-0001.33441769,0538.85800000,-0000.57780000,-0000.47430000,-0050.70270000,
P00052=0397.12998472,-0001.36175677,0538.85800000,-0000.57780000,-0000.47430000,-0050.70270000,
P00053=0397.24672851,-0001.38392127,0538.85800000,-0000.57780000,-0000.47430000,-0050.70270000,
P00054=0397.34043475,-0001.40171195,0538.85800000,-0000.57780000,-0000.47430000,-0050.70270000,
P00055=0397.41490176,-0001.41584996,0538.85800000,-0000.57780000,-0000.47430000,-0050.70270000,
P00056=0397.47349129,-0001.42697353,0538.85800000,-0000.57780000,-0000.47430000,-0050.70270000,
P00057=0397.51913035,-0001.43563837,0538.85800000,-0000.57780000,-0000.47430000,-0050.70270000,
P00058=0397.55432804,-0001.44232086,0538.85800000,-0000.57780000,-0000.47430000,-0050.70270000,
P00059=0397.58120327,-0001.44742328,0538.85800000,-0000.57780000,-0000.47430000,-0050.70270000,
P00060=0397.60151986,-0001.45128051,0538.85800000,-0000.57780000,-0000.47430000,-0050.70270000,
P00061=0303.14421376,0000.63055365,0474.03100000,-0000.22600000,-0000.81470000,-0160.29600000
P00062=0303.12900793,0000.63344057,0474.03100000,-0000.22600000,-0000.81470000,-0160.29600000
P00063=0303.10869134,0000.63729780,0474.03100000,-0000.22600000,-0000.81470000,-0160.29600000
P00064=0303.08181611,0000.64240022,0474.03100000,-0000.22600000,-0000.81470000,-0160.29600000
P00065=0303.04661842,0000.64908271,0474.03100000,-0000.22600000,-0000.81470000,-0160.29600000
P00066=0303.00097935,0000.65774756,0474.03100000,-0000.22600000,-0000.81470000,-0160.29600000
P00067=0302.94238983,0000.66887112,0474.03100000,-0000.22600000,-0000.81470000,-0160.29600000
P00068=0302.86792282,0000.68300913,0474.03100000,-0000.22600000,-0000.81470000,-0160.29600000
P00069=0302.77421657,0000.70079981,0474.03100000,-0000.22600000,-0000.81470000,-0160.29600000
P00070=0302.65747279,0000.72296431,0474.03100000,-0000.22600000,-0000.81470000,-0160.29600000
P00071=0302.51347371,0000.75030339,0474.03100000,-0000.22600000,-0000.81470000,-0160.29600000
P00072=0302.33762213,0000.78368986,0474.03100000,-0000.22600000,-0000.81470000,-0160.29600000
P00073=0302.12500731,0000.82405604,0474.03100000,-0000.22600000,-0000.81470000,-0160.29600000
P00074=0301.87049930,0000.87237590,0474.03100000,-0000.22600000,-0000.81470000,-0160.29600000
P00075=0301.56887242,0000.92964155,0474.03100000,-0000.22600000,-0000.81470000,-0160.29600000
P00076=0301.21495716,0000.99683446,0474.03100000,-0000.22600000,-0000.81470000,-0160.29600000
P00077=0300.80381764,0001.07489174,0474.03100000,-0000.22600000,-0000.81470000,-0160.29600000
P00078=0300.33094976,0001.16466851,0474.03100000,-0000.22600000,-0000.81470000,-0160.29600000
P00079=0299.79249270,0001.26689778,0474.03100000,-0000.22600000,-0000.81470000,-0160.29600000
P00080=0299.18544473,0001.38214944,0474.03100000,-0000.22600000,-0000.81470000,-0160.29600000
P00081=0298.50787248,0001.51079055,0474.03100000,-0000.22600000,-0000.81470000,-0160.29600000
P00082=0297.75910170,0001.65294912,0474.03100000,-0000.22600000,-0000.81470000,-0160.29600000
P00083=0296.93987738,0001.80848372,0474.03100000,-0000.22600000,-0000.81470000,-0160.29600000
P00084=0296.05248141,0001.97696111,0474.03100000,-0000.22600000,-0000.81470000,-0160.29600000
P00085=0295.10079746,0002.15764395,0474.03100000,-0000.22600000,-0000.81470000,-0160.29600000
P00086=0294.09031517,0002.34949001,0474.03100000,-0000.22600000,-0000.81470000,-0160.29600000
P00087=0293.02806859,0002.55116382,0474.03100000,-0000.22600000,-0000.81470000,-0160.29600000
P00088=0291.92250774,0002.76106111,0474.03100000,-0000.22600000,-0000.81470000,-0160.29600000
P00089=0290.78330603,0002.97734531,0474.03100000,-0000.22600000,-0000.81470000,-0160.29600000
P00090=0289.62111027,0003.19799507,0474.03100000,-0000.22600000,-0000.81470000,-0160.29600000
P00091=0288.44724403,0003.42086054,0474.03100000,-0000.22600000,-0000.81470000,-0160.29600000
P00092=0287.27337780,0003.64372601,0474.03100000,-0000.22600000,-0000.81470000,-0160.29600000
P00093=0286.11118204,0003.86437577,0474.03100000,-0000.22600000,-0000.81470000,-0160.29600000
P00094=0284.97198033,0004.08065997,0474.03100000,-0000.22600000,-0000.81470000,-0160.29600000
P00095=0283.86641948,0004.29055726,0474.03100000,-0000.22600000,-0000.81470000,-0160.29600000
P00096=0282.80417290,0004.49223107,0474.03100000,-0000.22600000,-0000.81470000,-0160.29600000
P00097=0281.79369061,0004.68407713,0474.03100000,-0000.22600000,-0000.81470000,-0160.29600000
P00098=0280.84200666,0004.86475997,0474.03100000,-0000.22600000,-0000.81470000,-0160.29600000
P00099=0279.95461069,0005.03323736,0474.03100000,-0000.22600000,-0000.81470000,-0160.29600000
P00100=0279.13538637,0005.18877196,0474.03100000,-0000.22600000,-0000.81470000,-0160.29600000
P00101=0278.38661559,0005.33093053,0474.03100000,-0000.22600000,-0000.81470000,-0160.29600000
P00102=0277.70904333,0005.45957164,0474.03100000,-0000.22600000,-0000.81470000,-0160.29600000
P00103=0277.10199537,0005.57482330,0474.03100000,-0000.22600000,-0000.81470000,-0160.29600000
P00104=0276.56353831,0005.67705257,0474.03100000,-0000.22600000,-0000.81470000,-0160.29600000
P00105=0276.09067043,0005.76682934,0474.03100000,-0000.22600000,-0000.81470000,-0160.29600000
P00106=0275.67953091,0005.84488662,0474.03100000,-0000.22600000,-0000.81470000,-0160.29600000
P00107=0275.32561565,0005.91207953,0474.03100000,-0000.22600000,-0000.81470000,-0160.29600000
P00108=0275.02398877,0005.96934518,0474.03100000,-0000.22600000,-0000.81470000,-0160.29600000
P00109=0274.76948076,0006.01766504,0474.03100000,-0000.22600000,-0000.81470000,-0160.29600000
P00110=0274.55686594,0006.05803122,0474.03100000,-0000.22600000,-0000.81470000,-0160.29600000
P00111=0274.38101435,0006.09141769,0474.03100000,-0000.22600000,-0000.81470000,-0160.29600000
P00112=0274.23701528,0006.11875677,0474.03100000,-0000.22600000,-0000.81470000,-0160.29600000
P00113=0274.12027149,0006.14092127,0474.03100000,-0000.22600000,-0000.81470000,-0160.29600000
P00114=0274.02656525,0006.15871195,0474.03100000,-0000.22600000,-0000.81470000,-0160.29600000
P00115=0273.95209824,0006.17284996,0474.03100000,-0000.22600000,-0000.81470000,-0160.29600000
P00116=0273.89350871,0006.18397353,0474.03100000,-0000.22600000,-0000.81470000,-0160.29600000
P00117=0273.84786965,0006.19263837,0474.03100000,-0000.22600000,-0000.81470000,-0160.29600000
P00118=0273.81267196,0006.19932086,0474.03100000,-0000.22600000,-0000.81470000,-0160.29600000
P00119=0273.78579673,0006.20442328,0474.03100000,-0000.22600000,-0000.81470000,-0160.29600000
P00120=0273.76548014,0006.20828051,0474.03100000,-0000.22600000,-0000.81470000,-0160.29600000
//INST
///DATE 2017/03/31 08:11
///COMM PLAYINGTWOROBOTS
///ATTR SC,RW
///GROUP1 RB1
///GROUP2 RB2
NOP
MOVL P00001 V=0000.9673411  +MOVL P00061 V=0000.9673411
MOVL P00002 V=0001.2924694  +MOVL P00062 V=0001.2924694
MOVL P00003 V=0001.7097065  +MOVL P00063 V=0001.7097065
MOVL P00004 V=0002.2391517  +MOVL P00064 V=0002.2391517
MOVL P00005 V=0002.9033949  +MOVL P00065 V=0002.9033949
MOVL P00006 V=0003.7272574  +MOVL P00066 V=0003.7272574
MOVL P00007 V=0004.7373264  +MOVL P00067 V=0004.7373264
MOVL P00008 V=0005.9612578  +MOVL P00068 V=0005.9612578
MOVL P00009 V=0007.4268245  +MOVL P00069 V=0007.4268245
MOVL P00010 V=0009.1607088  +MOVL P00070 V=0009.1607088
MOVL P00011 V=0011.1870523  +MOVL P00071 V=0011.1870523
MOVL P00012 V=0013.5257987  +MOVL P00072 V=0013.5257987
MOVL P00013 V=0016.1908943  +MOVL P00073 V=0016.1908943
MOVL P00014 V=0019.1884293  +MOVL P00074 V=0019.1884293
MOVL P00015 V=0022.5148304  +MOVL P00075 V=0022.5148304
MOVL P00016 V=0026.1552337  +MOVL P00076 V=0026.1552337
MOVL P00017 V=0030.0821725  +MOVL P00077 V=0030.0821725
MOVL P00018 V=0034.2547231  +MOVL P00078 V=0034.2547231
MOVL P00019 V=0038.6182326  +MOVL P00079 V=0038.6182326
MOVL P00020 V=0043.1047368  +MOVL P00080 V=0043.1047368
MOVL P00021 V=0047.6341339  +MOVL P00081 V=0047.6341339
MOVL P00022 V=0052.1161373  +MOVL P00082 V=0052.1161373
MOVL P00023 V=0056.4529756  +MOVL P00083 V=0056.4529756
MOVL P00024 V=0060.5427479  +MOVL P00084 V=0060.5427479
MOVL P00025 V=0064.2832893  +MOVL P00085 V=0064.2832893
MOVL P00026 V=0067.5763494  +MOVL P00086 V=0067.5763494
MOVL P00027 V=0070.3318489  +MOVL P00087 V=0070.3318489
MOVL P00028 V=0072.4719614  +MOVL P00088 V=0072.4719614
MOVL P00029 V=0073.9347603  +MOVL P00089 V=0073.9347603
MOVL P00030 V=0074.6771949  +MOVL P00090 V=0074.6771949
MOVL P00031 V=0074.6771949  +MOVL P00091 V=0074.6771949
MOVL P00032 V=0073.9347603  +MOVL P00092 V=0073.9347603
MOVL P00033 V=0072.4719614  +MOVL P00093 V=0072.4719614
MOVL P00034 V=0070.3318489  +MOVL P00094 V=0070.3318489
MOVL P00035 V=0067.5763494  +MOVL P00095 V=0067.5763494
MOVL P00036 V=0064.2832893  +MOVL P00096 V=0064.2832893
MOVL P00037 V=0060.5427479  +MOVL P00097 V=0060.5427479
MOVL P00038 V=0056.4529756  +MOVL P00098 V=0056.4529756
MOVL P00039 V=0052.1161373  +MOVL P00099 V=0052.1161373
MOVL P00040 V=0047.6341339  +MOVL P00100 V=0047.6341339
MOVL P00041 V=0043.1047368  +MOVL P00101 V=0043.1047368
MOVL P00042 V=0038.6182326  +MOVL P00102 V=0038.6182326
MOVL P00043 V=0034.2547231  +MOVL P00103 V=0034.2547231
MOVL P00044 V=0030.0821725  +MOVL P00104 V=0030.0821725
MOVL P00045 V=0026.1552337  +MOVL P00105 V=0026.1552337
MOVL P00046 V=0022.5148304  +MOVL P00106 V=0022.5148304
MOVL P00047 V=0019.1884293  +MOVL P00107 V=0019.1884293
MOVL P00048 V=0016.1908943  +MOVL P00108 V=0016.1908943
MOVL P00049 V=0013.5257987  +MOVL P00109 V=0013.5257987
MOVL P00050 V=0011.1870523  +MOVL P00110 V=0011.1870523
MOVL P00051 V=0009.1607088  +MOVL P00111 V=0009.1607088
MOVL P00052 V=0007.4268245  +MOVL P00112 V=0007.4268245
MOVL P00053 V=0005.9612578  +MOVL P00113 V=0005.9612578
MOVL P00054 V=0004.7373264  +MOVL P00114 V=0004.7373264
MOVL P00055 V=0003.7272574  +MOVL P00115 V=0003.7272574
MOVL P00056 V=0002.9033949  +MOVL P00116 V=0002.9033949
MOVL P00057 V=0002.2391517  +MOVL P00117 V=0002.2391517
MOVL P00058 V=0001.7097065  +MOVL P00118 V=0001.7097065
MOVL P00059 V=0001.2924694  +MOVL P00119 V=0001.2924694
MOVL P00060 V=0001.2924694  +MOVL P00120 V=0001.2924694
END
